/* XPM */
static char *anim3[] = {
/* columns rows colors chars-per-pixel */
"64 64 240 2 ",
"   c #030304",
".  c #050609",
"X  c #08070A",
"o  c #06090C",
"O  c #0A0B0D",
"+  c #18130C",
"@  c #030D11",
"#  c #0B0E12",
"$  c #01031E",
"%  c #070A1A",
"&  c #100F10",
"*  c #041113",
"=  c #0E1115",
"-  c #0E1319",
";  c #0F181B",
":  c #121315",
">  c #1B1A15",
",  c #12151B",
"<  c #181719",
"1  c #15191E",
"2  c #1C1C1C",
"3  c #1B1712",
"4  c #100F0F",
"5  c #211E1D",
"6  c #211D16",
"7  c #23211D",
"8  c #29251D",
"9  c #2E2517",
"0  c #362C1E",
"q  c #010522",
"w  c #0A0624",
"e  c #040925",
"r  c #0B0A25",
"t  c #04062A",
"y  c #060B29",
"u  c #0B0B2C",
"i  c #08072A",
"p  c #130925",
"a  c #130B2B",
"s  c #1C0C2A",
"d  c #140727",
"f  c #0B122D",
"g  c #0D1324",
"h  c #141422",
"j  c #151A23",
"k  c #1A1E24",
"l  c #14142B",
"z  c #161E29",
"x  c #191F28",
"c  c #1B1325",
"v  c #0C0D33",
"b  c #050B34",
"n  c #130D33",
"m  c #1A0D35",
"M  c #150E39",
"N  c #1C0E3B",
"B  c #0D1433",
"V  c #0C1435",
"C  c #131136",
"Z  c #1C1234",
"A  c #121B31",
"S  c #151139",
"D  c #1C113A",
"F  c #1C1B38",
"G  c #240C2C",
"H  c #260C27",
"J  c #221E23",
"K  c #27192B",
"L  c #35142B",
"P  c #230E33",
"I  c #230E3B",
"U  c #2A0F3E",
"Y  c #2C0E34",
"T  c #221333",
"R  c #24123D",
"E  c #2B123E",
"W  c #271834",
"Q  c #33133D",
"!  c #371436",
"~  c #330D34",
"^  c #1D2125",
"/  c #17212B",
"(  c #1B232C",
")  c #1D292B",
"_  c #172026",
"`  c #1D2731",
"'  c #1E2932",
"]  c #242322",
"[  c #292623",
"{  c #2A2925",
"}  c #22262B",
"|  c #232A2D",
" . c #2B2C2B",
".. c #262826",
"X. c #302E29",
"o. c #2F302F",
"O. c #33322D",
"+. c #3A3527",
"@. c #222631",
"#. c #242B33",
"$. c #292E33",
"%. c #232E39",
"&. c #2A2E39",
"*. c #27203E",
"=. c #2C3136",
"-. c #25313B",
";. c #2C333B",
":. c #29343B",
">. c #313332",
",. c #3A3A35",
"<. c #32353A",
"1. c #34393D",
"2. c #3B3C3B",
"3. c #393532",
"4. c #332931",
"5. c #4A371B",
"6. c #523D18",
"7. c #451234",
"8. c #451439",
"9. c #4B133A",
"0. c #4B1435",
"q. c #5C1438",
"w. c #4F1133",
"e. c #67123F",
"r. c #453B38",
"t. c #51322E",
"y. c #4E463C",
"u. c #1F1B43",
"i. c #2C0F41",
"p. c #3A0E41",
"a. c #251241",
"s. c #2C1242",
"d. c #291A47",
"f. c #341343",
"g. c #3C1944",
"h. c #1E374A",
"j. c #2C2545",
"k. c #362243",
"l. c #293643",
"z. c #2C3A43",
"x. c #2B3E4D",
"c. c #273646",
"v. c #353C43",
"b. c #393E43",
"n. c #363A47",
"m. c #243A52",
"M. c #480F46",
"N. c #4A1244",
"B. c #451648",
"V. c #571547",
"C. c #5A0F48",
"Z. c #661748",
"A. c #781746",
"S. c #771653",
"D. c #691752",
"F. c #56274A",
"G. c #51274B",
"H. c #6D3149",
"J. c #3C4144",
"K. c #35414A",
"L. c #3C444C",
"P. c #3F494D",
"I. c #2B4151",
"U. c #334353",
"Y. c #3C4A53",
"T. c #384657",
"R. c #3C535C",
"E. c #2F444D",
"W. c #394E62",
"Q. c #424444",
"!. c #40454D",
"~. c #4D4D4D",
"^. c #474949",
"/. c #54544D",
"(. c #58584F",
"). c #424B54",
"_. c #454C54",
"`. c #465055",
"'. c #4B555C",
"]. c #4E595D",
"[. c #485359",
"{. c #535553",
"}. c #545958",
"|. c #514F4D",
" X c #6D5A4C",
".X c #4C5A63",
"XX c #445561",
"oX c #525E65",
"OX c #515E68",
"+X c #59666A",
"@X c #536972",
"#X c #567277",
"$X c #666968",
"%X c #657373",
"&X c #747674",
"*X c #7C7D7B",
"=X c #72726D",
"-X c #831949",
";X c #971B4D",
":X c #881959",
">X c #9A1957",
",X c #A6195A",
"<X c #B4195B",
"1X c #8D2F55",
"2X c #AB1C60",
"3X c #B21B60",
"4X c #B92850",
"5X c #CA285D",
"6X c #EC1A6A",
"7X c #DC3663",
"8X c #AA405E",
"9X c #98734E",
"0X c #984653",
"qX c #F54C5D",
"wX c #CE7F5D",
"eX c #FF725E",
"rX c #F05561",
"tX c #FF7A63",
"yX c #CD4C61",
"uX c #7F817F",
"iX c #84847D",
"pX c #D68C5B",
"aX c #FB8F64",
"sX c #D59064",
"dX c #8B8B83",
"fX c #8C8D8A",
"gX c #848584",
"hX c #8F908A",
"jX c #90918B",
"kX c #9A9B98",
"lX c #9FA39F",
"zX c #A2A49F",
"xX c #A8AAA5",
"cX c #AFB1AB",
"vX c #B2B5AE",
"bX c #BBBCB5",
"nX c #B9BCB5",
"mX c #BEC0B8",
"MX c #C4C5BD",
"NX c #C9CAC2",
/* pixels */
"] [ [ 5 : 5 < & O X . . . X .   . O 6 7 ] ] [  . .> 5 7 8 8 8 8 ..8 7 6 > > > 2 ] 7 2 > 2 2 =       o o . . . O # = < = : [ [  .",
"& 5 [ J 5 J < : O X . . . X X   . X [ 7 ] [ [  . .O.>.y.2.,.2.,.,.2.,.,.Q.o...] 2 < 1 > 2 ] +     o X     . . O = : < < 5 J J < ",
"O : 5 5 5 5 5 2 < & . .     # O O X 5 [ : 2 2 2 5 2 2 (.,.7 { 8 8 8 7 O.(.7 > 2 2 2 2 : 5 7 4 O X O     . . X : < < c 2 2 < : & ",
"X   & : & < & 4 &         O : O < X < 5 5 5 7 ] ] ] [ 2.O.O.O.+.,.X.X.O.2.) 7 7 5 2 > > 2 : O < # O O     . . O & O : & : & X X ",
"    X X   # O   X X     X.y.: o 2   O O . : O & : + 4   . O.{ : 7 6 ,.4   4 4 : 4 4 : X   o   2 O & o...    O X     # .   .     ",
"O X . 3 + # O   O X .   & k .       O 9 + : > < [ [ [ 4   /.y.9 + X.(.4 4 8 8 8 2 < < 3 6 o         < &   . X O X   # .   . . X ",
"  X X # X : < # O : # = # # # O : = < ] ] ] ....[ o.O...[ ,.,.{ 8 o.y...{ { o.7 ..] 7 2 k < : : O # # # # , , # # = , O # X .   ",
"  X O = = , @.#.( &.&.n.;.<.&.$.<.<.<.<.v.,.~.iX=XfXdXdXhXiXdXhXjXiXiXiXiXuXiX+X&X}.,.$.=.=.;.<. .#.;.&.&.#.&.k c , , # - # . . ",
". . # # O - < : # & # # # # # O O O O O o : ] 2 >. . ./.{./.(.(.(.(.(.(./.,.,.o...X.2 . O O O o O # = = O O # X O O O # # @ . . ",
"O O O # # o O # O < : = : : : : : : < 2 ]  .O.>.,.2.Q.~./.{.2.^./.J.~.{.~.^.J.1.>.=...1 : : : : : : : : # # # . O O . . # # # X ",
"h , j ( z h : } #.=.<.=.;.&.#.} | #.=.1.J.`.&XxXcXnXnXmXMXNXkX*XuXkXmXMXMXMXmXvXxXlXkX`.L.v.<.;.&.&.&.&.#.x } , : h , = j z k h ",
"- - h j h z , k =.#.&.$.=.| k ] ....=.1.Q.~.&XlXzXcXvXvXbXnXMXkXfXmXmXmXbXvXvXcXkXjXfX~.<.<.;.=.&.&.#.#.#.k x J k , 1 - = h j h ",
"h - h z z k j x $.&.;.;.v.} : < 1 1 2 } ..2 {.xXxXcXcXvXmXmXmXxXkXmXmXmXmXvXvXvXlXhXgX!.<.<.=.=.#.#.#.@.| k x k k j j z , , j h ",
"- - , h h , , < ( } } } } | } ] | | <.2.G.J.'.&X&X*X*XgXgXfXgX%X+XuXfXfXfXgXgXuX&X$X=X<.$. .} ( J k 2 c j j j j : < , , , # , , ",
"1 #       = - z ( z z ( ( ( ` ` ' %.' ' %.%.%.-.l.c.x.x.U.U.L.).].).K.T.U.U.E.x.c.c.l.%.' ' ' ` / ( ( / ( x x x z # X     # k k ",
"@.,     : ` ( # - - - @ - % # @ * * ; _ _ _ ' $.-.;.l.v.K.'.`.].+X|._.P.K.K.z.v.z.z.z.;.:.' j j h ; , ; # ; h : % , # X   : #.( ",
"Q...  1 ' %..   o = . o # = , , = ; k 1 k ^ 1 ^ ^ ^ ^ ^  .].+X`.`..X+X=.} ) } } } } ^ ^ ^ $.^ - - o O = O : , .   o _ * o O | } ",
"|.<.* ' -..   ; = = q #.A e f f f u f y Z l y f f u f f f r e u f g e u f f u f f f f u f f f f f Z g e F z.1 1 =   = $.= - ;.<.",
"|.G.; -.o . / - # q q % q q $ q $ $ q q $ q $ q $ q $ p d $ $ q q $ $ q $ $ q q $ $ q q q $ K h $ s q $ w f z O O 1   , l.< =.=.",
"~.b./ ) . _ O   q q q q q q q q q q q q q q $ q q q q e q e $ q q e u q q q q q q q q q q q $ q q q q q $ $ e %   O h . l.@.=.<.",
"~.J./ ( - 1 # g q q q q q q q w d q q q q q q % q q q q q q q q q s d q q q q q q q q q q q q q q q q q q q $ w - o h , l.@.=.<.",
",.b.` ( - / $ $ $ % e q q q q w i q q q q $ t q e q q q q q q q q q q q q q q q q q q q q q q q q q q q q $ q w t ; ^ ( z.@.=.;.",
"$.=.` ` ; 1.9Xy.j $ $ $ e q q $ $ q q q q $ r } q q q q q q q q q q q q q q q q q q q q q q e y q q q q q % c % q f =.-.#.( ^ ^ ",
"<.<.` ' @ t.aXaXaX9Xr.r $ q q $ W r q q $ 4.c w q q q q q q P q q q q q q q q q q q q q q q q q q q q q % N.yXt.$ f z.( z.| 2 ^ ",
"<.<.( @.@ 7.5X4XqXeXaXpX X< $ q p q q q q % i q q q q q q q r q q q q q q q q q q q e $ s r q q q q q $ L ,XqXpX$ B -.h K.#.k ^ ",
",.<.( ' * L N.N.D.<X7XrXeXwXt.$ $ q q q q q q $ q q q q q q q q e q q q q q q q q q q q q e q q q q q q c 0XsXy.$ B $.j K.| 2 k ",
"<.<.( ' * H M.Q D I C.A.,X7XrX1XG $ q q q q q q q q q q q q q q q q q q q q q q q q q q q q q q q q q q q $ h $ q f -.j K.| 1 k ",
"=.$.h k @ e.6X<XZ.M.M I U A.;X5X5Xw.$ e q q q q q q q q e q q q q q q q q q q q q q q q q q q q q q q q q q q q $ B %.j K.) ; k ",
"< o , 1 * 0.6X:X:X,X>Xp.b v I V.>X<Xq.$ q q q q q q $ K q q q q q q q q q q q q w q q q q q q q q q q q q q q q $ B %.z :.) 1 j ",
"$X^.( #.* L >XB.a.N.:X>XS.N.$ t p.q.,Xe.$ q q q q q q c q q q q q q q q q q q w G $ q q q q $ $ q q q q q q q q $ f %.j :.) 5 ^ ",
"`.^.( #.# c B.f.s.s.I s.C.<X,X7.q V.A.;Xw.% e $ q q q q q q p p q q t q q q q q q q q q q $ 3.4.$ q q q l q q q $ B %.j z.) O.7 ",
"#XJ.( #.# 1 d.f.g.s.i.v m I D.<X-Xd L e.;X9.$ #.g q q q q q e w q q q q q q q q q q q q q $ r.K q q q e #.$ e q $ B -._ :.| _ , ",
"@XJ.( #.@ p N M I I I D N i y a.:X<Xq.H e.-XH % e q q q q q q q q q q q q q q q q q q $ d w $ $ q q q q $ q q q $ B -.z :.@.) , ",
"#XJ.( ) @ t.yXV.R E a n b V v i v N.<X-XH Z.-Xr q q q q q q q q q x r q q q q q q q q q s w q q $ q q q e q q q q f ' k z.( ] : ",
"R.2.( @.@ L 8X1XN.B.Q i t t v q t v u.S.-X7.A.7.$ e q q q q q q q K r q q q q q q q q q q q q q q q q q i y q q q t _ / z.` 9 > ",
"2.J.( ' # J G.f.d.s.B.B.U q e q q y b V A.;X7.A.H $ q q q q q q q q q q q q q q q q q q q q q q q q q q q q q q $ e / ( l.( 2 ^ ",
"P.1.( ) o } F.H.H.k.S a.B.g.M $ q q q u b Z.A.Z.e.q w q q q q q q q $ q a e q q q $ q q q q q q q q $ q q q q e a e ( ( z.` k ^ ",
"| o.( #.# g I I Q 1XH.N.E I n M r q q q y b D.;XA.H $ q q q a a q q q q a q q q q H c q q q q q q q w q q q % w w e / z z.) k ^ ",
"=.=./ ) # g a.E R M Q N.Z.V.P v M i q q q u v Z.;X7.$ q q q % q q q q q q q q q q p 8.w q q y q q d q q q q q q q y / ( z.` J } ",
"#. ./ #.# g M n N R D S M ~ 7.9.m V u q q $ y v -XA.w q q q q q q q q q q q q q e $ $ e $ q q q w 8.w q q q q q q e _ ( l.` J ] ",
" .| ( ' # h a.D I N b M n n u G 0.~ C u q q q e M ,X~ $ q q q q q q q e p e e r $ q e q q q q q q q q q q q q q $ A -.j z.` k } ",
"#.=.( ' # h d.a.u.v v v q q d m a L 9.P y q q q t >Xq.$ q e q e r r u u Q a v i q q q q q q q q q q q q q q q e $ m.x.h z.' ^ ( ",
"=.=.( | # c a.R N n b t w i q q m a H 9.Y q q e q V.;X$ H s y n u v n v Z v n i q q q q e q q q q e P w y y q e $ h.K.z z.' k } ",
" .:./ ) - A N M D R M a q q e q $ a y q ! 7.w q q ! <X$ d u v n C M C n C D S v Y a q e u t q q q r l u C S C B q m.R.' l.` k } ",
" .=.( ( g -.C b b v u a i t q e q e q t q ~ 0.% q ~ <Xw e l C V D C C C M D N n Q T y u u u u v v u M u M v S v F x.:.z -.( z ( ",
"| =.^ ( o ) } D N b q q a a q q e q q q e $ H 7.q a ,XY v S n n R Z n n Z D I M n f.I D C M C s.:XR S Q D S n d.h._ ' o :.( k ^ ",
"| ^ - ;.; o ^ j n.d.d w $ q q q q q q q e q q s H u >X! V N n n Z D M m R U a.M M R s.R R D v D.:XR C R M n F m.- h # = T.1 z _ ",
") ; ( v.n.=   ^ ( c.R I m q q q q q q $ q $ q $ q n <XM.N R n n n S M n M.,Xp.I I U i.I U E V.V.d.s.s.a.a.j.W./ 1 . # R.Y.j z _ ",
"=.1   v.v.n.=   j 1 #.W W ` C l A f l z A A A A l F 1XG.j.j.d.&.c.*.W *.G.1XF.j.j.k.j.d.*.k.8.~ P T T T Z c.1 -   o R.XX| O z z ",
"#.2   O b.L.z.  o o . - ; j ^ ^ ^ } ) | ) ) | | | ) / ' ) b.]..XOX].P.| ' ) ) | | ) | @..._ = o o . o   . . . .   T.].=.O X z , ",
"} : .   . 1.;.!.`.L.L.[.].]..X[.].OX.X+X+XoXoXOXOXoX+X.X+XY.;.-.@.#.Y.@X.XOXOX.X.XOXOXOX.X.X.X.XY..X'.'.[.n.U.[.Y.K.|     # z ( ",
": = O O   : | =.<.:.=.=.<.v.1.<.L.P.L.L.b.Y.Y.b.!.).Y.L.!.v.n.v.v.v.v.L.K.L.Y.P.b.Y._.L.b.).P.L.v.K.K.v.v.=.#.b.v.} : O : 2 ^ ..",
"2 , O O . = k 5 ^ =.1.J.L.L.J.J.J.J.1.^ : # O j ;.:.-.%.:.:.:.:.&.l.#.=.c.-.-.:.k # : < ( <.J.J.J.J.v.1.1.<.$.^ 7 k O O < , ) ^ ",
"_ 1 # # # ; { 5.#.:.L.+X+X%X%X+X].`.z.| , : # z I.x.x.I.x.I.I.I.x.I.l.x.I.I.I.I._ @ # h ( v.`.].%X%X%X%X+XJ.:.%.y.7 = o = h / _ ",
"/ k : # , k #.#.#.) | P.'.].].].L.<.;.) h # # , ( / / / _ / / / / / j z / / ( ( ; @ # j / #.;.L.+X+X]..XP.:.} ( } ) ; # 1 h ` / ",
"1 z - # , z %.#.z | 1 ^ 1.J.J.:.j , v.) h o @ # j h j g g ; j _ z j - , j j j z % o o g k #.1 #.<.b.b.$.j k | = ) #.g o - j ` / ",
". , , = , z #.) 1 ( 1 @.K.).).L.$.x ;.#.k # , ^ $.#.#.#.#.#.%.x z ' ( #.#.#.&.#.k - , ( } #.} b.).[.[.b., k #.j ( %.h # h ^ ( / ",
"- - : = = # , _ , j 1 ( ;.v.J.1.&.#.$.#.z . j | $.$.$.4.$.#.#.: - #.| | $.$.$.$.@.k j | #.$.#.v.b.n.b.| X | #.} #.#.; # ^ ( @.) ",
". . .   : O ^ @.= ^ - ^ v.Y.Y.b.( : #.( j # # > 5.2 5 5 5 5 6 6 # 6.6.5.6.5.5.9 o - . : k ( 1 =.Y.).Y.#.O < j O @.-.: o . ; ' ( ",
"O . .   O : #.@.- , = # = : ; - : X j #.k : h > O.[ [ { { [ 7 5 h +.6.0 5.0 0 J # , O z #., O = , : , : O # # , $.:.h = O # _ g ",
"O O # O O # # , = . O O . . .   o o # : = # , # # # # # # # # # # - @ - % # - % # # O # , = # O # # X # : . O , , - # # O o O O ",
"O     O . . . o O o O # # # # # # # # # O . # = # # # # # # = O X = # # # # # # o . . X O O = = # # # , , O # # # O . o . o = = ",
"= O O # o . # - : # # h , , , , , , , , # . : h h , j < , j h o X h h , h , , , # # . # , ; h , 1 , h , # - , , : - o . . # - ; ",
"o O O O O O O O # # # # - : - < : - , : : , - = : - : = = = = - , : - # - - : < , : : , - : : - ; , : , # X # # # # # # # O # O "
};
