/* XPM */
static char *anim2[] = {
/* columns rows colors chars-per-pixel */
"64 64 256 2 ",
"   c #030304",
".  c #050609",
"X  c #06090C",
"o  c #0A0B0D",
"O  c #08070A",
"+  c #18130C",
"@  c #000016",
"#  c #0B0E12",
"$  c #01031E",
"%  c #0A0E1B",
"&  c #050B1A",
"*  c #100F10",
"=  c #0E1115",
"-  c #0E1319",
";  c #071517",
":  c #121315",
">  c #12151B",
",  c #15191E",
"<  c #1C1C1C",
"1  c #1A1916",
"2  c #100F0F",
"3  c #211E1D",
"4  c #211D16",
"5  c #23211D",
"6  c #2A251B",
"7  c #362C1E",
"8  c #010522",
"9  c #0B0624",
"0  c #050925",
"q  c #0B0A25",
"w  c #070B29",
"e  c #0B0C2B",
"r  c #0B0528",
"t  c #130B2A",
"y  c #1C0B2A",
"u  c #120625",
"i  c #0B112D",
"p  c #0C1524",
"a  c #131623",
"s  c #141A23",
"d  c #1A1E24",
"f  c #151D29",
"g  c #1A1E2A",
"h  c #18132C",
"j  c #0E0D31",
"k  c #120E33",
"l  c #1C0E35",
"z  c #151235",
"x  c #191139",
"c  c #171237",
"v  c #0B1232",
"b  c #250D2B",
"n  c #271B27",
"m  c #280C3B",
"M  c #3A0A36",
"N  c #24113D",
"B  c #2A123D",
"V  c #2A1938",
"C  c #341132",
"Z  c #371539",
"A  c #1D2126",
"S  c #17222B",
"D  c #1C232C",
"F  c #1E292C",
"G  c #152A2A",
"H  c #1D2731",
"J  c #1E2932",
"K  c #242322",
"L  c #292623",
"P  c #2A2925",
"I  c #22262B",
"U  c #24292D",
"Y  c #2B2C2C",
"T  c #262828",
"R  c #312E2B",
"E  c #2F312D",
"W  c #33322D",
"Q  c #3A3527",
"!  c #202731",
"~  c #242B33",
"^  c #292E33",
"/  c #242E39",
"(  c #2A2E3A",
")  c #292534",
"_  c #2C3136",
"`  c #26313B",
"'  c #2C333B",
"]  c #2A353C",
"[  c #313332",
"{  c #3A3A35",
"}  c #32353A",
"|  c #34393D",
" . c #3B3C3B",
".. c #353833",
"X. c #342A33",
"o. c #4A371B",
"O. c #523D18",
"+. c #571739",
"@. c #471336",
"#. c #443A39",
"$. c #51302D",
"%. c #554C3A",
"&. c #464438",
"*. c #64573C",
"=. c #291543",
"-. c #361342",
";. c #300E41",
":. c #2F2244",
">. c #342247",
",. c #293542",
"<. c #2C3A43",
"1. c #2B3E4D",
"2. c #273444",
"3. c #343C43",
"4. c #393E43",
"5. c #373C4A",
"6. c #323D59",
"7. c #481549",
"8. c #55174B",
"9. c #551A52",
"0. c #4F0B44",
"q. c #66184A",
"w. c #79174C",
"e. c #681952",
"r. c #781B51",
"t. c #4B2C4D",
"y. c #6E2455",
"u. c #7C3660",
"i. c #3C4144",
"p. c #34414A",
"a. c #3C444C",
"s. c #3F494D",
"d. c #2B4151",
"f. c #3C4A53",
"g. c #344354",
"h. c #3C535C",
"j. c #2C434B",
"k. c #424444",
"l. c #40454D",
"z. c #4D4D4D",
"x. c #474949",
"c. c #54544D",
"v. c #5A5B4A",
"b. c #424B54",
"n. c #454C54",
"m. c #4A555A",
"M. c #545756",
"N. c #514F4D",
"B. c #4D5A63",
"V. c #445661",
"C. c #525E65",
"Z. c #535E68",
"A. c #4E4663",
"S. c #59666A",
"D. c #556D75",
"F. c #666968",
"G. c #787977",
"H. c #687372",
"J. c #6C664A",
"K. c #930C52",
"L. c #871955",
"P. c #981856",
"I. c #8E174C",
"U. c #A71959",
"Y. c #B6185C",
"T. c #A4124D",
"R. c #9A2356",
"E. c #9B3754",
"W. c #882B55",
"Q. c #AC2656",
"!. c #AC3556",
"~. c #B43056",
"^. c #B33364",
"/. c #9B2461",
"(. c #C6195B",
"). c #EA135E",
"_. c #EA1E5E",
"`. c #EA0D5F",
"'. c #DA3C5C",
"]. c #C72E5B",
"[. c #EA2A5E",
"{. c #EA395B",
"}. c #F4355F",
"|. c #D71762",
" X c #C61160",
".X c #E81762",
"XX c #F31862",
"oX c #F00E66",
"OX c #D32766",
"+X c #EB2A61",
"@X c #F52463",
"#X c #EA3862",
"$X c #F13964",
"%X c #92444E",
"&X c #914450",
"*X c #B44758",
"=X c #B45853",
"-X c #B24E4F",
";X c #89744C",
":X c #836E45",
">X c #B86957",
",X c #BC6163",
"<X c #C4455B",
"1X c #D54D5A",
"2X c #EB4B5B",
"3X c #E9485A",
"4X c #EB5759",
"5X c #F4585A",
"6X c #F4495C",
"7X c #C36A57",
"8X c #EC6756",
"9X c #F56859",
"0X c #EE7755",
"qX c #F47556",
"wX c #F47B55",
"eX c #F3735A",
"rX c #F9795B",
"tX c #E1754D",
"yX c #EB4961",
"uX c #F34E62",
"iX c #FA6B61",
"pX c #D34E69",
"aX c #7F817F",
"sX c #95874F",
"dX c #AF8F53",
"fX c #84847D",
"gX c #9E8C60",
"hX c #BEA55B",
"jX c #F68657",
"kX c #ED9856",
"lX c #F9985A",
"zX c #EE8D51",
"xX c #D2AB5D",
"cX c #F9A858",
"vX c #F9B459",
"bX c #EEAD58",
"nX c #EE8563",
"mX c #CEB065",
"MX c #FFAB61",
"NX c #FEC35B",
"BX c #FBC563",
"VX c #F7D46D",
"CX c #EECB69",
"ZX c #FFE36D",
"AX c #898A85",
"SX c #9A9B98",
"DX c #90918B",
"FX c #A8AAA5",
"GX c #AFB1AB",
"HX c #B2B5AE",
"JX c #BBBCB5",
"KX c #B9BCB5",
"LX c #A1A49F",
"PX c #BEC0B8",
"IX c #C4C5BD",
"UX c #C9CAC2",
/* pixels */
"K L L 3 : < 1 * # O X O . .     O o 5 K 3 K L Y Y 1 5 5 6 6 K 6 6 T 6 < 1 1 1 3 K 3 < , < 3 2 .     O O . . . o # # > * : L T Y ",
"* 3 5 n 3 3 , : o O   . . o X     O 6 5 K T T P Y W ..&. .{  . .{ { { ..&.E P A < 1 , 1 < 5 + .   . O   O   . # * > 1 1 < n n 1 ",
"o : 3 n n < 3 < 1 *   .     * X O o 5 L : < 5 < 3 1 < M.{ 5 P 6 6 6 5 W c.K 1 < < < < : 3 5 2 o O o     O   O : < < < y < 1 : o ",
"O   2 : * 1 * 2 *         o * * < O : 5 5 < < L L K L #.W E W Q ..W E W  .T 5 K 3 3 1 1 < > O 1 # o o       O o o o : * : : . o ",
"    O O   # o   O O .   X.k.1 O <   o o . : o 2 : + 2   . Q R : 5 4 { o   o + : o 2 : O . X   < # o W Y     O X     o O   .     ",
"o .   1 + o o   O O     # < .       o 6 + : 1 1 L K L + . c.&.6 + E v.2 o 6 T 6 < 1 < + 4 X     .   > #     o o O   #     .   O ",
"  O o o o : > # # : * % # # # o : 2 , I K K T T K W W Y L { { 6 P E &.T 6 E E 5 L K 5 < < , = : o o o # # > > - # # a # # X O   ",
"  . o : = , U ~ A ( ( 3.' } ( ^ } } } [ 4...N.aXH.DXAXfXDXfXAXDXDXAXfXAXfXG.aXF.G.M. .^ ^ ( } } U ^ ' ' ^ ~ ( s s , > # # # . O ",
"  O # # o - > : # * # # # # # o O o o o O : n 3 W Y W z.c.c.v.M.v.v.c.c.c.{ [ E T Y < . o o O O o # - # o o o o o X X % # #   O ",
"# X # # # X # * o > : : : : : : : : < < A Y [ [  . .i.z.N.M. .l.z.i.z.M.z.x.k. ._ _ T 1 > : : : : : - : % # #   O # O O o # o o ",
"> a s D g a : A ^ _ } _ ' ( ~ I U U ( | k.z.G.FXGXKXJXIXUXUXSXG.aXSXIXIXIXIXJXKXFXLXSXm.i.3.3.' ( ( ( ' ) d I , > > > * a d h s ",
"- - a a s s , d _ ~ / ^ _ U d K U Y Y | k.z.H.LXLXGXGXHXKXKXIXSXAXIXKXPXKXKXHXFXSXDXAXz.} 3._ _ ( ^ ~ ~ ! d d d d > s - - a s a ",
"a > a s g s s g ^ ' ' _ 3.I : > < , < I T < M.FXLXHXHXHXJXPXPXFXSXKXJXIXJXKXHXGXLXDXAXl.} } _ ^ ^ ~ ! U U d g g g s s s , > f a ",
"- - > a , a , : A I I I I U I K I ~ }  .i.t.M.H.G.G.G.AXAXDXAXH.S.AXDXAXAXAXAXfXH.F.H.} ^ Y I I d d d s s s s < : : , > : # - : ",
", #       # - f H f S S S S H J H J J F J ` ` 2.2.,.1.5.g.g.s.n.m.b.5.g.g.g.1.1.2.<.2./ H H H S H D D S D f g f f # X     # g d ",
"! >     - H D # - - - # - = & X # ; - S A G F / ` ` <.<.p.m.n.m.S.z.n.b.1.p.3.<.3.<.<.] ` ~ s f a : > > - - > > # > # o   * ^ D ",
"t.P   , S / O   X # . @ # = > > = > d s , A , A I T A A U M.S.b.n.C.S.[ A I F T I F K A A ^ S : = # o = = : > .   . A ; . o U I ",
"c.| = J ` O   - - # 0 0 w h z i i i i i i i i w h g i i i w w w i e 0 i i i i e i i i i z i i e w w 8 w v <., , =   # / = = } ' ",
"z.i., ` X   S : # 8 8 8 8 8 $ 8 $ $ $ $ $ 8 $ $ $ $ 8 $ 8 8 $ 8 $ 8 $ $ $ 8 8 8 $ $ 8 8 $ $ 8 8 8 8 8 8 $ v f o # > . > ] > _ _ ",
"x.i.S D . S #   8 8 8 0 8 8 8 8 8 8 8 0 r 8 8 $ f D $ 8 8 8 8 8 8 8 e b $ 0 8 8 8 8 8 8 8 8 8 8 8 8 8 8 8 $ e :   2 , . <.! _ } ",
"z.i.D S - , o q 8 8 8 8 8 8 8 8 8 8 8 9 b 8 8 8 8 8 $ q 8 8 8 8 8 8 8 $ 8 8 8 8 8 8 8 8 8 8 9 r e 0 8 0 @ 8 @ $ @ . s > ,.! } ' ",
" .4.D J ; S p 8 8 8 8 8 8 8 8 8 8 8 8 8 8 8 8 8 8 8 8 b 8 8 8 8 8 8 8 8 8 8 8 8 8 8 8 8 8 e k e 8 $ $ @ g T J.:X;X&.a D <.! ( } ",
"^ [ H S p J 8 8 8 8 8 8 8 8 8 8 8 8 8 8 8 8 8 8 8 8 8 $ 8 8 8 8 8 8 8 8 8 8 8 8 8 8 8 t y t $ $ s #.;XdXbXbXMXlXlX7XJ 2.` A A A ",
"} } F J - f 8 8 8 8 8 8 8 8 8 8 8 8 8 8 8 8 8 f p 8 8 8 8 8 0 8 8 8 8 8 8 8 8 8 8 w x e $ $ R ;XxXvXvXjX9X6X6X}.XXOX3.F ] I d 3 ",
"} _ D H = & 8 8 8 8 8 8 & 0 8 8 8 8 8 8 8 w 8 g p 8 8 8 8 8 r 8 8 8 8 8 8 8 8 8 k c $ 8 %.dXvXvXjX8X{.|.|. X XY.(.Y.` s p.~ < A ",
" .} H F = q 8 8 8 8 8 i I $ 8 8 8 8 8 8 8 8 8 $ 8 8 8 8 8 8 8 8 8 8 8 8 8 8 y N i @ %.xXMXlXqX{.[.(.P.U.I.r.w.e.-.>.` s p.U , A ",
"} } D H - ; 8 8 8 8 8 8 8 8 8 8 8 8 8 8 8 8 8 8 8 $ 8 8 8 8 8 8 8 8 8 8 8 t Z 8 - ;XNXcXqX{.{.2X6X9XrXrXiXiXrXiX<XW.` s p.~ , < ",
"_ ^ a s - ; 8 8 8 8 8 8 8 8 8 8 8 8 8 8 8 8 8 8 8 8 8 8 $ 8 0 8 8 8 8 0 C C @ R xXBXzXwXwXeXqXqX4X7X=X=X=X=X=X=X].OX` s p.F , A ",
"< O > , - % 8 8 8 8 8 8 8 8 8 8 8 8 8 8 8 8 8 $ 8 8 8 9 n & 8 8 8 8 $ n C $ %.CXvXkXjX8X4X5XuX6X#X'.'.'.'.'.1X1X<X!.` s ` D > , ",
"F.x.S ~ = % 8 8 8 8 8 8 8 8 8 8 8 8 8 8 8 8 8 t 0 8 8 a V $ 8 8 8 $ b @.$ %.VXvX0X9X9X6X5X1X(.Q.I.K.K.K.K.K.K.].4X^.` s ] F 5 A ",
"n.x.F ! = & 8 8 8 8 $ $ 8 8 8 8 8 8 8 0 8 8 8 C u 8 8 8 $ 8 8 8 8 b +.9 &.VXvXjX4X1X].P.R.w.!.E.%X%XE.%X&X&XE.r.0.9./ s ] J W 5 ",
"D.i.F ~ = & 8 8 9 9 8 8 8 8 8 8 8 8 8 $ 8 8 8 $ 0 0 8 8 9 8 8 $ y @.y A CXlXtX{.Q.!.=X>XzXkXvXcXlXlXcXjXlXlXrX8X8X,X` s <.F A , ",
"D.i.J ! = % 8 8 t u 8 8 8 8 8 8 8 8 - b $ 9 8 0 8 8 8 8 8 8 8 % C C X gXcXzXjXkXcXkXvXvXvXvXcXjX0XeX8X0XjXwX0XjXjXnX] s ,.! I > ",
"D.i.A A = & 0 8 $ 8 8 8 8 8 8 8 8 9 b h $ 8 8 $ 8 8 8 r 8 8 9 b +.& *.VXvXBXbXcXbXvXcXkXkXjXkX5X3X9X8X5X5X4X*X*X~.*X^ s ,.F A : ",
"h.i.D J # % 0 8 8 8 8 8 h T $ 0 8 9 t $ 8 8 $ ^ e $ & b & 8 u @.@.K mXBXkXbXcXvXbXcXjXwXqX4XeX8X+X{.[.#X+X+X1X!.<X,XX.f <.D 6 1 ",
"| i.D ! % ; 8 8 8 8 8 8 8 $ 8 0 8 8 8 y 8 8 0 $ 8 8 8 $ 8 8 C +.$ ;XZXvXvXlXkXjXeXeX4X4X5XqX2X[.{.`.oX|.U.Y.Y.U.P.E.) d <.F < K ",
"k.| A F # & 8 8 8 8 8 8 8 8 r t 8 8 8 y 0 8 8 8 $ 8 8 8 $ u M M Y CXvXzX8X{.2X9XrXwX9XeXrXiX@X$XuXoX.X.X|. XU.L.Y.L.) A <.H d d ",
"^ ^ D J = & 0 8 8 8 8 8 8 8 8 8 8 8 8 8 $ $ 8 8 8 8 $ 8 8 b +.u J.BXqX5X2X9XjXwXeX8X1X-X!.!.U.P.P.P.w.e.e.L.P.8.9.e.H s <.F n g ",
"_ _ S U # - 8 8 8 8 8 8 8 8 8 8 8 8 8 8 C y 0 8 $ C C $ r C +.9 hXcXqXqXwX4X5X4X1X~.!.E.!.!.~.!.Y.Y.Y.Y.L.w.L.L.r.9.! D ,.H K A ",
"U U D J # % e q 8 8 8 8 8 8 8 8 8 8 8 9 y t 8 8 8 y C Z $ M @.W NXjX8X4X4X2X2X3X2XyX+X|.Y.P.P.P.P.I.P.P.L.L.e.L.L.e.! S <.H K K ",
"_ T D H # & g h 8 8 8 8 8 8 8 8 8 8 8 8 8 8 8 8 8 8 u y b @.b sXcX8X4XeXqXrXqX5X4X3X#X_.|.(.U.P.P.K.9.8.L.R.y.q.8.y.` s <.J d A ",
"~ _ F F % % $ $ 0 8 8 8 8 8 8 8 8 8 8 8 8 8 8 8 8 8 y $ M +.w xXcXjX9X8X8X6X2X5X8X5X2X}.).XX|.Y.Y.L.e.r.r.7.8.9.-.d.1.f <.J d F ",
"E _ D J # a t 8 8 8 8 8 8 0 w w r Z y 8 8 8 8 8 8 0 0 l C @.#.vXlX8XyX2X8XqXqXjXeX2X[.+XoX).@X_..X.X.X.XU.P.9.-.=.6.1.f <.H A F ",
"~ _ D F - g t 0 w w 0 e k j k e e k k e r 0 8 w r e e b q.0.v.cXtX9XqXjXjXqXqXqX5XyX[.#XyX{.uXyX#X.XXX|.U./.r.e.r.A.g.J ,.H d I ",
"^ _ g D > ~ v k j j j c j j c j k c k k k j k k k j j l e.M %.MXkXjXrXwXwXwXqX9X8X#X[..XoX`.`.).`.`..X(.U.L.y.L.W.p.` d ` D s D ",
"U ^ g F X J F z c c c N x ;.x c =.x c c x c x c z c =.B q.m ;XNXzXrXwXqXqXwXwXjXjX{.+X#X[.[.#X[.#X_.U.U.L.r.W.u.1.f J X ] H d S ",
"U F : _ > X A , 2.=.l N N =.m m ;.7.-.B B N N N N B -.-.q.M mXcXjXwXeXrXeXqXrX9X9XuX3X2X2X2X2X2X6X'.*XL.e.L.W.5.& f # = f.- d S ",
"T : I 1.3.# . d F 5.=.m B =.=.m ;.-.-.m m m ;.;.;.;.m 0.L.0.mXvXrXrX9X9X5X5X5X9X6X}.#XXX@X@X@X@X+XpX,X*X/.u.A.G > . & V.f.< f f ",
"^ ,   4.3.3.=   , , ( V t.) =.-.( =.) :.:.:.>.>.>.:.>.>.y.t.gXdX=X-X-X=X>X>X>X,X^.Q.Q.Q.Q.Q.T.T.T.@.b @.@.t.G ;   O h.B.U O S s ",
"/ ,   o 4.p.3.. . X O - ; , G A A A F ! F U F T F U U U F 3.f.h.V.h.j.H S S G G G G G G G ; ; X X . X . . . . .   f.m._ o O S p ",
"T > .   . | ' a.f.a.p.m.B.m.m.m.B.S.B.S.S.Z.Z.Z.B.S.S.B.S.b._ ' ^ ^ b.S.B.B.S.B.B.Z.B.Z.C.B.B.B.b.B.V.V.m.3.g.m.f.a.U     = A D ",
"- : o O . : U '  ._ _ ' | | 3. .a.a.a.a.3.a.l.a.b.l.s.a.l.5.3.3.3.3.3.a.i.a.l.f.a.l.b.a.a.s.f.a.3.a.3.3.3._ ~ 3.<.U : O : , A U ",
", , # o . # < 5 A _ | i.a.p.i.i.4.4.} A = : o s ' ` ` ` ` ` ,.] ( ] ~ ' ` ` ` ` s # : > A 3.3.i.a.i.3.3.| ' _ A 3 d o o : , F d ",
"s > # # # > P o.~ ] p.S.S.H.H.S.S.n.| J > = # d 1.1.1.1.1.1.1.1.1.d.,.1.d.d.d.d.S o # , I <.n.M.H.H.H.H.S.i.] ~ O.5 ; . = , f g ",
"F d - # , g ! J ~ U U s.m.m.m.B.a.] ' H a # # ; D S S S S G S D S S s f S H H S - & # a A / } a.B.S.M.m.s.` T S / ~ a # > a S S ",
"> d - # > d ` ~ A F , A 4.i.i.} s : | F - # # # f p a , p , p s s f - - s s p s = X # - g ! , U 4.3.p._ s A F - J J - # - s H F ",
"O > > # > d ~ ! , D s ! a.b.b.a.~ g ' ~ d X > A ( ~ ^ ) ~ ~ ~ D f ~ I ! ~ ( ~ ~ d : > S U ~ I 3.n.n.n.4., d ~ s H / a # s S D D ",
"= - > # # # > g > s > F _ 3.3.3.' ^ ^ ~ g X d U ~ ^ ^ ^ ^ ^ ~ : - ! U U ^ ^ ( ^ U d s U ~ ^ ~ 3.a.3.a.~ O I ^ I ~ / > # A A ! F ",
". O .   > o d ! = d > A 3.f.b.3.A : ~ S s o # 1 o.< 3 3 3 3 1 4 : O.O.o.O.O.o.6 X %   : d S < ' a.f.b.! O , , o ! / : X . , H D ",
"O . . . o : ~ ~ ; > = # = > : - % X < ^ d > a 1 Q T L P L L 6 3 p Q O.7 o.7 7 3 % > # s ^ - X - > > > * o # # s ^ ` a # X # s a ",
"o o 2 o # o # : # X O O . . . . O O # - : # > # # # X # # # # # = % # % $ # # % # # o # > = # # o # X # * X # > > > # # X X o # ",
"O O O O O   X X # o o # # # # o # # # o o O o = # # # # # # # o O # # # # # # # X O O X # o # = # : # , , # # X # X   O O X # # ",
"= X o X X O # - - # # , > > , , > > > a # O = a , a s , , a a X o s a , , , , , # # O # > = > > > a , : X : > - > - X O X # > > ",
"X # o X X o o o # # # # - : - : > = > : - : - : = - : # = = = : - = # : % % : = - : : > : > > - > : - > # X # # # # # # # # X # "
};
