/* XPM */
static char *anim1[] = {
/* columns rows colors chars-per-pixel */
"64 64 215 2 ",
"   c #030304",
".  c #050609",
"X  c #08070A",
"o  c #06090C",
"O  c #0A0B0D",
"+  c #100F0F",
"@  c #1A140B",
"#  c #11100F",
"$  c #0B0E12",
"%  c #01031E",
"&  c #050A1B",
"*  c #0A0E1B",
"=  c #100F10",
"-  c #110B1E",
";  c #0E1115",
":  c #0E1219",
">  c #121315",
",  c #1B1A15",
"<  c #12151B",
"1  c #181719",
"2  c #15191E",
"3  c #1C1C1C",
"4  c #1B1712",
"5  c #211E1D",
"6  c #211D16",
"7  c #23211D",
"8  c #29251D",
"9  c #2E2517",
"0  c #362C1E",
"q  c #010522",
"w  c #0B0624",
"e  c #040925",
"r  c #0B0A24",
"t  c #060B29",
"y  c #0B0D2C",
"u  c #130A25",
"i  c #130C2B",
"p  c #1B0C2C",
"a  c #140826",
"s  c #0B112C",
"d  c #0B1225",
"f  c #131523",
"g  c #141A22",
"h  c #1A1E24",
"j  c #151D29",
"k  c #1A1E2A",
"l  c #1A1329",
"z  c #0E0E32",
"x  c #130E33",
"c  c #1C0F3A",
"v  c #1C0C35",
"b  c #0C1431",
"n  c #0E1933",
"m  c #141136",
"M  c #1A1335",
"N  c #161339",
"B  c #1B123A",
"V  c #121A37",
"C  c #230C2D",
"Z  c #2A0F2E",
"A  c #211F22",
"S  c #25172C",
"D  c #220D33",
"F  c #240E3D",
"G  c #2A0E3E",
"H  c #2C0E32",
"J  c #23123D",
"K  c #2A123E",
"L  c #271536",
"P  c #341131",
"I  c #32123C",
"U  c #39153C",
"Y  c #350F33",
"T  c #172126",
"R  c #1D2125",
"E  c #17212B",
"W  c #1B232C",
"Q  c #1F292C",
"!  c #1D2731",
"~  c #1E2932",
"^  c #242322",
"/  c #292623",
"(  c #2A2925",
")  c #22262B",
"_  c #23292D",
"`  c #2B2C2B",
"'  c #272728",
"]  c #302E29",
"[  c #2F302F",
"{  c #33322D",
"}  c #3A3527",
"|  c #212730",
" . c #242B33",
".. c #2A2E33",
"X. c #232E39",
"o. c #2A2E39",
"O. c #263037",
"+. c #2C3136",
"@. c #25323B",
"#. c #2C333B",
"$. c #2D383F",
"%. c #313332",
"&. c #3A3A35",
"*. c #32353A",
"=. c #34393D",
"-. c #3B3C3B",
";. c #353833",
":. c #4F3A1C",
">. c #45331A",
",. c #523D18",
"<. c #6A1E3E",
"1. c #433B38",
"2. c #553831",
"3. c #46443D",
"4. c #56483B",
"5. c #1D1C43",
"6. c #2A0F40",
"7. c #2C1241",
"8. c #2D1A48",
"9. c #2A1A43",
"0. c #391842",
"q. c #1F374A",
"w. c #2D2243",
"e. c #322345",
"r. c #382448",
"t. c #2A3643",
"y. c #2C3A43",
"u. c #2B3D4D",
"i. c #253647",
"p. c #353C43",
"a. c #393E43",
"s. c #353B48",
"d. c #481348",
"f. c #571749",
"g. c #60104B",
"h. c #6F1853",
"j. c #4C274A",
"k. c #76264F",
"l. c #3C4144",
"z. c #35414A",
"x. c #3C444C",
"c. c #3F494D",
"v. c #2B4151",
"b. c #334353",
"n. c #3C4A53",
"m. c #364759",
"M. c #3C535C",
"N. c #2F444D",
"B. c #424444",
"V. c #40454D",
"C. c #474949",
"Z. c #4D4D4D",
"A. c #464947",
"S. c #4F514F",
"D. c #54544D",
"F. c #58584F",
"G. c #424B54",
"H. c #424F59",
"J. c #464B51",
"K. c #465055",
"L. c #4B555C",
"P. c #4D595D",
"I. c #485359",
"U. c #535553",
"Y. c #505A5D",
"T. c #575854",
"R. c #534E4B",
"E. c #61514D",
"W. c #445561",
"Q. c #4C5A63",
"!. c #525E64",
"~. c #505E68",
"^. c #546169",
"/. c #5E6C6E",
"(. c #5A6568",
"). c #536972",
"_. c #567277",
"`. c #666968",
"'. c #657373",
"]. c #747674",
"[. c #7C7E7D",
"{. c #797972",
"}. c #72726D",
"|. c #9E1459",
" X c #AE2E5B",
".X c #901F61",
"XX c #CF235C",
"oX c #9E7D51",
"OX c #A7684E",
"+X c #B24D4A",
"@X c #C1705F",
"#X c #F76A68",
"$X c #7F817F",
"%X c #84847D",
"&X c #FF8F65",
"*X c #838482",
"=X c #868887",
"-X c #8B8B83",
";X c #8C8D8A",
":X c #8F908A",
">X c #90918B",
",X c #9B9D99",
"<X c #969895",
"1X c #9FA39F",
"2X c #A2A49F",
"3X c #A5A7A2",
"4X c #ACAEA8",
"5X c #AFB1AB",
"6X c #B2B5AE",
"7X c #BBBCB5",
"8X c #BEBFB8",
"9X c #B5B8B1",
"0X c #BEC0B8",
"qX c #C4C5BD",
"wX c #C9CAC2",
/* pixels */
"^ / / 5 = 5 > = $ X . . . X     . O 7 ^ 5 ^ ^ ` ] 3 5 7 8 8 / ( ( 8 8 3 , , 1 3 8 5 3 3 3 3 # .     o . . . . O $ - > = 1 / ' ` ",
"= 5 A A A 5 1 > $ X . . . X O     O 8 7 ^ ' ( ( ` { { 3.&.&.&.&.&.&.&.;.3.[ ( ^ 3 3 1 1 3 ^ # .   . o   .   . O = > 1 1 3 A A 1 ",
"O = 5 A A 5 5 5 1 + . .   . = X . X 7 ^ 1 3 3 3 7 , 5 T.&.7 ( 8 8 8 8 { D.^ 1 3 3 3 6 > 5 7 + O . o .   . . O > 1 3 1 h 1 5 > = ",
"O   = 4 = 1 = + =       . X = $ 3 X 1 7 3 5 7 ^ ^ ^ ^ -.;.] { } ;.] ] { 3.^ ^ ^ 3 5 1 1 1 1 o 1 + + X     . . X $ O > = = = . X ",
"    . .   $ O   X X     ` 1.1 o 3   $ X   > O # 4 > #   . ;.( > 7 6 &.+   O @ > O > > X   .   3 O ; ] `     X X     $ .   X     ",
"O X . 4 @ $ O   O X .   = 5 .       O 9 @ > 1 1 / 8 8 #   D.3.9 @ ] F.# o 8 8 8 3 1 1 @ 6 O         1 $     X $ X   $     X . X ",
"  X X $ X > < $ O > - $ $ $ $ O > + 2 ^ ^ ^ ' ' / { +.` / 3.;.0 8 { -.( ( ] [ R ^ ^ ^ 3 h 3 ; > o o $ $ $ < < $ $ $ 1 $ $ X .   ",
"  . $ = = f _  .) o.#.y.*.#.+...*.*.*.*.-.-.Z.%X}.;X-X%X:X%X%X:X:X-X%X-X%X{.$X`.{.T.-.......*.*.` ..#.#.o. .o.h f 1 < $ * $ . . ",
"  o $ $ $ * 1 > $ $ $ $ $ $ $ O . X O O . 1 ^ 7 %.` ` D.T.D.T.D.F.F.F.F.D.&.;.[ / ] 2 . O O . . O $ = $ $ X $ X $ O X $ * $ . . ",
"O X $ $ $ o O = O > > ; > > > > > 1 3 3 ^ ' ` +.=.-.3.C.S.S.-.C.Z.l.S.S.S.A.B.=.+.[ ' 1 > 1 > < > > - < $ $ $ . X O . . O $ O o ",
"f < j h k < < k ..+.*.+.t... .) _ _ +.=.x.S.].4X6X7X7XqXqXwX,X[.$X1X0XqXqXqX0X9X3X1X<XL.a.p.=.#.+.+.o.o. .h ) < < < < > g h j f ",
": : f f j h < h +. .o...+._ h ^ _ ' ..=.B.Z.].,X2X4X6X6X7X7XwX,X-X0X0X0X7X6X6X5X<X>X;XS.=.y.+.+...X.o. .| h h k h < f < ; f g f ",
"f < f j j h f R o.+.+.+.=._ = 1 2 2 3 ' ' h U.3X2X6X5X6X0X0X8X3X1X9X8X0X7X9X9X5X1X>X*XV.*.#.+.+. . .| | _ k k h h j f h < < j f ",
": : < f g < 2 > R _ | ) _ _ ) ) )  .*.-.B.l.U.].{.[.[.*X=X=X=X`.(.$X;X;X;X*X*X%X].`.}.*...` ) W ^ h h g g 2 3 g ; 1 < < < $ < < ",
"g O       ; : j E E E E E W ! ! ! ~ ~ ~ X.X.X.@.i.i.u.u.m.b.x.G.L.J.z.n.m.b.u.u.i.y.i.X.~ ! ! ! W W W W W E k k k $ X     $ h g ",
"_ <     : ! W $ : : : $ : $ & o ; * : T k k ~ O.O.+.$.p.z.P.G.P.(.S.G.n.z.z.p.y.p.y.y.#.$.~ g g g : < < : : : < $ : $ O   =  .) ",
"j.`   < W @..   o ; . o $ ; 2 < ; < 3 2 2 3 g R R R ^ R ..P.(.K.K.Y.^.+.^ ) ) ) ^ Q ) R R O.R < ; $ $ $ O > < .   . j ; . O _ _ ",
"S.;.; ~ @..   : ; $ q e t t s s s s M M d V s d s t s y s e t t s s e t s s s t s s s s s M m t t t e t n y.2 2 ;   $ O.; ; +.*.",
"Z.l.< i.o . R : $ e q q q q q w ' % a w % w q % % q q % % q q % q % q q q q q q % q q % % % q % q q q q q b j O $ <   2 #.< +.+.",
"Z.l.T Q   E $   q q q q q q q q % q % q q q % q q q q q q q q q q q q q q q q q q q q q q q q q q q q q w % e *   O g   t.X.+.*.",
"Z.l.T ! : 2 O d q q q q q q q q e q q q q q q w q q q q q q q q q q q q q q q q q q q q q q q q q q q w C q q q : O g : t.| #.*.",
"=.l.E ! : E d q q q q q q q q q q q q q q q % % q q q q q q q q q q q q q q q q q q q q q q q q q q q q % q q q e : h ! y.| +.+.",
"..+.! W g ! e q q q q q q q q q t q q q q % % l u % e q q q q q q q q q q q q q q q q q q q q q q q q q q q q q q y o.X.o.R ^ R ",
"*.*.W ! ; j q q q q q q q q q q e q q q q % C  X+Xr q q q q q w D q q q q q q q q q q q q q q q q q q q q q q j e s y.W y._ h h ",
";.+.! W ; * e q q q q q q a p q q q q q q q k.XX&X2.q e q q q q w % q q q q q q q q q q q e q q q q q q q t q R r s O.g z. .3 R ",
"-.*.W ~ ; & q q q q q q q q q q q q q q q % 2.@XoXw q q q q q q q q q q q q q q q q q r ' % q q q q q q q q q % % n O.g z.| 2 R ",
"*.*.W ~ ; : e w q q q q q q q q q q q q q q % r & q q q q q q q q q q q q q q q q q q q q q q q q q q q q q q q % b X.g z._ 1 R ",
"....2 j ; * r C % q q q q q q q q q q q q q q q q q q q q q q q q q q q q q q q q q q q q q q q q q q q q q q q q n X.g z.Q 2 T ",
"3 X : g : : q q q r r % q q q q q q q q q q q q q q q q q q q q q q q q q q q q q q q q q q q q q q q q q q q % % n O.g @.W < 2 ",
"`.A.R  .; * q e q p w q q q q q % q q q q q q q q q q q q q q q q q q q q q q q q q q q q q q q q q q q q q q i q s @.g $.W 6 R ",
"K.A.W  .$ * e q q q q q q r % f 4.q q q q i r q q q q q q q q q q q q q q q q q q q % q q q q q q q q e w q q P w n O.j $.~ ;.7 ",
"_.l.! | $ * q q q q q q q q % l 1.% q q % k f q q q q q q q q q q q q q q q q q r w q q q q q q q q q q q q q % % V ~ j $.Q T 2 ",
").l.W  .; * q q q q q q % w a % % q q q q q q q q q q q q q q q q q q q q q q q a a q q q q q q q q * Z % w q e % b O.h y.| W < ",
"_.l.W W ; * e q q q q q q a a q q q q q q & q q q q q q e q * % q q q q q q q q q q q q q % q q q w C p % q q q % b ~ j @.~ ^ > ",
"M.l.W ~ $ & q q q q q q q q q q q q q q q q y q q q q q q S |.<.& q q q q q q q q q q q l _ % w q r i % q e % ..r e E k y.W 9 3 ",
"&.l.E ! ; : q q q q q q q q q q q q q q q q q q q q q q % E.#XOX% q q q q q q q q q q q q & q q & % % p q q q & q e W R y.W 3 R ",
"c.=.R Q ; * q q q q q % q q q q q q q q q q q q q a w q q w ` r q % q q q q q q q q q q q q a y q q w a e q q q q t W k y.! 3 R ",
"' ..W ~ $ * e q q q w P w q q q q q q q q q q q q a q % q q % q q w Z w q q q q q q q q q q q q q q q q % q q q q e k h y.Q h R ",
"+.+.W ~ $ : q q q q & P H % e q e q a w q e q q q q q q & ' e q q w a & q q q q q q q q q q q q q q q q Y p q q % U o.k y.! A W ",
".._ W Q $ * e q r w % % q q q q q % Y C % q q q q q e q q i q q q q q q q q r r q q q q q q q q q q q e p a q q q i W W y.W A ) ",
"_ _ W ~ ; : e q p w % q q q q q q q q q q q q q q q q q q q q q q q q q q q k l q q q q q q q q q q q q q q q q q V @.h y.W R R ",
"[ +.W Q $ * q q % q q q q q q q q q q q q q q q q q q q % q q q q q q q q q % q q q q q q q q q q q q q q q q q % i.u.f y.! R W ",
"O.+.W ~ $ f e e e q % q q e q q q q q i i e y e e t q D r t y w w q y w q w r q q q q q q e t t w I p q q q q q % q.v.j y.~ R W ",
"_ +.W Q : s t z y v H q q s r e q q w x i z N v z b i x x y y y x y i y e a a e t e q z b i x t y x x y w q e y % i.M.~ t.| h _ ",
"..+.R W d X.m y z F I y y y y y z z z N b x x x m m x x z z z m N z x x x z y z x x x x z b m x x c z x z z m x V i.i.j @.W R W ",
"_ O.j R O _ R B v x J K v N N m m h.f.z 7.9.N m B x x B m m c B c N c B N m B N x m B B c 7.J B F c m B B m x 5.i.T Q o @.W j R ",
"_ ) ; $.: . R g t.5.v 6.6.c F x K .Xd.z B B m B B m F K B B J L c c N x m N N c m B B F 6.7.J J 6.d.0.F 7.c 9.i.: g $ $ m.: j E ",
"Q > ) z.p.; . h W u.8.7.7.6.K d.g.7.6.6.6.6.c 8.6.7.F G K F G K F F F F 6.F F F 6.6.K F K K 7.K 6.d.0.7.6.8.m.W g o $ L.n.3 j E ",
"..2   p.s.z.O   g 2 o.L L L o.d.j.U r.w.w.w.w.w.r.e.r.r.e.e.r.e.9.o.9.e.e.e.e.e.r.w.e.w.j.e.L Z D p M p M t.g $   O H.W.... k j ",
"+.g   o l.z.p.  o O o ; g g R T R R Q ( Q Q Q ) Q Q Q ) _ z.P.Q.~.L.c._  .Q ~ Q ~ Q Q Q Q g ; o o o . . o . . .   n.Q...O . T < ",
") < .   . p.#.n.n.x.x.I.P.P.Y.L.!.^.!.!.^.!.^.^.^.!.^.Q.^.G.+.#.|  .n.).Q.~.~.~.Q.~.Q.^.~.Q.Q.Q.M.Q.W.L.I.s.z.H.n.s...    $ T W ",
"> > O X   > ' +.=.+.[ #.=.p.=.=.x.x.x.z.z.c.x.x.V.G.V.V.x.a.p.p.p.p.s.l.l.c.x.x.l.n.n.x.x.n.x.x.p.l.z.s.s.+...p.y._ = O 1 2 R  .",
"2 2 $ O   ; 3 3 R +.=.l.x.x.l.l.l.a.=.R ; + O 2 #.+.@.@.@.@.@.@.o.t...+.@.@.@.$.g $ ; < R $.a.l.l.a.=.=.=.*...R 7 g + o > < ) R ",
"R < $ $ ; : ( :.O.+.x.(././././.P.K.z.Q < ; ; j v.u.u.u.u.u.v.v.u.v.t.u.v.v.v.b.W O $ g W y.K.Y.'.'.'.'.(.l.$.X.4.7 $ o ; g j k ",
"R j > $ < h X.| ~ Q _ V.L.P.P.P.x.*.#.~ g $ $ : ! E E T E W W E E E g k ! E E E : * $ g W o.=.x.!.!.!.Y.n.+._ W Q Q < $ : g W W ",
"2 j ; $ 2 k X.| j _ 2 R =.l.x.+.h < $.W : $ $ ; g d g g g d d T j g : : d g j g * o O : R | < _ =.l.a.+.g h Q : ! ~ d O : j ! E ",
"  < < ; < h X.| g W 2 | z.G.G.x...h *.| R $ : R .. . ... . . .k j ~ R  . . . .o.h < < R |  .^ s.G.G.H.s.< h  .g Q X.g $ g W W E ",
": : < ; $ $ < h 2 2 2 W +.p.a.p.o. .o.| k . h )  ........... .< : |  .` ..o....._ h g )  ...X.p.l.z.l.` . ) ..)  .X.: $ R R | ! ",
"  X .   > O h _ ; T ; R p.c.G.s.W <  .W g O ; , >.5 5 5 5 5 6 6 : :.,.>.,.,.>.9 o :   ; h R 2 +.n.G.n. .X 2 g O _ o.: o . : ! W ",
"X . X   O ; X.| ; < : ; ; < < ; = X g  .j > 2 1 } / / ( / / 7 5 < } ,.0 >.] 0 7 $ < $ j X.< o : < 1 < > O $ $ < X...< $ $ $ g g ",
"# O O O $ O $ < ; X X X . .   . X . $ > > $ < $ O $ $ $ $ $ $ $ ; $ * $ & $ * $ $ $ O $ < ; $ O O $ O $ $ . $ < < : $ $ O O o O ",
"O . X . . . . o O O O $ $ $ $ ; $ $ $ $ O . $ $ $ $ $ $ ; $ $ O o $ $ ; $ = $ $ O . . O O O ; ; $ $ $ 1 1 $ $ $ $ O   o o . $ ; ",
"; $ $ O o . $ ; : ; $ < < < < < < < < < $ . : g f < g f < f g . O g < f f < < f $ O . o < : 2 < f < < < O : < < < : o o o O : < ",
". O o O O O O $ O $ $ $ < : > < : > < : > < > ; > < $ > : > $ : : ; ; : > ; < > > < < 1 : < ; < < < : : $ X $ $ $ $ $ $ $ O $ $ "
};
