/* XPM */
static char *custom_blue_wall[] = {
"64 64 4 2",
"AA c #000050"
"AB c #000064"
"AC c #000082"
"AD c #0000ff"
"AAAAABABABABABABABABABABABACACACAAABABABABABABABABABABABABACACACAAAAABABABABABABABABABABABACACACAAABABABABABABABABABABABABACACAC"
"AAADADADADADADADADADADADADADADADAAADADADADADADADADADADADADADADADAAADADADADADADADADADADADADADADADAAADADADADADADADADADADADADADADAD"
"AAADADADADADADADADADADADADADADADAAADADADADADADADADADADADADADADADAAADADADADADADADADADADADADADADADAAADADADADADADADADADADADADADADAD"
"AAADADADADADADADADADADADADADADADAAADADADADADADADADADADADADADADADAAADADADADADADADADADADADADADADADAAADADADADADADADADADADADADADADAD"
"AAADADADADADADADADADADADADADADADAAADADADADADADADADADADADADADADADAAADADADADADADADADADADADADADADADAAADADADADADADADADADADADADADADAD"
"AAADADADADADADADADADADADADADADADAAADADADADADADADADADADADADADADADAAADADADADADADADADADADADADADADADAAADADADADADADADADADADADADADADAD"
"AAADADADADADADADADADADADADADADADAAADADADADADADADADADADADADADADADAAADADADADADADADADADADADADADADADAAADADADADADADADADADADADADADADAD"
"AAADADADADADADADADADADADADADADADAAADADADADADADADADADADADADADADADAAADADADADADADADADADADADADADADADAAADADADADADADADADADADADADADADAD"
"AAADADADADADADADADADADADADADADADAAADADADADADADADADADADADADADADADAAADADADADADADADADADADADADADADADAAADADADADADADADADADADADADADADAD"
"AAADADADADADADADADADADADADADADADAAADADADADADADADADADADADADADADADAAADADADADADADADADADADADADADADADAAADADADADADADADADADADADADADADAD"
"AAADADADADADADADADADADADADADADADAAADADADADADADADADADADADADADADADAAADADADADADADADADADADADADADADADAAADADADADADADADADADADADADADADAD"
"AAADADADADADADADADADADADADADADADAAADADADADADADADADADADADADADADADAAADADADADADADADADADADADADADADADAAADADADADADADADADADADADADADADAD"
"AAADADADADADADADADADADADADADADADAAADADADADADADADADADADADADADADADAAADADADADADADADADADADADADADADADAAADADADADADADADADADADADADADADAD"
"AAADADADADADADADADADADADADADADADAAADADADADADADADADADADADADADADADAAADADADADADADADADADADADADADADADAAADADADADADADADADADADADADADADAD"
"AAADADADADADADADADADADADADADADADAAADADADADADADADADADADADADADADADAAADADADADADADADADADADADADADADADAAADADADADADADADADADADADADADADAD"
"AAADADADADADADADADADADADADADADADAAADADADADADADADADADADADADADADADAAADADADADADADADADADADADADADADADAAADADADADADADADADADADADADADADAD"
"AAABABABABABABABABABABABABACACACAAABABABABABABABABABABABABACACACAAABABABABABABABABABABABABACACACAAABABABABABABABABABABABABACACAC"
"AAADADADADADADADADADADADADADADADAAADADADADADADADADADADADADADADADAAADADADADADADADADADADADADADADADAAADADADADADADADADADADADADADADAD"
"AAADADADADADADADADADADADADADADADAAADADADADADADADADADADADADADADADAAADADADADADADADADADADADADADADADAAADADADADADADADADADADADADADADAD"
"AAADADADADADADADADADADADADADADADAAADADADADADADADADADADADADADADADAAADADADADADADADADADADADADADADADAAADADADADADADADADADADADADADADAD"
"AAADADADADADADADADADADADADADADADAAADADADADADADADADADADADADADADADAAADADADADADADADADADADADADADADADAAADADADADADADADADADADADADADADAD"
"AAADADADADADADADADADADADADADADADAAADADADADADADADADADADADADADADADAAADADADADADADADADADADADADADADADAAADADADADADADADADADADADADADADAD"
"AAADADADADADADADADADADADADADADADAAADADADADADADADADADADADADADADADAAADADADADADADADADADADADADADADADAAADADADADADADADADADADADADADADAD"
"AAADADADADADADADADADADADADADADADAAADADADADADADADADADADADADADADADAAADADADADADADADADADADADADADADADAAADADADADADADADADADADADADADADAD"
"AAADADADADADADADADADADADADADADADAAADADADADADADADADADADADADADADADAAADADADADADADADADADADADADADADADAAADADADADADADADADADADADADADADAD"
"AAADADADADADADADADADADADADADADADAAADADADADADADADADADADADADADADADAAADADADADADADADADADADADADADADADAAADADADADADADADADADADADADADADAD"
"AAADADADADADADADADADADADADADADADAAADADADADADADADADADADADADADADADAAADADADADADADADADADADADADADADADAAADADADADADADADADADADADADADADAD"
"AAADADADADADADADADADADADADADADADAAADADADADADADADADADADADADADADADAAADADADADADADADADADADADADADADADAAADADADADADADADADADADADADADADAD"
"AAADADADADADADADADADADADADADADADAAADADADADADADADADADADADADADADADAAADADADADADADADADADADADADADADADAAADADADADADADADADADADADADADADAD"
"AAADADADADADADADADADADADADADADADAAADADADADADADADADADADADADADADADAAADADADADADADADADADADADADADADADAAADADADADADADADADADADADADADADAD"
"AAADADADADADADADADADADADADADADADAAADADADADADADADADADADADADADADADAAADADADADADADADADADADADADADADADAAADADADADADADADADADADADADADADAD"
"AAADADADADADADADADADADADADADADADAAADADADADADADADADADADADADADADADAAADADADADADADADADADADADADADADADAAADADADADADADADADADADADADADADAD"
"AAAAABABABABABABABABABABABACACACAAABABABABABABABABABABABABACACACAAAAABABABABABABABABABABABACACACAAABABABABABABABABABABABABACACAC"
"AAADADADADADADADADADADADADADADADAAADADADADADADADADADADADADADADADAAADADADADADADADADADADADADADADADAAADADADADADADADADADADADADADADAD"
"AAADADADADADADADADADADADADADADADAAADADADADADADADADADADADADADADADAAADADADADADADADADADADADADADADADAAADADADADADADADADADADADADADADAD"
"AAADADADADADADADADADADADADADADADAAADADADADADADADADADADADADADADADAAADADADADADADADADADADADADADADADAAADADADADADADADADADADADADADADAD"
"AAADADADADADADADADADADADADADADADAAADADADADADADADADADADADADADADADAAADADADADADADADADADADADADADADADAAADADADADADADADADADADADADADADAD"
"AAADADADADADADADADADADADADADADADAAADADADADADADADADADADADADADADADAAADADADADADADADADADADADADADADADAAADADADADADADADADADADADADADADAD"
"AAADADADADADADADADADADADADADADADAAADADADADADADADADADADADADADADADAAADADADADADADADADADADADADADADADAAADADADADADADADADADADADADADADAD"
"AAADADADADADADADADADADADADADADADAAADADADADADADADADADADADADADADADAAADADADADADADADADADADADADADADADAAADADADADADADADADADADADADADADAD"
"AAADADADADADADADADADADADADADADADAAADADADADADADADADADADADADADADADAAADADADADADADADADADADADADADADADAAADADADADADADADADADADADADADADAD"
"AAADADADADADADADADADADADADADADADAAADADADADADADADADADADADADADADADAAADADADADADADADADADADADADADADADAAADADADADADADADADADADADADADADAD"
"AAADADADADADADADADADADADADADADADAAADADADADADADADADADADADADADADADAAADADADADADADADADADADADADADADADAAADADADADADADADADADADADADADADAD"
"AAADADADADADADADADADADADADADADADAAADADADADADADADADADADADADADADADAAADADADADADADADADADADADADADADADAAADADADADADADADADADADADADADADAD"
"AAADADADADADADADADADADADADADADADAAADADADADADADADADADADADADADADADAAADADADADADADADADADADADADADADADAAADADADADADADADADADADADADADADAD"
"AAADADADADADADADADADADADADADADADAAADADADADADADADADADADADADADADADAAADADADADADADADADADADADADADADADAAADADADADADADADADADADADADADADAD"
"AAADADADADADADADADADADADADADADADAAADADADADADADADADADADADADADADADAAADADADADADADADADADADADADADADADAAADADADADADADADADADADADADADADAD"
"AAADADADADADADADADADADADADADADADAAADADADADADADADADADADADADADADADAAADADADADADADADADADADADADADADADAAADADADADADADADADADADADADADADAD"
"AAABABABABABABABABABABABABACACACAAABABABABABABABABABABABABACACACAAABABABABABABABABABABABABACACACAAABABABABABABABABABABABABACACAC"
"AAADADADADADADADADADADADADADADADAAADADADADADADADADADADADADADADADAAADADADADADADADADADADADADADADADAAADADADADADADADADADADADADADADAD"
"AAADADADADADADADADADADADADADADADAAADADADADADADADADADADADADADADADAAADADADADADADADADADADADADADADADAAADADADADADADADADADADADADADADAD"
"AAADADADADADADADADADADADADADADADAAADADADADADADADADADADADADADADADAAADADADADADADADADADADADADADADADAAADADADADADADADADADADADADADADAD"
"AAADADADADADADADADADADADADADADADAAADADADADADADADADADADADADADADADAAADADADADADADADADADADADADADADADAAADADADADADADADADADADADADADADAD"
"AAADADADADADADADADADADADADADADADAAADADADADADADADADADADADADADADADAAADADADADADADADADADADADADADADADAAADADADADADADADADADADADADADADAD"
"AAADADADADADADADADADADADADADADADAAADADADADADADADADADADADADADADADAAADADADADADADADADADADADADADADADAAADADADADADADADADADADADADADADAD"
"AAADADADADADADADADADADADADADADADAAADADADADADADADADADADADADADADADAAADADADADADADADADADADADADADADADAAADADADADADADADADADADADADADADAD"
"AAADADADADADADADADADADADADADADADAAADADADADADADADADADADADADADADADAAADADADADADADADADADADADADADADADAAADADADADADADADADADADADADADADAD"
"AAADADADADADADADADADADADADADADADAAADADADADADADADADADADADADADADADAAADADADADADADADADADADADADADADADAAADADADADADADADADADADADADADADAD"
"AAADADADADADADADADADADADADADADADAAADADADADADADADADADADADADADADADAAADADADADADADADADADADADADADADADAAADADADADADADADADADADADADADADAD"
"AAADADADADADADADADADADADADADADADAAADADADADADADADADADADADADADADADAAADADADADADADADADADADADADADADADAAADADADADADADADADADADADADADADAD"
"AAADADADADADADADADADADADADADADADAAADADADADADADADADADADADADADADADAAADADADADADADADADADADADADADADADAAADADADADADADADADADADADADADADAD"
"AAADADADADADADADADADADADADADADADAAADADADADADADADADADADADADADADADAAADADADADADADADADADADADADADADADAAADADADADADADADADADADADADADADAD"
"AAADADADADADADADADADADADADADADADAAADADADADADADADADADADADADADADADAAADADADADADADADADADADADADADADADAAADADADADADADADADADADADADADADAD"
"AAADADADADADADADADADADADADADADADAAADADADADADADADADADADADADADADADAAADADADADADADADADADADADADADADADAAADADADADADADADADADADADADADADAD"
};