/* XPM */
static char * cat_image_xpm[] = {
"64 64 64 1",
"! c #120e0d",
"# c #191a19",
"$ c #1d1b17",
"% c #1e1d19",
"& c #1f1f1b",
"' c #202225",
"( c #21252c",
") c #232222",
"* c #23272c",
"+ c #242830",
", c #26211b",
"- c #26272a",
". c #26292f",
"/ c #272c2f",
"0 c #282b31",
"1 c #292e30",
"2 c #2a2a29",
"3 c #2a2d30",
"4 c #2b241d",
"5 c #2b2f33",
"6 c #2b3133",
"7 c #2e2319",
"8 c #303233",
"9 c #312d29",
": c #35322d",
"; c #382415",
"< c #3c3b34",
"= c #413227",
"> c #44443c",
"? c #57402d",
"@ c #595445",
"A c #5e4a36",
"B c #666952",
"C c #687a51",
"D c #6c5641",
"E c #6f815b",
"F c #7a9066",
"G c #7b5d3e",
"H c #7e9369",
"I c #82725c",
"J c #858569",
"K c #866847",
"L c #977453",
"M c #98997a",
"N c #99856f",
"O c #9e917b",
"P c #a5886f",
"Q c #a89380",
"R c #a99c85",
"S c #ad9b86",
"T c #aea385",
"U c #b79f8e",
"V c #b9a593",
"W c #bba891",
"X c #bca99b",
"Y c #bcac94",
"Z c #bdac9d",
"[ c #bfb09c",
"] c #c0ad9c",
"^ c #c1ab9a",
"_ c #c3ad9c",
"` c #c5b4a1",
"a c #c6b1a1",
"b c #c7ba9e",
"TTMCCCCC@)2<:<=:4$$$$$$&)1-%$$$$%&&&&$$%%&&%%&&&)05550388888833A",
"TTMCCCCC@)4<:<::4$%%%&%&)1-$$###'%%,%$$%%%&%%%%&)3555/388888839G",
"TTRCCCCC@44<:<::4$%&&&&,)12#$##'+#%,%$$%$%&%&&&&)3853/3888888/:K",
"TTTECCCCB24<<,4:4$&,,,,,)12#$####$%&%$$%%%%%%%)))355/038888883:G",
"TTTECCCCB2):<,,:4%,,,,,,)/-$$!##$$%%$$$$$$$#$####353103888885/<B",
"QTTJCCCCB9,:<99:9,)4444,,/-#$$%&)),%,77774%%%&%%'565003888885.>O",
"TTTJCCCCB:,:<9<:9,444444,12#&9::::97;;;;=;%%&%%#'56533588888335.",
"TTTNCCCCC<,:<9<:9,422444)12#,9::::977;;;;4$$%###'865(''-(''(/383",
"QTTMCCCCC<&9<9<:9,222224)12#,9::::277;;;;4$$$###'665'''(-0>8*/53",
"QTTMCCCCC>,9<9<::4222222422$,9999:477;;;;4$%$$##-55688666>B<*03/",
"QTTMCCCCC>,9>:<::422222442/$,9999:477;;;;4%%%%%#*556<<000@E8+03/",
"QRTRCCCCC@,9><><<4,4244421/$,9999:477;;;;4%%%%%#.65685000<>..30/",
"QQTTECCCC@)2><><<4,,444421/%,9999:477;;;;,$%%%%#.6588000.8<..3/.",
"QQTTECCCC@42>>><<2,,,244911%)9999:477;;;7,%%%#%#/60>>8<>>>B8+3..",
"QQTTJCCCCB22>>><<9),,224911&)222994777777&%%%%%#3650+++**(0000..",
"QQRTJCCCCB9)<<>><9)&&224961&&)),,,,444,,,&&&&&%&5665+++*+(+..0*+",
"OQTTME>BEC><>>>>>:22)244222%%%%&%&%%$$%%&&&&&&#'66550+++++++..++",
"QI@JOI:@EEEEEEEEEEEEEEEECCBBBB@@@@@@>>>>><<<<<:66655+.++++++.++*",
"O:#<BB>9CEEEEEEFFHMHFFHHHHHHHHHHHHHHHHHHHHHHHHHB56550.++++++.++*",
"N8!)BI:!@ECEEEJI<9BMFFFFFHHHHHHHHHHHHHHHHHHFFFHB56550..+++++0++(",
"N8!!BO@#@EEJIA$!$$9@FFFFFFFFFHHHFHHHHHHHHFFFFFF@0655..0+++++0++(",
"J6!#BNJ4BEEK=!$!!!$JHFFFFFFFFFFFFFFFFFFFFFFFFFF>566000..++++0++(",
"B>!#BD?$9@BB=7$!!7=BHFFFHHFFFFFFHHHHHFFFFFFFFFE>555000..++++0+++",
"B&!&BPOI>JNB!,77,!!)ECCEEEEEFFFFHHFEFHFFFFFFFFE>6650000.++++0+++",
"B#!)BTTTQTTL==,!!!8JVTTRMMJJJEECCCIGCCEEEEEFFEC<665000..+++..**+",
"B!!)BTTTTTTK;$!#@JQOOYbbbbbbbbbb[PLIIMMJJEECCB@8655000.++++.***(",
">)&4BROORTTOIJDINPTWYbbbbbbbbbbbbLPQLbbbbbbb[WO<555000..++*-##&)",
":::2=>>>@@BIILPPTWYYYTOJNNJNQTYbOGNSLTbbbbbb[WN8655000.++++'!!$?",
"2::29>?><:92ATWWWYWN@AAAKLKA?ADBAAKNLPbbbbbbYTJ865500.+++*.'!!7A",
")9999<?<:999BTTWTND?ADGDKQQLDADDGGDKKGYbbbbbYTI665500.+++*.#!!;?",
")229999::9:>J[[QD??AADDGGNQLDKKGKGILKDPb[[[YWTI665500..+**.#!!;?",
"IB@>><<::>BOXVN@??AA??AA?DLLGGKKLI>DLGGWYYYYWTB5665/...+**-#!!=A",
"VVVVRONJNRXROND??AAA??A??AKKIIILPI@KKLDO[YYYWQB5665/0..***2#!!;D",
"XXXZZ```XRROONDAAAD?AA??AADKG<@LLALLGGDNbYYYTO@1650/0.++**-!!!7B",
"ZZZZZXVRRRQOONDAA@AA????AADKNIIDGGLPKKDIYYYYTO@0551/0.++**)!!!7D",
"``ZVSRSRRRRQONKAADAAA?A???AKKKPLANPLNLKDTYYWTN>/11//0.+++.)!!!7A",
"XVSRRSSRRSRRRNID?AADAAA=??=KKKLPOJQKKLDDIWYWRJ>/510/0.++*.&!!!;D",
"RRSSUUSRUUSSUSBDA?KLGDA?????GKPPNNNGGK?GGNRROI<1151/...+**,$!!;D",
"SUUUUVOJRSUX[XB?DALLKAAAAAAALLKKLPIAD?=KDDVVQI8111//.+.+*-&$!!;?",
"UUVVVVNJRXXXZZU>==LLKDAA?DGKAGD?????=;GLG?OXSI803110..++-/%$!!;?",
"VVVVVSRU]XZZZZ[SB=DLLKD?ADKKA==;;=?;=?KKG?DSRI80/./000+.-2,,!!;?",
"VVVXSS]aZZZ[ZZXZ`VNIIGDDKKGKA??==;=?KKLAG??OSI600'###''*-9,7!!;;",
"UUSSVaaZZZZZZZZ]]a`a_QDDDDDGGAGD?=?KLKAGK?ANRB3033-''##'-:,7!!7;",
"ROQZ[ZZZZXXXXXZ]ZZ]__XIGKAADKK?===?AA?GLA?LNQB000//...*(-:,7!!$7",
"OOaaZZZZ]XZZ]]][XZ][aaaJDLLKGLL???GGGKLA=GLNQB80883--''(*<,4!!!7",
"OZ]VYYZ]]X]Z]]XZZ[aaa]aXILLLKKLGGKLPLGAGKGKIQ@805<@@@>8(-<$4!!!,",
"V]^]XYXXXX]]]]X]]aaaaa``XLKLLPPA?LLLLGKKKDDNR@...-(-8<3(2>44!!!,",
"XVY]]_aa___^^^^^]aaaaaZ``SKKLLLNNPPLLKKGDKOXO@..000*('((9>9<$!!7",
"VVYX]]__aa`aa^__aa`Z`^Xaa`^QQS^``aaaWUSQU]`XO>+*00.+***-:<4::!!;",
"VW^XX^]___a_^aaaa]INbb`V`a`````aaaaa``aa]ZZXN>+*+.+****':<):>,$=",
"WYXXX^^^^^^Y_aaa_SXX`ba`b``````a``a_aaa]ZZZVN>**...(((*(::&:>:=?",
"VYY^]^^^Y^VW_^__^_WQ``````_a```````aaaaaaaZUJ<**++**((*-:9)<>:<A",
"VVVV^^_^^^VV^^^YPLLaS``_XI^```````aaa``aaaXSI8**++*((**-:9&<>:::",
"SUVXXXX^^WWY^^^WLKLLKSUPVR_a``aa`aaaaaaaa]XQB8**++*((--2:2&<>::9",
"SSSUUX]]^^XY_^WYSLKKKKLKLUaa`aaaaa_aa_aaa]XO@5((++(((-(3:4&9>:99",
"QQQSSSUUV]_a_^^UQUSPLLLLQ^_a`aa_aa__aaaaa_XJ@3((***((-'2:4,)::9:",
"OQQQQRSUUVVVV^_^PQU^^SUa`aaa_^^___a__aa___XI>0((((((((')::%%&9<<",
"OPPOOQQSSUUVXVVVUPPPQP^`a_____^____^__a^^^ZI>/((((((('',@JJB>249",
"OQOOOQOOQQSSUUVUVUVUUVa`aa_^^___^_^WV_^X^^]J:.(((((((('%:I``ZUOI",
"POOOOOQOOOQQSSSSSSSU]_Z^^^____^^^^_VU]XXX^_N9.(((((('''%$7BRZ```",
"NNNOOOQQQOOOOQQQQSSSSUVX]^^^__^^^__^]]XV^]]Q>((((((''')$$,,,9@IO",
"NNNNNOQQQQOOOQOOOQRSSUUUSUUX^]^UV^]]__^VVX]Q@((((((''')$,7777777",
"NOOONNNOQQQOOOOOQQQQQQQSSSQQSUUV^_XX]XXVVUVQ>'(''(''''4;7777777;",
"IINNSQNNNOQOOQQQQSSSSQQQQQQQSSSUUVXXVUSUVVVO>''''''''&=K;;;7777;"
};