/* XPM */
static const char *door1[] = {
/* columns rows colors chars-per-pixel */
"64 64 137 2 ",
"   c #060606",
".  c #0E0E0E",
"X  c #141413",
"o  c #181817",
"O  c #1D1D1D",
"+  c #20201F",
"@  c #242423",
"#  c #272827",
"$  c #282827",
"%  c #2B2B2A",
"&  c #30302F",
"*  c #343433",
"=  c #373837",
"-  c #383836",
";  c #3C3C3B",
":  c #3F403F",
">  c #40403F",
",  c #444543",
"<  c #474845",
"1  c #494947",
"2  c #4C4C4A",
"3  c #50504E",
"4  c #545553",
"5  c #575855",
"6  c #595957",
"7  c #575858",
"8  c #5C5D5A",
"9  c #5F605E",
"0  c #60615E",
"q  c #646462",
"w  c #676865",
"e  c #696967",
"r  c #6C6C6A",
"t  c #6F706D",
"y  c #71716E",
"u  c #6F7170",
"i  c #747572",
"p  c #777875",
"a  c #797976",
"s  c #7C7D7A",
"d  c #7F807C",
"f  c #81827E",
"g  c #848582",
"h  c #878884",
"j  c #898986",
"k  c #8D8D8A",
"l  c #8F908D",
"z  c #91928E",
"x  c #959592",
"c  c #979894",
"v  c #999A96",
"b  c #9D9E9A",
"n  c #9E9F9A",
"m  c #9F9F9B",
"M  c #9C9D99",
"N  c #9F9F9D",
"B  c #9C9D9A",
"V  c #9FA09B",
"C  c #9FA09C",
"Z  c #9FA09D",
"A  c #9FA09B",
"S  c #A0A19C",
"D  c #A1A29D",
"F  c #A0A19E",
"G  c #A1A19F",
"H  c #A2A39F",
"J  c #A3A49F",
"K  c #A1A29E",
"L  c #A1A2A0",
"P  c #A1A3A0",
"I  c #A2A4A1",
"U  c #A4A5A0",
"Y  c #A5A6A1",
"T  c #A4A4A2",
"R  c #A5A5A2",
"E  c #A4A5A3",
"W  c #A5A5A3",
"Q  c #A5A6A2",
"!  c #A5A6A3",
"~  c #A6A7A2",
"^  c #A6A7A3",
"/  c #A5A5A2",
"(  c #A7A8A3",
")  c #A7A8A4",
"_  c #A7A8A3",
"`  c #A8A9A4",
"'  c #A8A9A5",
"]  c #A8A8A6",
"[  c #A9A9A7",
"{  c #AAABA6",
"}  c #ABACA7",
"|  c #A9AAA6",
" . c #AAAAA8",
".. c #AAABA8",
"X. c #ABACA8",
"o. c #ADAEA9",
"O. c #ACACAA",
"+. c #ADADAB",
"@. c #ADAEAA",
"#. c #AEAFAA",
"$. c #ADAFAC",
"%. c #AFAFAD",
"&. c #ADADAA",
"*. c #AFB0AB",
"=. c #AFB0AD",
"-. c #AFB0AC",
";. c #B0B1AC",
":. c #B0B0AD",
">. c #B0B1AD",
",. c #B0B0AE",
"<. c #B0B1AE",
"1. c #B1B1AF",
"2. c #B2B3AE",
"3. c #B2B2AF",
"4. c #B3B4AF",
"5. c #B0B1AD",
"6. c #B1B3B0",
"7. c #B2B2B0",
"8. c #B4B5B0",
"9. c #B4B5B1",
"0. c #B5B6B1",
"q. c #B5B6B3",
"w. c #B6B7B2",
"e. c #B5B6B1",
"r. c #B7B8B3",
"t. c #B7B8B3",
"y. c #B8B9B4",
"u. c #B9BAB5",
"i. c #BABBB6",
"p. c #B9BAB8",
"a. c #BDBEB9",
"s. c #BEBFBA",
"d. c #BFC0BB",
"f. c #BFC0BB",
"g. c #C1C2BD",
"h. c None",
"j. c black",
/* pixels */
"# # # # # # # # # # # # # # # # # # # # # # # # # # @ @ @ @ @ @ @ @ @ h.h.h.h.h.h.h.h.h.h.h.h.h.h.h.h.h.h.h.h.h.h.h.h.h.h.h.h.h.",
"# # # # # # # # # # # # # # # # # # 2 4 # # # # # # @ # ; # @ @ # 3 ; h.h.h.h.h.h.h.h.h.h.h.h.h.h.h.h.h.h.h.h.h.h.h.h.h.h.h.h.h.",
"# # # # # # # # # # # # # # # # # % r i # # # * # # # ; p - @ # * i 4 h.h.h.h.h.h.h.h.h.h.h.h.h.h.h.h.h.h.h.h.h.h.h.h.h.h.h.h.h.",
"6 * * * * * 6 a t i g g g g g f g r q k i a s f a i q = i i y , @ u 7 h.h.h.h.h.h.h.h.h.h.h.h.h.h.h.h.h.h.h.h.h.h.h.h.h.h.h.h.h.",
"s i d f g g g x n C ( Y X.u.X.c a r 8 n n c P D n v f = s k l 2 X r 7 h.h.h.h.h.h.h.h.h.h.h.h.h.h.h.h.h.h.h.h.h.h.h.h.h.h.h.h.h.",
"g k z x n j i i n Y D J X.r.>.C r r 0 P ..N n n c x g = s x z 2 X r 4 h.h.h.h.h.h.h.h.h.h.h.h.h.h.h.h.h.h.h.h.h.h.h.h.h.h.h.h.h.",
"s p i y a q r y k M ( >.8.u.8.{ c j 6 C X.{ Y P c c f = s l x 2 X r 4 h.h.h.h.h.h.h.h.h.h.h.h.h.h.h.h.h.h.h.h.h.h.h.h.h.h.h.h.h.",
"f i r y a e y i q g Y { >.8.s.8.{ j 0 Y >.,.7.%.Y D g = g w a 1 X q 4 h.h.h.h.h.h.h.h.h.h.h.h.h.h.h.h.h.h.h.h.h.h.h.h.h.h.h.h.h.",
"k v D Y ` z p r 0 f } X.} Y >.>.) j 8 ) >.7.%.q.7.%.k = g g r , X q 4 h.h.h.h.h.h.h.h.h.h.h.h.h.h.h.h.h.h.h.h.h.h.h.h.h.h.h.h.h.",
"k c J Y { z i r q s 8.*.V n D ( ) j 8 Y >.X.X.7.p.P j = s g c , X q 7 h.h.h.h.h.h.h.h.h.h.h.h.h.h.h.h.h.h.h.h.h.h.h.h.h.h.h.h.h.",
"h x D D Y x i y w g 8.{ v Y n c X.j 6 Y >...%...T T j = s 9 a , X q 7 h.h.h.h.h.h.h.h.h.h.h.h.h.h.h.h.h.h.h.h.h.h.h.h.h.h.h.h.h.",
"j n D V Y k a i q g 8.X.8.d.>.C >.k 4 D 8.%.{ ) P T k = s g q , . q 4 h.h.h.h.h.h.h.h.h.h.h.h.h.h.h.h.h.h.h.h.h.h.h.h.h.h.h.h.h.",
"s w e e e 4 e i q h u.i.s.g.>.D >.k 6 Y >...! ) T ) z = a g h , . q 4 h.h.h.h.h.h.h.h.h.h.h.h.h.h.h.h.h.h.h.h.h.h.h.h.h.h.h.h.h.",
"j x v n D j i y 8 g { >.d.u.{ { X.k 8 D ..%.! C Y N j = a 6 i , . 9 4 h.h.h.h.h.h.h.h.h.h.h.h.h.h.h.h.h.h.h.h.h.h.h.h.h.h.h.h.h.",
"k D X.>.X.c y e q f Y >.r.{ D Y =.x a x P { N n D v h * p p r , . 9 4 h.h.h.h.h.h.h.h.h.h.h.h.h.h.h.h.h.h.h.h.h.h.h.h.h.h.h.h.h.",
"k v { X.} x y q w s >.i.} c n n V x h x Y N M v M z h * a h l , . q 4 h.h.h.h.h.h.h.h.h.h.h.h.h.h.h.h.h.h.h.h.h.h.h.h.h.h.h.h.h.",
"j v ( ` ( x y r q s >.X.J { Y M z f c ..! n N c k x f * a q i , . w 4 h.h.h.h.h.h.h.h.h.h.h.h.h.h.h.h.h.h.h.h.h.h.h.h.h.h.h.h.h.",
"g k k h k s e r 9 f >.X.( { Y s l x D ! ! P P c j k s & s g e , . q 4 h.h.h.h.h.h.h.h.h.h.h.h.h.h.h.h.h.h.h.h.h.h.h.h.h.h.h.h.h.",
"d r e e r 8 e e 8 f >.{ J } n 6 z c ! >.! D P N k x s * p g j , . ; 2 h.h.h.h.h.h.h.h.h.h.h.h.h.h.h.h.h.h.h.h.h.h.h.h.h.h.h.h.h.",
"k V V D ( k y q e j J D { 8.J 8 h r =.X.! ! P n x l s * a 0 i , . # 2 h.h.h.h.h.h.h.h.h.h.h.h.h.h.h.h.h.h.h.h.h.h.h.h.h.h.h.h.h.",
"z V Y { { x i q z Y Y D Y ` n 8 j r >...N P P N x j s # q i q , . # 2 h.h.h.h.h.h.h.h.h.h.h.h.h.h.h.h.h.h.h.h.h.h.h.h.h.h.h.h.h.",
"h x J D ( x y 0 c D n c V x z 6 j y >.{ Y D D D M l h ; o 8 s , . # 2 h.h.h.h.h.h.h.h.h.h.h.h.h.h.h.h.h.h.h.h.h.h.h.h.h.h.h.h.h.",
"s x c x D z r 0 k c x z z c x 4 g r { X.! n P v x x k a = X 6 , . # 2 h.h.h.h.h.h.h.h.h.h.h.h.h.h.h.h.h.h.h.h.h.h.h.h.h.h.h.h.h.",
"r r q 8 e 6 6 6 ; z x g l v k 4 s r X.%.{ n n c l k h h s * O q O # 2 h.h.h.h.h.h.h.h.h.h.h.h.h.h.h.h.h.h.h.h.h.h.h.h.h.h.h.h.h.",
"4 s a i s i * < # - x x l c j 2 a r { { P v c c x k j h g r # r # # , h.h.h.h.h.h.h.h.h.h.h.h.h.h.h.h.h.h.h.h.h.h.h.h.h.h.h.h.h.",
"g x k z c D y @ > # , n x c j 4 g g { ! P n x z k f s d f r # q @ # , h.h.h.h.h.h.h.h.h.h.h.h.h.h.h.h.h.h.h.h.h.h.h.h.h.h.h.h.h.",
"k z z c c J D q # 4 # f x z j 2 k N P N N v z k j p a s s r # 0 @ % , h.h.h.h.h.h.h.h.h.h.h.h.h.h.h.h.h.h.h.h.h.h.h.h.h.h.h.h.h.",
"g j z z x V n z 2 8 2 s z g g 2 j x n x c z k k g i p i i w # 8 @ 2 2 h.h.h.h.h.h.h.h.h.h.h.h.h.h.h.h.h.h.h.h.h.h.h.h.h.h.h.h.h.",
"a s f g g g j k 8 0 2 i j j g , g h x c z j k z z a y r r 8 @ 6 O # , h.h.h.h.h.h.h.h.h.h.h.h.h.h.h.h.h.h.h.h.h.h.h.h.h.h.h.h.h.",
"4 6 6 8 6 8 q q , 8 2 y j k f , s s k z k z h h s i w q e 6 @ 6 @ O , h.h.h.h.h.h.h.h.h.h.h.h.h.h.h.h.h.h.h.h.h.h.h.h.h.h.h.h.h.",
"s s d f f j k l 8 6 1 r g k s , s s h k j z g s a y q 0 w 4 @ 4 + O , h.h.h.h.h.h.h.h.h.h.h.h.h.h.h.h.h.h.h.h.h.h.h.h.h.h.h.h.h.",
"a p a s s f g h 6 6 , r g k a , a a j h h g s a i e w q q 4 @ 4 O O : h.h.h.h.h.h.h.h.h.h.h.h.h.h.h.h.h.h.h.h.h.h.h.h.h.h.h.h.h.",
"y i i a a s d f 6 6 , e s g a , p p g g f d a p y e w q q 4 O 4 O o ; h.h.h.h.h.h.h.h.h.h.h.h.h.h.h.h.h.h.h.h.h.h.h.h.h.h.h.h.h.",
"r r t y a s s s 6 3 ; e s f p , r i f a a a p p i e w q q 4 O 2 O o ; h.h.h.h.h.h.h.h.h.h.h.h.h.h.h.h.h.h.h.h.h.h.h.h.h.h.h.h.h.",
"6 4 4 6 8 8 0 0 , 2 ; q a s y > r r a p p i y y r e q q q 4 O 2 O O ; h.h.h.h.h.h.h.h.h.h.h.h.h.h.h.h.h.h.h.h.h.h.h.h.h.h.h.h.h.",
"8 8 8 8 8 8 8 0 > 1 ; 6 y s r : i e i i i y r r r w q q q 4 O 2 O o ; h.h.h.h.h.h.h.h.h.h.h.h.h.h.h.h.h.h.h.h.h.h.h.h.h.h.h.h.h.",
"0 q e r r y y y 2 < - 6 r p e ; r w y r r r r r w q q 8 0 3 O 2 O # ; h.h.h.h.h.h.h.h.h.h.h.h.h.h.h.h.h.h.h.h.h.h.h.h.h.h.h.h.h.",
"8 0 q w e r r r 2 , = 6 r y q - w q r r r r e q q w q 8 8 2 O 2 o > ; h.h.h.h.h.h.h.h.h.h.h.h.h.h.h.h.h.h.h.h.h.h.h.h.h.h.h.h.h.",
"8 8 0 q q w w w , 3 = 4 w e 8 = 0 q w w w q q 0 0 8 8 8 8 2 O 2 o ; ; h.h.h.h.h.h.h.h.h.h.h.h.h.h.h.h.h.h.h.h.h.h.h.h.h.h.h.h.h.",
"0 6 6 8 8 q 0 2 4 3 ; 8 8 q 6 = 6 4 q 0 0 8 8 8 8 8 8 8 6 2 O 2 o - ; h.h.h.h.h.h.h.h.h.h.h.h.h.h.h.h.h.h.h.h.h.h.h.h.h.h.h.h.h.",
"4 , , , , , ; 3 3 , 6 8 6 8 4 * 2 , 0 8 8 6 6 6 6 6 6 4 4 , o , o = - h.h.h.h.h.h.h.h.h.h.h.h.h.h.h.h.h.h.h.h.h.h.h.h.h.h.h.h.h.",
"3 4 4 4 6 2 ; 2 ; 4 6 4 6 8 4 & 2 > 8 6 6 6 6 6 4 4 4 4 4 1 @ , X - - h.h.h.h.h.h.h.h.h.h.h.h.h.h.h.h.h.h.h.h.h.h.h.h.h.h.h.h.h.",
"2 2 4 4 4 , - = 2 4 4 6 6 6 2 % , ; 6 4 4 4 4 4 4 4 4 4 4 - 1 &   * - h.h.h.h.h.h.h.h.h.h.h.h.h.h.h.h.h.h.h.h.h.h.h.h.h.h.h.h.h.",
"1 2 2 3 4 , = * 1 3 4 4 4 4 2 % , - 4 4 4 4 4 4 3 3 3 2 - , 1 @   * = h.h.h.h.h.h.h.h.h.h.h.h.h.h.h.h.h.h.h.h.h.h.h.h.h.h.h.h.h.",
", 2 2 2 3 , * & , 2 4 4 4 4 1 # > = 3 3 3 3 3 2 2 2 1 @ , , ; @   * = h.h.h.h.h.h.h.h.h.h.h.h.h.h.h.h.h.h.h.h.h.h.h.h.h.h.h.h.h.",
", > > , , = & % = , 3 2 2 2 , # ; = 2 2 2 2 2 2 2 2 , o ; - > @   & = h.h.h.h.h.h.h.h.h.h.h.h.h.h.h.h.h.h.h.h.h.h.h.h.h.h.h.h.h.",
"; > , 2 > % % % # - 2 2 2 2 , # , , 2 2 2 2 2 1 1 1 > o - > , @   % * h.h.h.h.h.h.h.h.h.h.h.h.h.h.h.h.h.h.h.h.h.h.h.h.h.h.h.h.h.",
"; , , < , - % # # = 2 2 2 1 , # , 2 1 1 1 2 1 1 , , ; o - , ; @   % * h.h.h.h.h.h.h.h.h.h.h.h.h.h.h.h.h.h.h.h.h.h.h.h.h.h.h.h.h.",
"; ; , , , = % # # = , , , , , = % , , , , , , , , , ; X - = = @   # & h.h.h.h.h.h.h.h.h.h.h.h.h.h.h.h.h.h.h.h.h.h.h.h.h.h.h.h.h.",
"- ; > ; > * # # # * , , , , , , * * 1 , , , , , , , - X = - ; +   # % h.h.h.h.h.h.h.h.h.h.h.h.h.h.h.h.h.h.h.h.h.h.h.h.h.h.h.h.h.",
"- ; ; ; ; * # # # * , > > > > > > % % > > > > > > > - X * ; * O   # % h.h.h.h.h.h.h.h.h.h.h.h.h.h.h.h.h.h.h.h.h.h.h.h.h.h.h.h.h.",
"= = * & * # # # @ % ; ; ; > ; ; > * O ; ; ; ; ; ; > - X * & * +   # % h.h.h.h.h.h.h.h.h.h.h.h.h.h.h.h.h.h.h.h.h.h.h.h.h.h.h.h.h.",
"- ; ; - - * # @ @ % ; ; ; ; ; ; ; * + - ; ; ; ; ; ; * X * - - O   # % h.h.h.h.h.h.h.h.h.h.h.h.h.h.h.h.h.h.h.h.h.h.h.h.h.h.h.h.h.",
"= = = = - % # @ @ % ; ; ; - - ; ; & + - - ; - ; ; - * X * - * O   # # h.h.h.h.h.h.h.h.h.h.h.h.h.h.h.h.h.h.h.h.h.h.h.h.h.h.h.h.h.",
"= * = = = % @ + + % - - - - - - - % + = - - - - - - * X & & * O   @ # h.h.h.h.h.h.h.h.h.h.h.h.h.h.h.h.h.h.h.h.h.h.h.h.h.h.h.h.h.",
"* * * * * % @ + + % - - - = = - - % O * = - - - - = * X % = = o   @ # h.h.h.h.h.h.h.h.h.h.h.h.h.h.h.h.h.h.h.h.h.h.h.h.h.h.h.h.h.",
"* & & & * # @ O O # = = * * * * - % O * * * = = * * & X % * % o   @ # h.h.h.h.h.h.h.h.h.h.h.h.h.h.h.h.h.h.h.h.h.h.h.h.h.h.h.h.h.",
"& * = - = % @ O O # * * * * * * * # o * * = = = * * % X # % * O   @ # h.h.h.h.h.h.h.h.h.h.h.h.h.h.h.h.h.h.h.h.h.h.h.h.h.h.h.h.h.",
"& & * * * % @ O # % * * * * * * * # o & * * * * * * % X % = * o   @ # h.h.h.h.h.h.h.h.h.h.h.h.h.h.h.h.h.h.h.h.h.h.h.h.h.h.h.h.h.",
"% # # # # @ O O % * * * * & * * % # O & * * * * * & % X % * * o   @ # h.h.h.h.h.h.h.h.h.h.h.h.h.h.h.h.h.h.h.h.h.h.h.h.h.h.h.h.h.",
"# O O O O o O O # & & & & % & & * # o & & * * * * & % X % * & o   O # h.h.h.h.h.h.h.h.h.h.h.h.h.h.h.h.h.h.h.h.h.h.h.h.h.h.h.h.h.",
"O O O O O O O O # # @ @ @ @ @ @ # O o # @ @ @ @ @ @ + X # @ + X   O # h.h.h.h.h.h.h.h.h.h.h.h.h.h.h.h.h.h.h.h.h.h.h.h.h.h.h.h.h.",
"O O O O O O O O O O O O O O O O O O O @ O O O O O O O O @ O o o X O # h.h.h.h.h.h.h.h.h.h.h.h.h.h.h.h.h.h.h.h.h.h.h.h.h.h.h.h.h.",
"@ @ @ @ @ @ @ @ @ @ + @ O O O O O O O O O + O O O O O O O O O O O O O h.h.h.h.h.h.h.h.h.h.h.h.h.h.h.h.h.h.h.h.h.h.h.h.h.h.h.h.h."
};
