/* XPM */
static const char *door[] = {
/* columns rows colors chars-per-pixel */
"64 64 132 2 ",
"   c #0D0D0C",
".  c #10100F",
"X  c #131313",
"o  c #181817",
"O  c #171818",
"+  c #1C1D1C",
"@  c #1F201F",
"#  c #20201F",
"$  c #1F1F20",
"%  c #1F2020",
"&  c #242423",
"*  c #272827",
"=  c #282827",
"-  c #272728",
";  c #272928",
":  c #2B2C2B",
">  c #2F302F",
",  c #30302F",
"<  c #343433",
"1  c #373836",
"2  c #383837",
"3  c #3C3C3B",
"4  c #3F403E",
"5  c #40403F",
"6  c #444443",
"7  c #474846",
"8  c #484847",
"9  c #4C4C4A",
"0  c #4F504E",
"q  c #50514F",
"w  c #545453",
"e  c #585757",
"r  c #575856",
"t  c #585957",
"y  c #5C5C5A",
"u  c #5F605D",
"i  c #60615E",
"p  c #646562",
"a  c #676865",
"s  c #696966",
"d  c #6C6D6A",
"f  c #6F706D",
"g  c #71716E",
"h  c #747572",
"j  c #777875",
"k  c #797A76",
"l  c #7C7D7A",
"z  c #7F807D",
"x  c #81817E",
"c  c #848582",
"v  c #868784",
"b  c #848582",
"n  c #878885",
"m  c #878885",
"M  c #888886",
"N  c #888986",
"B  c #898986",
"V  c #8A8B88",
"C  c #8B8C89",
"Z  c #8E8F8C",
"A  c #8C8D8A",
"S  c #8F908D",
"D  c #8F908D",
"F  c #90918D",
"G  c #91928F",
"H  c #91928E",
"J  c #929390",
"K  c #939491",
"L  c #949591",
"P  c #959692",
"I  c #959693",
"U  c #969794",
"Y  c #949591",
"T  c #979895",
"R  c #979894",
"E  c #989895",
"W  c #999996",
"Q  c #999A97",
"!  c #999A96",
"~  c #9A9B98",
"^  c #9B9C99",
"/  c #9C9D99",
"(  c #9C9D9A",
")  c #9D9E9A",
"_  c #9D9E9B",
"`  c #9E9F9C",
"'  c #9D9E9A",
"]  c #9FA09C",
"[  c #9FA09C",
"{  c #A0A19D",
"}  c #A1A19E",
"|  c #A1A29E",
" . c #A1A29E",
".. c #A2A3A0",
"X. c #A3A4A0",
"o. c #A3A4A1",
"O. c #A4A5A1",
"+. c #A4A5A2",
"@. c #A5A6A3",
"#. c #A5A6A2",
"$. c #A5A5A2",
"%. c #A7A8A5",
"&. c #A7A8A4",
"*. c #A8A9A5",
"=. c #A8A9A6",
"-. c #A9AAA7",
";. c #AAAAA7",
":. c #AAABA7",
">. c #A9A9A6",
",. c #ABACA8",
"<. c #ACACA9",
"1. c #ADADAA",
"2. c #ADAEAB",
"3. c #AEAFAB",
"4. c #ADADAA",
"5. c #AFB0AC",
"6. c #AFB0AC",
"7. c #B0B1AD",
"8. c #B1B1AE",
"9. c #B2B3AF",
"0. c #B1B2AE",
"q. c #B3B4B0",
"w. c #B4B5B1",
"e. c #B5B6B2",
"r. c #B6B6B3",
"t. c #B5B5B2",
"y. c #B7B8B4",
"u. c #B9B9B6",
"i. c #BABAB7",
"p. c #BBBCB8",
"a. c #BDBDBA",
"s. c #BFC0BC",
/* pixels */
"& & & & & & & & & & & & & & & & & & & & & & & & & & & & - - - - - - & & & & & & & & & & & & & & & & & & & & & & & & & & & & & % ",
"& 3 < & & & < < & & & & & & & = 8 : & & & & & & - - - - - - - - - - - - - - - - & & & & & & : p < & & & & & & & < 3 & & & < w & ",
"& 7 3 - & & 6 8 = & & & & & & < u 3 = = = = : : : : : : : = - - - - - = = = : : : : = = = = 6 C 6 & & : : & & : y p & & = 8 k : ",
"& 8 6 < 7 6 9 8 6 8 8 9 9 w q w a w w t u p p a s a s s d 6 < < < < 3 h h g l b b b b z b l w v l h l x l h g 8 q l h p = 3 b > ",
"- 8 4 < w 8 8 7 8 w w w t y u p p e 9 w d g h l z k x l b h l z b n k I Z @.{ :.@.r.r.{ S h e b ` Q ) @.) ) I w q Z J k & < z < ",
"= 8 3 < w 8 8 6 8 w w w w t y i p e 9 9 s d h l z j x j b b K S Q ) g l j <.` { @.r.r.:.b d y N :.@.] ) Q T K r w F U j + < l < ",
"= 7 3 < w 8 8 6 8 w w w w t y i i w p i s f j l z j f h N h k f j h e x h Q { <.q.r.u.5.) ~ u b :.,.%.X.) I K w w Z U j + < l < ",
"= 7 3 < q 3 3 7 8 w q w w t y y i r s s s g j l x j w d C j h s h j y b a p { X.0.q.p.p.<...u V <.0.0.q.:.X.^ r w l s h + : j < ",
"= 7 3 < 9 3 7 7 8 w q w w t y y u w s s d g j j l h w d A F { { @.@.h x p p ..:.<.@.<.0.<.X.y A ,.r.5.q.r.0.@.t w J h p + : j < ",
"- 8 5 < q 8 7 7 8 w q w w e t y y w s s d g h h j g w d Z A { X.@.%.g k a p @.r.%.~ { ..:...y N <.3.<.<.u.<.) t w n I k + : j < ",
"- 7 3 < 9 3 3 8 8 w q w w e t y u w s s d f h j l h w d N N ] { ] %.h x s p :.0.) { @.U X.:.t v 3.<.<.5.@.@.{ w w k a g + : j < ",
"= 7 3 < 8 3 7 8 8 w q w w w t y u e s d d g h j x j w d A Z X.) { ..d b s p ,.0.0.p.p.X.:.5.t b <.r.<.:.@.{ ..e 9 Z f u + : j < ",
"= 7 3 < 9 7 6 8 8 w q w w w t y y y d d f g h j z j q s Z d s s s p 9 b a a <.u.p.s.p.@.:.<.t v <.5.:.%.%.@.@.y 9 b N d + : j < ",
"& 7 3 < 9 3 3 8 8 q 9 q w w t y i t d d g h j j z l w s F N ^ Q ) ) d x p p @.%.p.p.0.@.:.:.y N @.5.<.] @.{ ^ e 0 h y f + : h < ",
"& 6 3 < 8 3 7 8 8 q 9 q w w t e q y s d g h j j l l w d F F :.5.<.:.j j p p ) %.y.0.@...:.<.k A ^ :.@.~ { ) T e 9 b d p + : h < ",
"& 6 3 : 9 7 6 7 8 q 9 q w w e t 6 9 d d g h j h j h w d F Z @.<.:.:.h h p p { r.y.) ` Q { Q F N { { ) ~ ) I K r 9 v F h + : h < ",
"& 6 < : 9 < 3 6 8 q 9 q w w w t e 3 q d f g h l j d w s N C %.@.@.:.h l p p { 0.@.@.<.) Q v v @.:.{ ` ) F S J w 9 k p d + < j : ",
"& 6 < : 8 2 6 6 7 9 9 9 q w w e y e 6 u a g j l l d q p N b J n N F i j i i @.0.:.:.,.A b F ) @.:.@.X.{ S A S 9 9 C g p + : h : ",
"= 3 = : 9 6 5 6 6 9 9 9 q w w w t u e y y g h l j f 9 p A g d s s d w j i i @.<.@.@.<.g h I { <.3.{ X.{ U S F 0 9 b V h + + y < ",
"= 2 & 3 9 < < 6 6 9 8 9 9 w w e t y 9 y y d h l l g e s S J X.) X.@.d j y h ] { @.3.y.g l a ~ 3.:.@.@.) ~ S F q 9 j p d +   9 < ",
"= 1 & 6 9 2 5 : 6 9 8 9 9 w e y t y 9 y y f g h j f l j Z K @.%.:.:.h k a :.@.{ X.@.,.f z s ~ 5...{ ..{ Q A A 0 < l a u +   9 < ",
"= 3 & 3 9 5 = + 5 8 8 9 9 w t y y u 9 y u g h l x d x k V N { { { :.h h s :.` Q ) Q ) s l d ~ 5.%...{ { ] I S s + < j s + X 9 < ",
"= 3 & 3 6 & + 3 6 7 8 8 9 q e t y y 8 y y g h l k g b d x b ) I T @.d j p { J K S I { a j s K <.<.] { ] I K F b i o < p # . 9 < ",
"= < & < 2 + 2 6 6 7 8 8 9 w w w t i 8 y y d h j h l d 9 l p d y p s 7 h < d ^ N N I ) p h p K 3.<.{ ) Q F S V v v y o 9 8 X 9 < ",
"= < & < 7 2 6 6 6 6 7 8 9 q w w e p 9 e t d g g j s 3 p r d l h j z w < 6 + f ) Z K Q u d p I :.:.) Q Q I F C n b x 3 7 w X 7 < ",
"= < + : 7 3 7 6 6 6 7 7 8 9 w w w y q e e s s f d 3 t w i F F A I ) I 6 : 3 & l ] J ^ y h j ` :.@.] Q F F N l z x l 5 6 w   7 < ",
"= < + = 6 3 7 5 6 6 6 7 8 9 q w w y y e r s p d y t w w b A S I Q ) @.A 2 3 6 6 ) A T y d U @.{ ] ) T Z Z l j l l l 6 3 q X 9 < ",
"= 3 & & 6 3 7 6 6 6 6 7 8 9 9 w w t t e w a i s p d y h b b A F K Q { I j 3 s 8 Q b F t s A ) T I K F A C l h j h h 3 3 9 & y : ",
"= < + = 6 < 6 5 5 6 7 6 7 8 9 q w w w w w p i s y s p h h j x x n b b C z 8 d 9 Z b J t p n S T I V C A K N h d d d 3 3 9   7 < ",
"= < + : 3 < 5 4 5 6 6 6 7 8 9 9 w w w w 9 i y a y p y r w w e t t t u a e 3 s 8 V N F e i x b F A F C b b j g p a s 2 3 9   5 < ",
"= < + : 6 < 6 4 5 5 6 5 6 8 8 9 q w q 9 8 i y i w p i h j l l x x b A S x 7 p 7 b n A w i z b C V F N x l j s u p p < < 8   4 < ",
"= < + : 2 < 5 3 5 6 5 6 6 7 8 9 9 q 9 w 8 y e y w y y h j j j l l x b b j 7 i 6 b b A w p k b N n b x l j d a p i i < < 7   3 < ",
"= < + : 6 < 3 3 3 3 5 3 6 6 7 8 9 9 9 w 8 t w t w y e d g h h j j l l x j 7 y 6 x z N w i h x b b x l j h s s p p p < < 7   2 > ",
"- < + : 6 < 3 3 3 3 3 3 6 6 7 8 8 9 9 9 8 w w y w t w s d d d f h l l l h 6 w 6 z l b w e d l l l k j j h d a p p p < < 6   2 : ",
"- : + = 3 , 3 3 3 3 3 3 5 6 6 7 8 8 8 9 8 w w r q t w w w w w w t y i i e 1 w 6 j j z 9 t d h j j h g g d s a p p p < < 6   3 > ",
"& : + = < < 3 3 3 3 3 3 3 6 6 7 8 8 8 8 7 w q w 9 w q w w y y t y y y i e < q 3 d h l 9 y d g h h h d s s s p p p i < < 5   < > ",
"& , + & , : 3 2 3 3 3 3 3 5 6 6 7 7 7 7 6 w 9 w 8 w 0 i i p a s s d g g a 3 9 3 s g j 8 w s d g d d d s s p a y u y < , 3 X 6 : ",
"& < & & < : 3 < 2 2 3 3 3 3 5 6 6 6 6 7 6 9 8 9 8 w 9 y y i p p a s s d p 2 8 2 s d f 6 q p a s s s s p p p p y y e : , 3 + q : ",
"& < & & , : 2 < < 1 3 < 3 3 3 5 5 6 3 6 6 9 7 8 8 w w y y y y i p p a s e 6 9 2 a a s 6 9 i p p p p p p i i y y y t : < 3 + 9 = ",
"& < & & < : < < < < < 3 2 3 3 3 3 6 < 5 6 8 7 8 q q t e i y e t y y p w 8 e 5 9 p y p 4 8 w y p i y y y y y y y t w : < 3 + 8 = ",
"& < & & : = < < < < < < 2 3 3 3 3 5 : 3 4 8 7 3 9 w w t e 8 6 6 7 7 3 6 w 6 9 y e y i 3 7 5 w y y t t t t t e w w w = = 2 o 7 = ",
"& : & + < < 3 < < < < < < 3 3 3 3 3 , 3 3 7 7 5 3 9 w q w 0 w w w w 3 9 5 7 t w w y y 3 6 3 w t t e w w w w w w w w : < < + 7 = ",
"& : # + < 3 6 3 < < < < < 1 2 3 3 3 : 3 3 6 6 7 5 3 9 8 8 9 w w w w < 6 < w w w e e e < 3 3 w w w w w w w w w w w 7 3 7 o o 6 = ",
"& : & + , < 3 6 3 < , < < < 2 2 3 3 : 3 3 6 6 6 6 3 7 6 8 8 9 9 q q < 3 < w w w w w w < 3 < 8 w w w w w w q q w 6 3 8 3   o 6 = ",
"& : & + , = < 2 < < , < < < < < < 2 = 2 3 5 3 5 6 3 6 6 6 7 9 9 9 9 < < < 0 9 w w w w < 3 < 8 w q 0 9 q 9 9 9 < : 8 6 <   + 5 = ",
"& : & + < : = - : , , < < < < < < 2 = < < 3 3 5 5 3 < 3 6 3 5 5 6 3 = < : 3 9 9 9 9 9 < 2 < 7 9 9 9 9 9 8 8 8 = & 6 3 3   o 3 = ",
"& : & + , < = & = , , , , < < < < 2 < < < 3 3 3 3 3 = < 5 3 6 7 8 3 = < = : 7 8 8 8 8 , < 6 8 8 8 8 8 8 8 8 8 = & 3 7 3   o 3 & ",
"& = & + > = = & = , : : > < < < < < < < < 3 3 3 3 2 = < 5 3 6 7 8 7 : < = : 7 8 8 8 8 < < 8 8 8 7 8 8 7 7 7 7 = & 6 6 <   o 3 & ",
"& = @ + , = & & = , : : : , < < < < < : < 2 2 2 3 < - < 3 3 5 6 6 6 = : & = 6 7 7 7 7 6 : 3 8 7 7 7 7 6 6 6 6 & & 3 < <   X < & ",
"& = + + : : = & = : : : : , , , < , : < < < < < 2 < & < 3 3 5 3 3 5 = : & = 5 6 6 6 6 6 3 : 5 7 6 6 6 6 6 6 6 & & 3 3 <   X < & ",
"& = + + : & & & = : = = : : , , : = < < < < < < < , & : 2 3 3 3 3 3 & = & & 3 6 3 5 5 5 5 3 & 3 5 3 5 6 4 3 3 & & 3 2 :   X < & ",
"& = + + , : & & - : = : : : : : : = < < < < < < < > & : < < < < , < & = & & 3 3 3 3 5 3 3 3 # , 3 3 3 3 3 3 3 & + < , <   X < & ",
"& & + + : > = & & : = = : : : : : = < < < < < < < > & : < 3 4 3 3 3 & = & & 3 3 3 3 3 3 3 3 # , 3 3 3 3 3 3 3 & & 3 3 ,   X < & ",
"& & + + : & & & & : = = = : : : : = , < < < < , < : # = < < < 1 < < & & & & 2 3 3 3 3 3 3 3 # : 3 3 3 3 3 3 3 & + 3 < :   X , & ",
"& & + + : : & & & : = = = : : = = & : : : , , , , : & = < < < < < < & & + & 1 3 3 2 2 3 3 2 + : < 3 2 3 3 2 2 & + < , :     > & ",
"& & + + = = & # & = = = = : : = = & : : : : : : > : & & < < < < < < & & + & < 2 < < < 2 2 2 + : < < < 2 < < < & + < 1 :     : & ",
"& & + + = + & & & = & & & = : = = & : = : : : : : = & = < < , , , , # & + & < < < < < < < < + = < < < 2 < < < + + < < =   . : & ",
"& & + + = : & # & = & = = = : = = - : : = = : : : = & = : , < 3 2 < & & + + < < < < < < < < + = < < < < < < < + + , < :   . : & ",
"& & + + & : = @ & = & = = = = = = & : : = = = : : = = = : , < < < < & & + = < < < < < < < < + = < < < < < < < + + < 2 =   . : & ",
"+ & + + = & & @ & & & & - = = = = & - & = = = = : = : = : = = = = = + & + < < < < , , < , : + = , < < < < < , + + < < =     : + ",
"+ & + o & & & + & & & & & = & & & & & & = = = = = & = = = & + + + + + & + , , , , : : , < , + = , < < < < , , + + < < =     = + ",
"+ & o X + + + + + + + + # & # & & + & & & & & & & & & & # + + + + + + + + : & & & & & & & & o & & & & & & & & + + = # +     = + ",
"+ & + o + + + + + + + + + + + + & + + + + % & & & + + + + + + + + + + & + + + + + + + + + + + & + + + + + + + + + + + + + o & + ",
"+ + + + + + + + + + + + + + + + + + + & & & & & & & & & & & & & & & & & & & & & & & + + + + + + + + + + + + + + + + + + + + + + "
};
