/* XPM */
static char *fanim1[] = {
/* columns rows colors chars-per-pixel */
"64 64 185 2 ",
"   c #030405",
".  c #060609",
"X  c #08070B",
"o  c #07090C",
"O  c #0A0A0D",
"+  c #100F0E",
"@  c #13110F",
"#  c #1A140D",
"$  c #070B11",
"%  c #0B0E12",
"&  c #02051E",
"*  c #04091C",
"=  c #090D1A",
"-  c #100F11",
";  c #100E1A",
":  c #0E1115",
">  c #0E1319",
",  c #121315",
"<  c #1A1612",
"1  c #1B1A15",
"2  c #12151B",
"3  c #181719",
"4  c #14181E",
"5  c #1C1C1C",
"6  c #221D17",
"7  c #211E1C",
"8  c #23211E",
"9  c #2D261B",
"0  c #352C1E",
"q  c #392D1C",
"w  c #000522",
"e  c #0A0624",
"r  c #050A25",
"t  c #0B0A24",
"y  c #060E29",
"u  c #0A0D29",
"i  c #130925",
"p  c #190E23",
"a  c #120A29",
"s  c #1C0C2B",
"d  c #0D1224",
"f  c #0C132C",
"g  c #131422",
"h  c #151B23",
"j  c #1A1E24",
"k  c #13132C",
"l  c #131B2C",
"z  c #191D2A",
"x  c #0C1630",
"c  c #0F1B33",
"v  c #131430",
"b  c #121B30",
"n  c #280D2D",
"m  c #28162B",
"M  c #281D39",
"N  c #301032",
"B  c #172026",
"V  c #1D2126",
"C  c #16212B",
"Z  c #1C232C",
"A  c #1F282F",
"S  c #1C2531",
"D  c #1F2A34",
"F  c #1E2D3C",
"G  c #242322",
"H  c #292622",
"J  c #2B2924",
"K  c #21262C",
"L  c #292728",
"P  c #23292E",
"I  c #2B2B2A",
"U  c #302D24",
"Y  c #302E2A",
"T  c #382A2E",
"R  c #383421",
"E  c #32312C",
"W  c #222731",
"Q  c #2C2432",
"!  c #242B32",
"~  c #2A2E33",
"^  c #232E3A",
"/  c #2D2839",
"(  c #392C33",
")  c #253037",
"_  c #2C3136",
"`  c #26323B",
"'  c #2B343C",
"]  c #353532",
"[  c #373835",
"{  c #3A3A34",
"}  c #32353A",
"|  c #34393D",
" . c #3B3C3B",
".. c #46341C",
"X. c #47381A",
"o. c #4D391B",
"O. c #453824",
"+. c #5A2739",
"@. c #653C3D",
"#. c #42413C",
"$. c #5B4A3A",
"%. c #1B3145",
"&. c #2A3741",
"*. c #263945",
"=. c #2E3A43",
"-. c #2A3C4A",
";. c #323740",
":. c #343B43",
">. c #3A3F43",
",. c #333E4A",
"<. c #393F48",
"1. c #6B1346",
"2. c #741851",
"3. c #374046",
"4. c #3C4245",
"5. c #33414B",
"6. c #3C444B",
"7. c #3F484D",
"8. c #364351",
"9. c #3C4651",
"0. c #314853",
"q. c #3C4953",
"w. c #3D4B59",
"e. c #3E5358",
"r. c #424445",
"t. c #464847",
"y. c #41464D",
"u. c #45494B",
"i. c #4B4C4B",
"p. c #514E45",
"a. c #55554E",
"s. c #404750",
"d. c #424C53",
"f. c #414F5A",
"g. c #465156",
"h. c #4B5256",
"j. c #45525B",
"k. c #4A545A",
"l. c #4E595D",
"z. c #535553",
"x. c #565856",
"c. c #5C5C54",
"v. c #50575F",
"b. c #565D5E",
"n. c #6D5340",
"m. c #60615D",
"M. c #4A5760",
"N. c #4E5A62",
"B. c #525E61",
"V. c #566264",
"C. c #5A6769",
"Z. c #5D6A6B",
"A. c #4F6A71",
"S. c #696A66",
"D. c #64696A",
"F. c #6F706F",
"G. c #737573",
"H. c #7D7E7C",
"J. c #9F3A5B",
"K. c #A12255",
"L. c #874E4C",
"P. c #934B43",
"I. c #9D4E58",
"U. c #A16652",
"Y. c #DE435D",
"T. c #EF585B",
"R. c #7F807E",
"E. c #83837A",
"W. c #C88460",
"Q. c #828483",
"!. c #878987",
"~. c #878988",
"^. c #898B89",
"/. c #949592",
"(. c #999B97",
"). c #9C9E9A",
"_. c #9DA09B",
"`. c #A0A29E",
"'. c #A6A7A2",
"]. c #AAACA7",
"[. c #AFB1AB",
"{. c #B2B4AD",
"}. c #B6B7B2",
"|. c #B7B9B1",
" X c #BBBCB5",
/* pixels */
"7 G G 7 , 1 , , O . . . . .     . O 6 7 G G G I J 7 7 8 8 8 J 8 J 8 9 8 1 3 , 8 V 8 5 3 5 5 + .     . . . . . O % ; , - 3 L L L ",
", 7 8 m m 7 5 , % . . X . O X     + 8 G G G L J I I E #.{ { { { { { E { #.E V 8 5 1 1 1 5 8 @ .   . . .   . . % ; , 5 , 5 5 7 3 ",
"O < 8 8 7 7 5 5 1 O X     . O X O O 8 8 5 5 6 7 8 7 G i.{ J J U U J 8 E p.G 5 8 5 5 5 , 5 7 + + . O .     . X - < 3 5 5 5 3 , - ",
"X . O @ - 3 , + O       X O , - , O < 6 5 5 5 G G 8 G { Y Y Y Y E U E E [ G 8 8 5 5 1 3 3 3 O , + O O .   . X X O O , ; - - X O ",
"    X X   O X   X .     H ] , O 1   O O X , @ , 3 < @ O + E U 1 8 8 R @ o + , , @ , , O . X   3 O : I G     X X .   O .   .     ",
"O   X @ # , O . O O .   , 5 X   .   + 8 < , < 5 8 8 8 @ @ #.#.9 < E p.< + 9 J 8 5 3 1 # < %   . .   , :   . O % .   % .   . . . ",
"  X X % O : 2 % % , , % , % , O @ : 4 G G G J I I ] ] U Y #.{ Y U ] { U I E E G I L G 5 5 3 , , O O % % % , 2 % % % 2 % % . .   ",
"  . O : % 3 K K z W / ' ` ~ ~ P _ _ _ _ } ] t.F.S.R.R.R.E.E.E.E.R.R.R.R.R.S.R.m.S.i.[ P ~ ~ ~ ~ P P ~ ~ ! W W z g 2 2 % % % . . ",
"  . % % % % , 3 , , , , > = , % O , : : + 5 L I [ [ { z.c.x.c.c.c.c.c.c.x.#.#.} E E j % % % % % : = , > ; % % % O O % % = % . . ",
"$ % % % % O % , % 3 3 , , , , , , , 5 5 V L E | O.r.t.z.x.x.r.i.p.7.z.c.x.i.u.#.| [ I 5 3 3 , , , , , , , % % . O % . . O % O % ",
"2 g h z z g , z P ` ~ ~ _ ~ K K K K ~ } >.u.F.).].{.{.|. X X(.R.R.(. X X X|.{.[._./.!.h.>.| } ' ` ~ ` / K j V 3 , , 2 > 4 h h h ",
"> > g h h h 4 V ~ ~ ` ~ _ P V K P I ~ | r.a.G.).'.[.{. X X X X(./. X X X X|.}.[._./.^.h.| | ' _ ) / ~ ! W j z z z 4 g , = g h g ",
"> g g h h z g z ~ ) ) _ ' P , 3 5 4 j L L P x.(.`.].].[.}.}.}.'./.|.|.|.|.{.[.]._.^.R.u.| ' ) ~ W W K K K j z C z h g h 4 4 g g ",
"2 > > g 4 4 4 3 K K P K P P Z G K P ] |  .>.z.F.G.R.H.Q.!.~.Q.F.Z.R.^.!.!.Q.R.R.G.S.D.| _ P P A G V j j j h h 3 , , 4 4 , = 2 3 ",
"4 %       : 4 h z C C C C S Z S S D D ! ^ ^ ` &.-.-.-.w.w.f.d.k.B.g.d.e.e.q.8.8.5.5.=.` ! D S Z C Z Z C C j z z h % .     % j j ",
"K 2   . 2 C z % > : : = > > % % : : d j Z C D ! / &.&.*.3.f.g.k.V.h.d.7.5.,.=.=.&.' ' ` ) ! h h h > 4 > > > 4 , = > % O   , K Z ",
" .P . 4 Z S o   o : . % % : > > > > h h j j h j j V V V ~ d.l.d.d.k.k.' K K K K K Z Z V Z W z d > : % % % 2 2 X   O 4 : o O P P ",
"i.[ , S D $ . : : % w S l r f u y f u u k k u u f u f d k k f f v k f u f d u u d d u u f x u u r r r y f ` h 2 :   : A 4 > _ ' ",
"i.>.z ! = $ h : $ r r & w w w w w w w w w w w w w w w i i & w w w w w w w w w w w w w w w w w w w w w w w x h % O > o 2 ~ h _ ' ",
"i.>.z Z . h % . & w w r w w w w w w w w w w w & w w w r w w w w w w u w w w w w w w w w w w w w w w w w w w r = . O 4 % ` K _ } ",
"t.4.C C > 4 $ * w w w w w w w e i w w w w w w w w w w w w w w w w s a w w w w w & w w w w w w w w w w w w w w w = + 2 g &.W ' ' ",
" .>.Z S 4 B d r & & w w w w w r t w w w & & w w w w w w w w w w w w w w w w w & & w w w w w w w w w w w w w w w r d j S &.W _ _ ",
"_ _ S S h C r & w & w w w w w w w w & w w w w w & w w w w & w w w w w w w w w w e w w w w w w w w w w w w w w w w f D ^ ) G G Z ",
"} } Z S > h r w w w w w w w w w w & w w & & w w w w & & w w w w & w w w & w w p n w w w w w w w w w & w w w w w w f &.! ' K j j ",
"] } Z Z > = r w w w w w w w w w w w w w w w w w w w w w w w w w w w w w w w w i a w w w w w w w w w w w w w w w w f D Z ,.P V j ",
"| } Z A > * w w w w w w w w w w w w w w w w w w w & w w w w w w w w w w w w w w w w w w w w w w w w e r w w w w w x ! Z :.A B 5 ",
"} } Z Z 2 > w w w w w w w w w w t r w s t w e t & w w w w w w w w w w w w w w w w w w w w w w w w w u e w w w w w x D C 5.D 5 B ",
"_ P h h > = w w w w w w w w w w Q t w i e w e e w w w w w w w w w w w w w w w w w w w w w w w w w w w w w w w w w f D Z ' Z 5 5 ",
"5 : 2 4 > = r w w w w w w w r w * & w w w w r & & w w w w w w w w w w w w w w w w w w w w w w w w w w w w w w w w x D Z ` Z 3 5 ",
"m.r.V A > = w w w w w w w w w w w w w w w w w w w w w w w w w w w w w w w w w w w w w w w w w w w w w w w w w w w l D Z ` Z V B ",
"j.u.A A > = w w w w w w w w w w w w w w w w w w * e w w w w w w w w w w w w w w w w w w w w w w w w w w w w w w w f D V ` A E 8 ",
"A.r.Z D > = r w w w w w w w w w w r w w w w w w & & & w w w w w w w w w w w w w w w w w w w w w w w w w w w w w w x D Z ' A V 4 ",
"A.4.Z P , = w w w w w w w w w w r e w w w w w w m +.g r w w w w w w w e w w w w w w w w w w w w w w w w w w w w w x ^ Z ` W K 2 ",
"A.r.Z C > = r w w w w w w w e w w w w w w w w n 2.Y.P.h w w w w w w a n w w w w w w w w w w w w w w w w w w w w w f S z ` Z G , ",
"e.4.Z A > = w w w w w w w e n w w w w w w w w +.K.T.T.D w w w w w w w w w w w w w w w w w w w w e w w w w w w w w r b Z &.Z 9 1 ",
" .4.S Z > = w w w w w w w w w w w w w w w w w T I.W.n.e w w w w w w w w w w w w w w w w w w w w W i w w w w w w w r l W ` Z 5 V ",
"4.| Z A : = w w w w w w w w w w w w w w w w w w > m * r w w w w w w w w w w w w w w w w w w w w w w w w w w w w w r Z Z &.A V V ",
"P _ Z Z > ; m w w w w w w w w w w w w w w w w w w & w w w w w w w w w w w w w w w w w w w w w w w w w w w w w w w r z Z &.A j V ",
"P ~ V A > = t w w w w w w w w w w w w w w w w w w w w w w w w w w w w w w w w w w w w w w w w w w w w w w w w w w r C S &.Z G Z ",
"~ ~ V A > = r w i s w w w w w w w w w w w w w w w w w w w w w w w w w w w w w w w w w w w w w w w w w w w w w w w r l Z &.S G G ",
"P P Z A > = r & e a w w w w w w e w w w w w w w w w w w w w w w w w w w w w w w w w w w w w w w w w w w w w w w w c F Z &.Z G Z ",
"_ _ Z Z > = w w w w w w w w & e $./ w w w w d k w w w w w w w w w w w w w w w w w w w w w w w & w w w w w w w w w %.&.z &.Z Z Z ",
"~ } B Z > > r w w w w w w e w e ( i w w w w k z w w w w w w w w w w w w w w w w w w w w e e w w w w w w w w w w w %.-.W &.S V Z ",
"P _ Z A h d w w w w w w w * i w w & w w w w w w w w w w w w w w w w w w w w w w w w w w a i w w w w w w w w w w p -.0.^ ` Z V K ",
"~ _ Z B h S y w w w w w w e s w w w w w w w & w w w w w w w w w w e w w w w w w w w w w w w w w w w w w w w w i / ,.` C ` Z j Z ",
"P ) V B = B B r w w w w w w w w w w w w w w w w e w w w w w w e N 1.i & w w w w w w w w w w w w w s g & w w e M %.C Z : ) Z j C ",
"P V 4 ) 4 = B 2 S f w w w w w w w w w w w w w u w w w w w w w Q J.Y.@.w w w w w w w w w w w w w w h d w w w f F 2 2 : 4 5.h z C ",
"V 1 A ' | 2 o 5 Z F u w w w w w w w w w w w w w w w w w w w w z L.U.T w w w w w w w w w w w w w w w w e w x *.S 2 % 4 0.6.V h C ",
"! 4 O } :.=.: . 2 5 C d f d d f f f l l b l b b b l l W l b b l z z b l f l c c b c b x l f r & & & * = d S h >   : q.e.~ O h C ",
"~ 4   - | <.' % o > : 2 h B V Z A ! P ! ! D ! ! P D W ! ~ ,.f.k.M.f.3.) ) ! ~ ! ! ! ~ ! P B 2 > % % % % % % % o % 5.g._ % . h h ",
"A 2 o   O ' | 3.7.3.3.d.h.h.k.g.k.N.N.N.l.l.N.N.N.N.N.N.N.d.| ` ` ' q.N.l.M.N.M.j.N.N.N.M.j.j.j.q.j.f.f.q.;.3.q.8.5.P .   : h Z ",
", @ O o   3 K ) ' _ _ | :.:.:.:.6.u.6.4.3.6.6.4.s.s.d.6.6.<.:.:.;.;.<.6.3.6.6.6.5.6.6.6.3.q.9.6.:.<.>.<.>.' ) | | P , O , 4 V P ",
"3 , % O . : 3 G A _ :.4.7.7.4.7.4.4.| Z 2 , : V ' ` &.` ` &.` &.&.&./ _ F ` ` F V , , j K | 4.4.6.6.4.4.>.' ~ Z G 5 : o , 4 V V ",
"B 4 % $ : 4 H O.~ ' 4.l.V.C.C.V.k.d.:.A 4 : : C -.-.-.*.*.-.-.-.-.-.&.-.0.5.5.0.C % % h S ' u.l.Z.D.Z.Z.b.3.' ! O.G : o : h C C ",
"Z B : : 2 h ! ! A P ! 7.l.l.B.l.6.| ' Z h $ % > Z C S S S S C S S C h C C S S Z > $ % h C ~ | 7.V.V.B.v.7.' W A ! D > % > h Z Z ",
"4 h > : 2 V ! D B A 5 K 3.4.4.} K 3 ' Z h $ % > z h h h d h l h h l > h l h C l > $ = > C P j ) <.4.4.` V V Z 4 S D h % > h S C ",
". 4 2 : 2 h W S h B 5 D :.q.y.>.~ V _ W h % 2 j W W W W W W W z z S C K W W W W j > , j Z W Z ;.9.d.d.' 4 j P j Z ! d % 4 h Z Z ",
": : : : : : 4 V 2 B 4 A ' :.<.<._ W ^ W j O 4 K ~ ~ ~ I ~ ~ W 4 4 P ~ I _ ~ _ _ K j h K P ) ~ ;.3.3.4.~ O Z P Z ! ! 4 % V V S S ",
". . . . , % j Z : 5 2 B ' 6.6.=.Z 4 W Z h % : 1 R 8 8 8 8 8 6 1 2 ..o...o.o.X.9 % > . 2 Z Z 5 _ 6.6.6.P O 4 4 : D ^ 4 o o 2 Z Z ",
"O . .   O : W Z 2 2 > : 2 2 2 , : O 4 W V > 4 1 0 H G H G 8 8 6 3 0 X.q q 0 9 6 % > % h K 2 % : 4 4 4 , O : : 4 W ! 4 % o : h h ",
"O O O O % O : 2 : O O . . . O . . o % , > % , : : : : : : : : % % > > > , > > = % % O : 2 : % % % % % - ; X O 2 4 2 % % % o : % ",
"O . X X . . o O o o O % % % % : % % % % % . % % % % % % % : % . O % % % % % % % O . . O % O % % % % % , , % % % O $ . o . . o % ",
": % O O o . % : > : % 3 2 2 2 2 g 4 2 2 % . > 4 g 4 4 4 g g 2 % % 4 g 4 4 g 4 4 = % o O > > g 4 2 4 g 4 % > , 4 > > o . o % > 2 ",
"o O O O o O O % % % % : > 2 > 2 > , 2 2 2 , , > , > , , , , = > , % > , = , , , , , , 2 2 2 , > 4 4 2 , % % % % % % % % % $ % : "
};
