/* XPM */
static char *fanim3[] = {
/* columns rows colors chars-per-pixel */
"64 64 207 2 ",
"   c #030304",
".  c #050609",
"X  c #08070A",
"o  c #06090C",
"O  c #0A0B0D",
"+  c #100F0F",
"@  c #14110C",
"#  c #1B140C",
"$  c #010315",
"%  c #0B0414",
"&  c #020B13",
"*  c #0B0E12",
"=  c #02041D",
"-  c #0A031C",
";  c #02091D",
":  c #0A0E1A",
">  c #100F10",
",  c #12021C",
"<  c #19071E",
"1  c #0E1115",
"2  c #0E1219",
"3  c #121315",
"4  c #1B1A15",
"5  c #12151B",
"6  c #181718",
"7  c #15191E",
"8  c #1B1B1C",
"9  c #1B1712",
"0  c #211E1C",
"q  c #211D16",
"w  c #23211D",
"e  c #2A251C",
"r  c #2E2516",
"t  c #362C1E",
"y  c #010522",
"u  c #090223",
"i  c #010923",
"p  c #080C24",
"a  c #02042A",
"s  c #0A0429",
"d  c #050B29",
"f  c #0A0D2A",
"g  c #150929",
"h  c #160824",
"j  c #0C1326",
"k  c #0B122C",
"l  c #0E182E",
"z  c #07102B",
"x  c #121720",
"c  c #141A22",
"v  c #1A1E24",
"b  c #151C2A",
"n  c #191F29",
"m  c #10172D",
"M  c #0C1631",
"N  c #0D1933",
"B  c #191332",
"V  c #111A30",
"C  c #121632",
"Z  c #230D2D",
"A  c #230522",
"S  c #370D2E",
"D  c #211F22",
"F  c #2C1227",
"G  c #2C1730",
"H  c #172026",
"J  c #1D2126",
"K  c #17212C",
"L  c #1B232C",
"P  c #1E282E",
"I  c #1D2631",
"U  c #1E2932",
"Y  c #1D2E3C",
"T  c #242322",
"R  c #292623",
"E  c #272926",
"W  c #2A2825",
"Q  c #22262B",
"!  c #232A2E",
"~  c #2B2B2B",
"^  c #312E29",
"/  c #2F302F",
"(  c #33322D",
")  c #38352E",
"_  c #3C3522",
"`  c #212630",
"'  c #242B33",
"]  c #292E33",
"[  c #232E39",
"{  c #2A2F39",
"}  c #2F2530",
"|  c #263037",
" . c #2C3136",
".. c #26323B",
"X. c #2C333B",
"o. c #2D383F",
"O. c #313332",
"+. c #3B3A35",
"@. c #32353A",
"#. c #34393D",
"$. c #3B3C3C",
"%. c #363833",
"&. c #4E3A1C",
"*. c #493319",
"=. c #523C18",
"-. c #411C29",
";. c #403222",
":. c #513F23",
">. c #403E3A",
",. c #552E2A",
"<. c #44433E",
"1. c #5D4130",
"2. c #1D364B",
"3. c #1E3542",
"4. c #243542",
"5. c #293742",
"6. c #2C3A42",
"7. c #2B3E4D",
"8. c #233947",
"9. c #343C43",
"0. c #393E43",
"q. c #363F4A",
"w. c #373B44",
"e. c #382B4C",
"r. c #423351",
"t. c #4C314E",
"y. c #652A51",
"u. c #7E3A50",
"i. c #2F444D",
"p. c #3C4144",
"a. c #35424A",
"s. c #3C444C",
"d. c #3A444A",
"f. c #2B4252",
"g. c #334353",
"h. c #3C4A53",
"j. c #384656",
"k. c #3C535C",
"l. c #3F5360",
"z. c #434545",
"x. c #40454D",
"c. c #47494A",
"v. c #4C4D4D",
"b. c #4C464F",
"n. c #514E4C",
"m. c #4F514F",
"M. c #54544D",
"N. c #58584F",
"B. c #414750",
"V. c #424B54",
"C. c #4B4F52",
"Z. c #444F59",
"A. c #465055",
"S. c #45525C",
"D. c #4B565C",
"F. c #4D5A5D",
"G. c #4F5250",
"H. c #535553",
"J. c #5C5B52",
"K. c #505A5E",
"L. c #545555",
"P. c #475660",
"I. c #4D5B64",
"U. c #4A5761",
"Y. c #525E65",
"T. c #515F68",
"R. c #605564",
"E. c #546169",
"W. c #586668",
"Q. c #5E6C6D",
"!. c #5B6367",
"~. c #536972",
"^. c #567277",
"/. c #636462",
"(. c #686B6A",
"). c #71716D",
"_. c #657373",
"`. c #747674",
"'. c #7C7D7D",
"]. c #787972",
"[. c #7F817F",
"{. c #83847D",
"}. c #847C82",
"|. c #838482",
" X c #868887",
".X c #8B8C84",
"XX c #8B8D8A",
"oX c #8F918F",
"OX c #90918B",
"+X c #9B9D99",
"@X c #969895",
"#X c #938797",
"$X c #9FA39F",
"%X c #A2A49F",
"&X c #A5A7A2",
"*X c #ADAFA9",
"=X c #ABABA7",
"-X c #AFB1AB",
";X c #B2B5AE",
":X c #BBBCB5",
">X c #BEBFB8",
",X c #B5B8B1",
"<X c #E89B8F",
"1X c #E9B086",
"2X c #BEC0B8",
"3X c #C4C5BD",
"4X c #C9CAC1",
/* pixels */
"T R R 0 > D 9 > % X . . . X .     O 0 0 T T E ~ ~ 8 q w w e E e e J E q 4 4 4 8 T w 8 8 8 8 1 .     o . . . . O * > 3 > 6 D } ~ ",
"> 0 D D 0 D 6 3 * X . . . X X   X O e D w E W W ~ ( %.<.>.+.+.>.+.+.%.%.<./ E J 8 8 6 6 8 w @ .   . . . . . . O 3 3 6 6 8 D D 9 ",
"O 3 0 D D 0 0 8 6 > . .   . * X X X 0 R 6 8 0 8 0 8 8 N.+.w W e W e e ( M.T 4 q 8 8 6 3 w w O O X O     .   % 3 7 8 8 v 8 8 3 > ",
"X   > 9 > 6 > + +       . O 3 O 8 X 6 0 0 8 w T R T T >.( ^ ( ) ) ^ / ^ >.E T T 0 8 4 6 8 6 O 4 O O O     . . O + O > > > > X X ",
"    . .   * X   X X     ~ <.6 . 8   O O   3 O @ 9 3 O   o ) ^ # w q +.+   O @ @ @ * 6 o . X   c @ * ( E     X X     * .   .     ",
"O X . 9 # * *   O X .   @ 8 .       O r # 6 6 6 R e R @   n.<.r @ ^ J.@ O W e e 8 6 6 # # O         6 1   . X X X   >     . . X ",
"  X X * O 3 5 > O 3 3 : * * * O 3 1 6 E T T E E T O.( W W >.+.W E ( <.W W E  .T E T T 8 v 8 3 3 O O * % * 5 5 * * * x * * O X   ",
"  . * > > 5 ` ' L { { 9.X.@.{ ] @.@.@.@.#.@.v.{.).XX X.XOX{.{.OXOX{.{.{.[.[.[./.`.N.$.] ]  . .@.! ] X.{ { ' { n c 7 3 * : * . . ",
"  . * * % 3 3 3 * > * * * * O O X O O O . 6 T 0 ( / ( n.N.H.J.H.N.N.N.N.M.%.%./ E ~ 8 . O O o o * * * * O O * % O X % : * * . . ",
"* % * * : X * * * 3 5 1 3 3 3 6 3 3 8 8 T E ] O.%.0.>.c.m.G.+.c.M.p.v.M.M.c.z.#.O. .E 6 6 3 3 3 > > 5 5 * O :   X * . . O O * X ",
"5 x c n n 7 3 Q ]  .@. .@.] ! Q Q ] O.#.s.C.`.=X-X:X:X3X3X4X+X'.[.$X2X3X3X3X3X,X&X+X@XD.0.9.9.@.X.{ { { ' v D c 5 5 5 3 c n b x ",
"2 2 x c c c x n { ' ] ]  .! v L Q ~ ] @.z.v.`.+X%X-X-X;X>X:X3X+X.X2X2X2X,X;X;X=X+XoX.XC.9.@. . .{ ' { ] ` v D n v 5 c 3 3 x x x ",
"x 5 x b v n x D ] X.X. .9.Q 3 6 6 7 8 ! E v L.&X&X-X-X,X>X3X:X&X$X2X2X2X2X,X,X-X$XoX|.x.@.@.] ] ' ' ` ` Q v Q v v c x n x 5 c c ",
": 5 5 x x x 7 3 L Q Q Q Q Q Q Q ! ! @.$.0.p.L.`.`.'.[.|. XXX X(.K.[.XXXX X|.|.{.`.(.).@.] ~ ! L T v v c c c c 7 5 5 5 5 5 * 2 2 ",
"7 *       * 5 b n K H K K K I I I U U U [ [ [ ..5.8.7.q.g.g.s.V.F.x.a.h.j.f.i.7.5.8.5.[ U I I I K K L n n K n b n * o     > D n ",
"Q 5     2 P L * 2 2 1 : 2 : * o 1 1 j v v L ` | ....o.5.a.D.Z.K./.A.A.h.a.a.a.6.6.9.6.X...[ c c c 2 5 7 : 5 5 3 * 5 * X . 3 ' n ",
"r.W   7 P [ .   o + . o : * 5 2 1 5 v 7 v v 7 H J H T J ] K.E.V.C.Y.Y. .Q Q Q Q T Q T L J [ J 2 3 * O : O 3 6 .   . H 1 o O ! Q ",
"M.+.: U [ .   5 1 : i i d d M f f z k f d k z z k f f z f p p f f f p f z z f f k z z f z k k f d f d d C 8.7 7 *   O [ 1 1 X.@.",
"v.p.x ..o . H 2 % i y y y = y = y = y y = = ; = y y = y = y y y y y ; y ; = = = ; = = y ; y = y y = ; y = M b O * 7 . 5 5.7  . .",
"c.p.n P   n *   ; y y y y i y y y y y y y y a y y y y y y y y y a y i i i y ; y y y y y y y y y y y y y y y i :   O 7 . 5.'  .@.",
"v.p.K U 2 7 O p y y y y y y y y y y y y y y y y y y y y y y y y = u ; i ; i ; u y ; y y y y y i y y y y y y y y 2 X 7 5 ..` @. .",
"+.0.K K 2 K j i y y y y y y y y y y y y y y y y y y y y y y y y y = = y y ; y y y y y y y y y y y y y y a y y y i j v I 6.'  . .",
"] @.I P x I i y y y y y y y y y y y y y y y y y y y y y y y y y y h - u i y y y y y y y y y y y y y y y y = y y y f [ { { T Q n ",
"@.X.L U 1 b i y y y y y y y y y y y y y y = a y y y y y y y y y f y.Z - y u y y y y y y y y y y y y y y y y y y y k 6.L 5.! v v ",
"%. .I P 1 : i y y y y y y y y y y y y y y y y y y y y y y y y y f t.Z - = y y y y y y y y y y y y y y y y y y y = M [ c a.' 8 H ",
"$.@.L I 1 : i y y y y y y y y y y y y y y y y y y y y y i y y y y % - = y ; y a a y y y y y y y y y y y y y y y y M ..c a.` 8 J ",
"@.@.L I 1 : y y y a y y ; y y y y y y y y y y y y y y y y y y y y - = ; ; y ; y y y y y y y y y y y y y y y y y y M | c a.' 6 H ",
"] ] c c 2 1 i i s s a i ; . y y y y y y y y y y y y y y y y y y y y y y y y y y y y a a y y u i a y y y u u u u = k [ c a.P 6 v ",
"8 X 5 7 2 : ; ; y u a a y a y y y y y y y y y y y y y y y y y y y y y y y y y y y y a i - $ $ = i y ; y i i i y = l [ v ..L 5 7 ",
"/.c.L ` : 3 h & ; = y a a a y y y y y y y y y y y y y y y y i y y y y y y y y y y y y u $ : > $ = ; ; u i i i y = l [ 7 o.L w J ",
"S.c.L ` * F A $ ; $ ; ; a a y y y y y y y y y y y y y y y y y y y y y y y a y y y y u = . }.}.  $ ; y y y y y y = M | H o.! ( w ",
"^.z.P ' & } u.< $ ; = $ $ ; y y y y y y y y y y y y y y y y y y y y y y y y y y y y y ; $ b.b.. $ y y a u u u y = M Y c o.P H 7 ",
"~.p.Q [ $ ,.<XR $ y y ; ; y y y y y y y y y y y y y y y y y y y y y y y y y y y y y y i ; .   = ; a a a - u = y ; l ..c 5.` Q 5 ",
"^.p.H Q . 1.1X^ $ a a a a a y y y y y y y y y y y y y y y y y y y y y y y y y y y y y y ; i ; ; y y a i y y i i = k ' v 5.P J 3 ",
"k.p.L ` & _ &.* u a a y a a y y y y y y y y y y y y y y i y y y y y y y y y y y y y y y y = y i a y u ; ; y i ; y p n n o.U r 4 ",
"$.p.L ` * 7 $ a a u & & = u y y y y y y y y y y y y y y y y y y y y y y y y y y y i u = = y y a a u - G g $ i y y s K n 5.` 6 J ",
"z.%.L U * : i a a y = ; = = y u i y y y y y i y y y y y y y y y y y y y y y y y y y y y y y a y y u g r.B = p y u d K n 5.U 8 L ",
"!  .K P * 2 y y y y y y y y y y i i i y u = = y y y y y y y y y y y y y y y y y y y y i y = y u u u u s y y y y y d K v 6.P v J ",
" .] H ' : : y y y ; y u u y - - ; u y a u u u y y y y y y y y y y y y y y y y y y y y y y y y y y u p = y y y y y d K P 5.I D Q ",
"] ] H U : : y y y y u y = B S S , u y y y i i y y y y y y y y y y i y y y y y y y y y y y y y y y y y y y = y y y y K L 5.I D T ",
"~ ' K ` 1 : i y y y u y u e.y.y.< - y y i i i i y y y y y y y y y y y y y y y y y y y y y y y y y i y i a y y y = N [ n 6.I v T ",
"~  .L U 1 : y y y y u u y h A h - = y y u u u y y y y y y y y y y y y y y y y y y y y y y y y y y y y i y y y y = 2.7.c 6.P v L ",
"| O.L P 2 j a y y y ; s u y - $ = ; i y u u u u y y y y y y y y y y y y y y y y y y y y y y y y i y y y y y y y = 2.f.b 6.I Q L ",
"'  .L P 2 j y y y y y y u u - = ; y y y y i ; y y y y y y y y y y y y y y y y y y y y y y y y y y y y y y y y y $ 2.k.U 5.I v Q ",
" . .H L 5 [ i i y y y u C f = u y y a y y ; ; y y y y y i y y y y y y y y y y y y y y y y y y y y y u y y y i = z 8.4.c ..K v L ",
"!  .H L O P J i y y y y d y y y y y y u u y ; y y u y $ $ u y y y y y y y y = y y y y y y y y y y y y y y y y k 3.H U o ..P c L ",
"! J 1 X.2 o J 7 [ k = y y y y y y y y y y y y y u = < t.} % - y a y y y y y y a y y y y a y y y y y y y y = z 3.2 x * 1 j.7 v H ",
"Q 5 J a.q.1   H L 4.d y y y y y = a y = y y y y y = % }.Y.  = y i y y y y = y = y y y = = y y y i y y y y M f.I 7 o * S.h.c n K ",
" .7   #.q.9.O   7 7 I j z j k l l l l m V V l V V b b ' ` b B V V m m m V V V V N V V M l l ; ; ; ; ; ; ; Y v 2   o S.P.! . c n ",
"| 7   O p.a.9.. . O O 3 5 7 J H T Q Q ! ! ! ! ! ! ! ! L ` 0.F.I.T.F.s.! ] ! ! ' ! ! ! ! Q H 1 % % o o . o o   .   j.I.] * . c x ",
"Q 5 .   . #.X.s.h.d.d.S.D.F.F.D.I.Y.I.Y.E.E.Y.E.E.E.I.E.E.V.X...` [ V.~.I.I.I.I.I.T.I.T.I.I.I.I.k.P.S.S.S.9.a.S.h.d.!     1 H I ",
"3 + + O . 3 ! X.#. . .X.#.#.#.#.s.h.x.d.a.s.s.p.B.B.B.s.x.w.#.9.#.9.#.s.0.h.h.s.0.h.V.s.d.B.s.s.9.d.0.a.0. .] 9.6.! > O 6 6 J ' ",
"7 7 O O X 3 7 q J  .#.p.d.d.p.d.p.0.#.J 1 + + 7 X...| | ......o.....] X.| ..| o.v * 3 5 J #.9.p.0.0.9.#.#.@. .L w H * O 3 5 Q J ",
"H 5 * o 1 2 R :.[ X.p.!.Q.Q.Q.Q.F.A.#.P 5 1 1 H 7.7.7.f.7.f.f.f.7.g.5.7.f.f.f.f.H * : 7 I #.A.K._._._._.W.9...' &.w & . 1 x K n ",
"L v 1 : 7 J ' U ' P Q h.D.F.F.F.d.o.X.! x & & 5 L L K K H K K K K L c n K I I L 2 * * 7 K [ #.s.Y.!.K.K.V.X.! L [ ' x * 7 x L K ",
"7 v 2 * 5 c [ ' c Q 8 L #.0.d.O.v 2 #.P 7 & % 1 c j x x j c c c b x 1 j c c j j 2 o & 2 v ` 7 ! #.p.0. .7 v Q 2 U U 2 * 2 c I K ",
". 7 7 1 5 v [ I c P 7 ' q.V.V.s.{ v X.' v % 3 J { ' ' ' ' ' ' n n U L ` ' { ' ' n 5 5 n ` ' Q 9.V.V.Z.0.7 v ' c U [ x * c v K K ",
"1 * 5 * 1 O 5 v 7 c 5 L  .9.0.9.] ' { ` H . H Q } ] ] ] ' ] ' 7 2 ! ! ' ] ] { ] Q v 8 P ' ] ' 9.q.0.d.! . Q ] L ' [ 2 * J L ` ` ",
". . .   3 * v ! * v 2 L 9.h.B.0.Q 3 ' L v * * 4 _ 0 0 e 0 0 q q 2 &.=.*.=.=.*.r . 1   2 J L 7 X.x.B.h.! X 7 7 o ! { 5 o o 2 U L ",
"X . X   O 1 [ ` 1 7 1 * 1 5 2 2 : o 8 ' H 3 7 6 _ R R R R R w q 5 _ =.t *.t ^ 0 : 7 O n [ 1 X 3 5 7 7 3 O * * 7 [ ] 7 * O * v x ",
"O O + O O O 1 5 1 X X . . . . . . . * 5 3 * 5 * % * * * * * : * * * : : : * : * * * O * 5 * O O O * O * 1 . O 7 5 5 * O O O O O ",
"X X o o . . . O O O O * * * * + * * * O O . * * 1 * * 1 * > * O X * * * * * * * O . . O O * * : * * * 7 6 * * * * O . o . o * 1 ",
"1 O O O o . * 5 2 * * 7 5 7 7 5 7 5 7 5 * . 2 7 7 x 7 7 x x x . * x 7 5 5 x x 7 * X . X 7 2 7 5 5 7 7 3 O 2 5 7 2 5 o o o o 2 2 ",
"o O o O o O O O * * * * 1 2 2 3 2 * 5 5 3 5 2 1 1 1 1 1 > : 3 5 5 * 5 : 3 3 : 3 3 5 6 5 5 5 5 2 5 5 2 5 * X * o * * * * * * * * "
};
