/* XPM */
static char *fanim2[] = {
/* columns rows colors chars-per-pixel */
"64 64 210 2 ",
"   c #030304",
".  c #050609",
"X  c #08070A",
"o  c #07090C",
"O  c #0A0B0D",
"+  c #100F0F",
"@  c #14110C",
"#  c #1B140C",
"$  c #010114",
"%  c #0B0E12",
"&  c #01031D",
"*  c #03091C",
"=  c #0A0E1B",
"-  c #0E051A",
";  c #100F10",
":  c #12051C",
">  c #0E1115",
",  c #0E1319",
"<  c #121315",
"1  c #1B1A15",
"2  c #12151B",
"3  c #191518",
"4  c #15191E",
"5  c #1B1B1C",
"6  c #1B1712",
"7  c #211E1C",
"8  c #251919",
"9  c #3F191F",
"0  c #23211D",
"q  c #2A251C",
"w  c #2E2516",
"e  c #362C1E",
"r  c #000522",
"t  c #0B0422",
"y  c #020923",
"u  c #010429",
"i  c #050C2A",
"p  c #090F2B",
"a  c #080728",
"s  c #130D2B",
"d  c #160527",
"f  c #0B1226",
"g  c #0B122C",
"h  c #0C1729",
"j  c #121622",
"k  c #141A22",
"l  c #1A1E24",
"z  c #141D2A",
"x  c #191E29",
"c  c #19132C",
"v  c #0C1632",
"b  c #0F1A35",
"n  c #141332",
"m  c #111A31",
"M  c #211F22",
"N  c #211D29",
"B  c #2A1235",
"V  c #321639",
"C  c #172026",
"Z  c #1D2126",
"A  c #17212C",
"S  c #1B232C",
"D  c #1F282E",
"F  c #1D2631",
"G  c #1E2932",
"H  c #1F2B39",
"J  c #242322",
"K  c #292623",
"L  c #272926",
"P  c #2A2825",
"I  c #22262B",
"U  c #232A2E",
"Y  c #2B2B2B",
"T  c #302E29",
"R  c #2F302F",
"E  c #33322D",
"W  c #38352E",
"Q  c #3C3522",
"!  c #202730",
"~  c #242B33",
"^  c #292E33",
"/  c #232E39",
"(  c #2A2E39",
")  c #3F273D",
"_  c #263037",
"`  c #2C3136",
"'  c #26323B",
"]  c #2C333B",
"[  c #2D383F",
"{  c #313332",
"}  c #3B3A35",
"|  c #32353A",
" . c #34393D",
".. c #3B3C3C",
"X. c #363833",
"o. c #4E3A1C",
"O. c #473317",
"+. c #523C18",
"@. c #40172F",
"#. c #403320",
"$. c #513F23",
"%. c #413E3A",
"&. c #4F3730",
"*. c #4F2834",
"=. c #44433E",
"-. c #524230",
";. c #1D364B",
":. c #1F3543",
">. c #372043",
",. c #243442",
"<. c #293742",
"1. c #2C3A42",
"2. c #2B3E4D",
"3. c #233947",
"4. c #343C43",
"5. c #393E43",
"6. c #343F4C",
"7. c #373B44",
"8. c #411440",
"9. c #581B4C",
"0. c #572142",
"q. c #2F444D",
"w. c #3C4144",
"e. c #35424A",
"r. c #3C444C",
"t. c #3B454A",
"y. c #2B4252",
"u. c #334353",
"i. c #3C4A53",
"p. c #384656",
"a. c #3C535C",
"s. c #3F5360",
"d. c #434545",
"f. c #40454D",
"g. c #47494A",
"h. c #4C4D4D",
"j. c #514E4C",
"k. c #4F514F",
"l. c #54544D",
"z. c #58584F",
"x. c #414750",
"c. c #424B54",
"v. c #444F59",
"b. c #4B4F52",
"n. c #465055",
"m. c #4B565C",
"M. c #4D5A5D",
"N. c #485259",
"B. c #535553",
"V. c #5C5B52",
"C. c #505359",
"Z. c #505A5E",
"A. c #585652",
"S. c #475660",
"D. c #4D5B64",
"F. c #4A5761",
"G. c #525E65",
"H. c #515F68",
"J. c #546169",
"K. c #586668",
"L. c #5E6C6D",
"P. c #5B6367",
"I. c #536972",
"U. c #567277",
"Y. c #666968",
"T. c #71716D",
"R. c #657373",
"E. c #747674",
"W. c #7C7D7D",
"Q. c #787972",
"!. c #800E5B",
"~. c #AE0D45",
"^. c #9E2D5A",
"/. c #961E62",
"(. c #F32B5F",
"). c #F53C5C",
"_. c #914E47",
"`. c #816B4C",
"'. c #BF6578",
"]. c #C2755B",
"[. c #DA7367",
"{. c #E56A78",
"}. c #F25D51",
"|. c #7F817F",
" X c #83847D",
".X c #FA975C",
"XX c #F79D6D",
"oX c #E1B879",
"OX c #D4936A",
"+X c #838482",
"@X c #868887",
"#X c #8B8C84",
"$X c #8B8D8A",
"%X c #8F918F",
"&X c #90918B",
"*X c #9B9D99",
"=X c #969895",
"-X c #9FA39F",
";X c #A2A49F",
":X c #A5A7A2",
">X c #ADAFA9",
",X c #ABABA7",
"<X c #AFB1AB",
"1X c #B2B5AE",
"2X c #BBBCB5",
"3X c #BEBFB8",
"4X c #B5B8B1",
"5X c #BEC0B8",
"6X c #C4C5BD",
"7X c #C9CAC1",
/* pixels */
"J K K 7 < l 3 > O X . X . X       O 0 0 0 J K Y Y 5 0 0 0 q q q L q q 0 1 1 2 0 0 0 5 1 5 5 + X     o X . . . O % : 2 < < Y Y K ",
"; 7 M M 8 M 3 < O X . . . X X     O K J J L L L Y E W =.%.} ..} } ..X.X.=.R L J 5 5 5 5 5 Z <       o   . . . O > 3 3 < 5 7 M 3 ",
"O < 7 M 7 7 8 7 5 + . .     % O X X 0 K 3 5 7 5 7 5 5 z.} 0 P q q q 0 E B.J 1 5 5 5 5 < 7 0 > O . O .   .   X 2 5 5 5 5 5 5 < ; ",
"O   + 3 < 3 < O O       . O < O 1 X 3 0 5 7 7 J K J J %.E T E W X.T T E %.q Z 0 5 5 1 1 1 1 X 1 O % X     . . X X O < < ; < X X ",
"    X X   % O   X X .   T d.3 . 5   O O   < O < < @ O   X W T 6 q 1 X.+   O @ @ + + 2 O   o   5 % + { Y     O X     % .   .     ",
"O   . 6 # % O   X X     ; 5         O q # < 3 3 P q P +   l.=.w @ T V.@ O P L q 5 5 1 @ 8 X         2 ;     X X X   %     . . . ",
"  X O % X < 2 % % < < ; % % % O < + 4 L J J ~ Y L E R L P %.} P L E =.P q P R Z L J 7 5 5 4 > < O X % % % < j % % % 4 O % X X   ",
".   O ; ; 4 ! ~ S ( ( 1.| ] | ^ | | | | ..| H.`.T.$X#X#X#X X X&X&X X X X X|.|.Y.E.B.} ` ` ` | ] U ^ ] ] ( ^ ( l k k 4 % % % . . ",
". . O % O < 2 2 % ; % % % O % O X O O O X < J 7 E R R j.z.l.V.B.z.z.z.l.l.} X.R L R 5 . X O X X % % % = O O % X O X X = % O . . ",
"$ O O % % X O ; O 2 3 % < < < < ; < 5 5 I Y ^ { X...%.h.k.B.| g.l.=.h.M.k.g.d.| { R L 2 < 2 2 3 ; < < < % % %   X % . X % O - O ",
"4 2 x x x j < x ^ | ] ] | ^ U U U U ]  .d.h.E.,X<X2X2X6X6X7X*XW.|.=X5X6X6X6X5X4X;X-X=XC.w.4.| [ ( ( ( ( ^ x I 4 2 2 2 < j x x j ",
", 2 2 x j x 4 l ( ~ ^ ^ ] I l I U Y ^  .d.h.E.*X:X<X1X1X2X2X7X*X#X6X5X5X2X1X1X>X=X%X$Xb. .| ] ` ( ( ~ ^ ! l l x l 2 j < > 2 x 2 ",
"j 2 j z x x 2 x ( ^ ` ]  .U ; 2 5 4 5 J Y 5 C.:X:X<X<X4X3X5X3X:X-X5X2X6X2X4X4X<X-X%X+Xf.| | ` _ ^ ~ ! ! ! x C x l x x l 2 , x j ",
", , < j 4 4 4 < Z U U I I U I I I ~ | ..5.w.B.E.E.W.|.|.@X$X@XY.V.|.$X#X#X+X+X|.E.Y.T.| ` U L S l l l k 5 k k 5 , , < 2 2 > , < ",
"4 %       > , z A A A A A F S F G G G H / / / ' <.3.2.e.u.u.r.c.M.c.6.p.p.y.2.2.<.<.,./ G F F D S F S Z S x x x x % o     % x l ",
"! 4     , F S % , , > % = = % O % = , x Z C U / ' ] <.<.e.m.n.M.K.m.n.i.e.e.6.4.e.[ [ [ ' ~ k k j , 2 2 , , 2 , % , % X   ; ^ S ",
"0.U   4 D / .   o > . o % > 2 2 > , l k k l 4 Z l Z I Z Y Z.P.c.n.G.G.` Z L Y S J I Z I Z ^ x , > % O > % < 2 .   . k > X O U U ",
"l. .% H / .   2 > > y u i i g g g g p p g g p p p p p p g i i a g f a p h s c f g p p p p g g p i i i i v 1.4 4 %   % / , < | ] ",
"h.w.4 ' o . A , O y r r r r r & r r & r & r & & r & r r & r r r r & r r & r t r r r r & r r r r & r & r r g z o % 4   4 ] 2 ] ( ",
"g.w.C D . C O   & t & r & & r r * r r r r y r r r r r r r r r r r r r t r r r r r r r r r r r r r r r r t a p %   O k   <.~ ^ | ",
"h.w.A A , 4 o x V & r & s s & y r r r r r r r r r r r r r r r r r r r r r r r r r r r r r r r r r r r y r s s a f X 4 4 <.~ { ] ",
"} w.A F , A h d V & y & s s & t t r r r r r r r r r r r r r r r r r r r r r r r r r r r r r r r r r r r r r r r a , l F 1.! { ] ",
"` ` F D j F a & & t t y & & r & & r r r r r r r r r r r r r r r r r r r r r r r r r r r r r r r r r r y r r r r & p ( / / Z x I ",
"| ] S F > x r y y r r r & r r & & r r r r r r r r r r r r r r r r r r r r r r r r r r r r r r r r r r r r r r y r g 1.S 1.U 5 l ",
"X.] S S > = y r t r r r r r r r t r & r r r r r r r r r r r r r r r r r r r r r r r r r r r r r r r r r r y r r & v / k e.~ 5 Z ",
"..| F ! > = r r r r r r r r r t r y r & r r r r r r r r r r r r r r r r r r r r r r r r r r r r r r r r r r r r & v ` k e.! 4 Z ",
"| | S G = = r r r r r r r y & & * y r y r r r r r r r r r r r r r r r r r r r r r r r r r r r r r r r r r r r r & v / k e.! 5 C ",
"` ^ 4 k , = r r r r r r y r & - a u r y y r & r r r r r r r r r r y r r r r r r r r r r r r r r r r r r r r r r r v / j e.D 5 4 ",
"4 X , k , > y r y r r r t r & & $ $ t r y r t r r r r r r y r r r r r r r r r r r r r r r r r r r r r r r r r y & v / l ' C 4 4 ",
"Y.g.C ~ > = r r r r r r & y & *._.*.$ & y r r r r r r r r r r t r r r r r r r r r r r r r r r r r r r r r y r r r v / k [ D 7 Z ",
"n.g.S ~ > = y r r r r r y : 8./.).[.e $ y t r r r r r r r & >.B & r r r r r r r r r r r r r r r r r r r r & y r & v / k [ D E 0 ",
"U.w.U ! % = y r r r r r r @.9.!.(.}.].N r r r r r r r r r & d : t & r r r r r r r r r r r r r r r r r y r r r r & v _ k <.D Z 4 ",
"I.w.S ~ % = r r r r r u & 0.^.~.)..XOX3 r r y r r r r r r r t r * y r r r r r r r r r r r r r r y r & $ r u r r & v _ l ,.! S 4 ",
"U.w.S C > = u r r r r r & B ].{.XXoX&.& u r r r r r r r r r r y r r r r r r r r r r r r r r r r r & ( %.$ a u y r v G x ] G Z < ",
"a.w.S G % = r r r r r r y . 3 K `.-.$ u y & r r r r r r r r r r r r r r r r r r r r r r r r r r r r j c $ & r r r y x x <.S w 1 ",
" .=.S G > = y r r r r r u y & & % * y u r & y r r r r r r r r r y r r r r r r r r r r r r r r r r r r r y & r r & u S S 1.D 5 Z ",
"d. .A D % , y r r r r r r r r u r r r r r r r r r r r r r r r r r r r r r r r r r r r r r r r r r r r r r r r r r u A S <.D l I ",
"~ R S D % = u r r r r r r r r r r r r r r r r r r r r r y r r r r r r r r r r r r r r r r r r r r r r r r r r r r i A l 1.D l l ",
"` ` S D % = r r r r r r r r r r r r r r r r r r r r r r r r r r r r r r r r r r r r r r r r r r r r r r r r r r r a S S <.U M I ",
"U U S D = = r r y r r r r r r r r r r r r r r r r r r r r r r r r r r r r r r r r r r r r r r r r r r r r r r r r y A S <.S 7 I ",
"` U S G > > u r r r r r r r r r r r r r r r r r r r r r r r r r r r r r r r r r r r r r r r r r r r r r r r r r & b ' l 1.F l I ",
"Y ` S G % = y r r r r r r r r r r r r r r r r r r r r r r r r r r r r r r r r r r r r r r t r r r r r r r r r r & ;.1.j 1.G Z S ",
"_ | S D > , r r r r r & - s * r y y r r r r r r r r r r r r r r r r r r r r r r r r r r r r y y & r r y r r r r & ;.q.z 1.G Z Z ",
"U ` C U , h r r r r y &  .C.. r r u r r r r r r r r r r r r r r r r r r r r r r r r r r r & & & r t r r r r r y & ;.a.F <.! Z S ",
"~ ` A S 4 H y y r r r r & t t r r r r r r r r r y r r r r r r r r r r r r r r r r r r r r B t r r r r r r r r r p ;.[ C ' S C S ",
"U ` C S o G C y r r y r y r r r r r r r r r r r r r r r r r r r r r r r r r r r r r r r a V : r r r r r r y r p :.C F o ' S l S ",
"U I > ] , X Z 4 G g & r & y & r r r r r r r r r y r r & y y r r y & r r r r r r y r r r r & & * r r r r y & i :., 4 % , p.2 l A ",
"L < L 4.e.,   C D ,.i & r r r r r r r r r & r r & r r - d & r r r & & r & r & r r & r r & r r r r y u y * v y.F 4 . % v.i.4 z A ",
"_ 4   4.4.6.%   4 4 F g f f h f z h h m m m m m m z h *.0.c A z m n m z m m b A m m m m m h y * & & * * % H l >   o v.S.U X A l ",
"_ 4   O 5.t.4.  X o o < 4 4 C S S I I U U U U U U D G F ~ e.F.D.H.m.r.~ U U U ~ ~ U ! S U C > O % . X . O o . .   p.F.` %   z j ",
"L 2 X   .  .[ r.a.t.t.N.D.m.Z.m.F.J.G.G.J.G.G.J.G.G.H.D.J.c.] ' ! / i.J.D.D.H.D.D.D.H.H.F.D.D.F.v.S.S.N.v.4.e.v.a.5.~     > C S ",
"< < O X   < I ] | ` ^ |  . . . .t.f.f.t.w.r.i.5.c.c.f.i.f.5. .4.4.4.4.t.w.i.f.f.5.c.c.r.5.c.r.r.4.t.5.6.5.` ^ 6.[ U < X < 5 Z U ",
"4 4 % o X > 4 7 Z `  .w.w.t.w.w.w.w. .C > + O 4 ` ' _ _ ' ' ] ' ( ] / ` _ ' _ ' k % < 2 Z 4.4.w.w.w.4. . .| ^ Z 0 C > o < 4 Z Z ",
"l 2 O O > , q o./ ] w.K.L.L.L.L.M.n.4.D 4 > > A y.2.2.y.2.y.y.q.2.y.<.2.y.y.y.y.C % > j S 4.b.Z.R.R.R.R.K.4.[ ! -.0 % . > k A A ",
"S l > = 4 l / / ~ U U f.M.F.M.M.t.] ] D , % > , S C S A A A A A A A j A A F A F , % % j C / | t.G.J.Z.M.f.' U D D D 4 O 4 j S A ",
"4 l , % 2 x / ! l S k Z  .5.w.| k 2  .D h O o % k h j j 4 j j h z k , , k h k h = o o 4 x ! 4 ~  .5.w.` k Z U > G G j o , k F A ",
". 2 2 > 2 Z / ! j S 4 U e.c.c.r.^ l ] ~ l O 2 Z ^ ~ ~ ~ ~ ~ ~ S x G Z ~ ~ ^ ~ ( x , 2 C ! ~ I 4.c.c.v.5.2 Z / l D / k % k C F S ",
"> > 2 > % O 2 C 4 k 4 S ` 4.4.4.] ~ ( ! x o l U ~ ^ ^ ^ Y _ ~ , , ~ ~ ^ ( ^ ^ ^ ! l l I ! ` ^ | w.6.w.~ . I ~ S ~ / 2 % Z C ! F ",
". . .   3 O l ! > k < Z 4.i.c.6.S < ~ x j O % 1 #.8 0 0 0 5 8 8 < o.+.O.+.O.O.q O >   , C S 5 [ f.c.i.U X 5 4 X U ( , X . 2 F S ",
"X . .   O > / ! , 4 , > < , < < < . k ( C 2 j 1 Q K K P P K 0 0 , Q o.e #.Q e 7 > , O l / < o > 2 2 2 < O % % k / ^ 2 % O > k j ",
"+ O > O O X > 2 > X X X . .   X X . % < < % 2 % % % % % % % % % % = % = = % = % > > X > 2 > O % X % X > < . % 2 2 2 % % O o o % ",
"X . X X . . o X X % X % % % % % % % % % . X % % % % > % % % % X X % % % % ; % % X X X o X % > > > % % 2 4 % % o % o . X . X % > ",
"> % O O o . % , 2 % % 4 < 2 4 4 2 2 2 2 % . , k 2 4 j 4 4 j x . X k j 4 4 j j 4 % X X X 2 , 2 2 2 j 4 4 X < 2 2 2 , o o o o , 2 ",
"X O o o X % X % % % % % , , , < , < 2 2 < 2 , < > , > > < = % , < < = < < = < ; < 2 2 2 2 2 2 , 2 < , < , X % X % % % % % % O % "
};
