/* XPM */
static char *custom_grey_wall[] = {
"64 64 5 2",
"AA c #464646"
"AB c #505050"
"AC c #646464"
"AD c #808080"
"AE c #949494"
"AAAAABABABABABABABABABABABACACACAAABABABABABABABABABABABABACACACAAAAABABABABABABABABABABABACACACAAABABABABABABABABABABABABACACAC"
"AAADADADADADADADADADADADADAEAEAEAAADADADADADADADADADADADADAEAEAEAAADADADADADADADADADADADADAEAEAEAAADADADADADADADADADADADADAEAEAE"
"AAADADADADADADADADADADADADAEAEAEAAADADADADADADADADADADADADAEAEAEAAADADADADADADADADADADADADAEAEAEAAADADADADADADADADADADADADAEAEAE"
"AAADADADADADADADADADADADADAEAEAEAAADADADADADADADADADADADADAEAEAEAAADADADADADADADADADADADADAEAEAEAAADADADADADADADADADADADADAEAEAE"
"AAADADADADADADADADADADADADAEAEAEAAADADADADADADADADADADADADAEAEAEAAADADADADADADADADADADADADAEAEAEAAADADADADADADADADADADADADAEAEAE"
"AAADADADADADADADADADADADADAEAEAEAAADADADADADADADADADADADADAEAEAEAAADADADADADADADADADADADADAEAEAEAAADADADADADADADADADADADADAEAEAE"
"AAADADADADADADADADADADADADAEAEAEAAADADADADADADADADADADADADAEAEAEAAADADADADADADADADADADADADAEAEAEAAADADADADADADADADADADADADAEAEAE"
"AAADADADADADADADADADADADADAEAEAEAAADADADADADADADADADADADADAEAEAEAAADADADADADADADADADADADADAEAEAEAAADADADADADADADADADADADADAEAEAE"
"AAADADADADADADADADADADADADAEAEAEAAADADADADADADADADADADADADAEAEAEAAADADADADADADADADADADADADAEAEAEAAADADADADADADADADADADADADAEAEAE"
"AAADADADADADADADADADADADADAEAEAEAAADADADADADADADADADADADADAEAEAEAAADADADADADADADADADADADADAEAEAEAAADADADADADADADADADADADADAEAEAE"
"AAADADADADADADADADADADADADAEAEAEAAADADADADADADADADADADADADAEAEAEAAADADADADADADADADADADADADAEAEAEAAADADADADADADADADADADADADAEAEAE"
"AAADADADADADADADADADADADADAEAEAEAAADADADADADADADADADADADADAEAEAEAAADADADADADADADADADADADADAEAEAEAAADADADADADADADADADADADADAEAEAE"
"AAADADADADADADADADADADADADAEAEAEAAADADADADADADADADADADADADAEAEAEAAADADADADADADADADADADADADAEAEAEAAADADADADADADADADADADADADAEAEAE"
"AAADADADADADADADADADADADADAEAEAEAAADADADADADADADADADADADADAEAEAEAAADADADADADADADADADADADADAEAEAEAAADADADADADADADADADADADADAEAEAE"
"AAADADADADADADADADADADADADAEAEAEAAADADADADADADADADADADADADAEAEAEAAADADADADADADADADADADADADAEAEAEAAADADADADADADADADADADADADAEAEAE"
"AAADADADADADADADADADADADADAEAEAEAAADADADADADADADADADADADADAEAEAEAAADADADADADADADADADADADADAEAEAEAAADADADADADADADADADADADADAEAEAE"
"AAABABABABABABABABABABABABACACACAAABABABABABABABABABABABABACACACAAABABABABABABABABABABABABACACACAAABABABABABABABABABABABABACACAC"
"AAADADADADADADADADADADADADAEAEAEAAADADADADADADADADADADADADAEAEAEAAADADADADADADADADADADADADAEAEAEAAADADADADADADADADADADADADAEAEAE"
"AAADADADADADADADADADADADADAEAEAEAAADADADADADADADADADADADADAEAEAEAAADADADADADADADADADADADADAEAEAEAAADADADADADADADADADADADADAEAEAE"
"AAADADADADADADADADADADADADAEAEAEAAADADADADADADADADADADADADAEAEAEAAADADADADADADADADADADADADAEAEAEAAADADADADADADADADADADADADAEAEAE"
"AAADADADADADADADADADADADADAEAEAEAAADADADADADADADADADADADADAEAEAEAAADADADADADADADADADADADADAEAEAEAAADADADADADADADADADADADADAEAEAE"
"AAADADADADADADADADADADADADAEAEAEAAADADADADADADADADADADADADAEAEAEAAADADADADADADADADADADADADAEAEAEAAADADADADADADADADADADADADAEAEAE"
"AAADADADADADADADADADADADADAEAEAEAAADADADADADADADADADADADADAEAEAEAAADADADADADADADADADADADADAEAEAEAAADADADADADADADADADADADADAEAEAE"
"AAADADADADADADADADADADADADAEAEAEAAADADADADADADADADADADADADAEAEAEAAADADADADADADADADADADADADAEAEAEAAADADADADADADADADADADADADAEAEAE"
"AAADADADADADADADADADADADADAEAEAEAAADADADADADADADADADADADADAEAEAEAAADADADADADADADADADADADADAEAEAEAAADADADADADADADADADADADADAEAEAE"
"AAADADADADADADADADADADADADAEAEAEAAADADADADADADADADADADADADAEAEAEAAADADADADADADADADADADADADAEAEAEAAADADADADADADADADADADADADAEAEAE"
"AAADADADADADADADADADADADADAEAEAEAAADADADADADADADADADADADADAEAEAEAAADADADADADADADADADADADADAEAEAEAAADADADADADADADADADADADADAEAEAE"
"AAADADADADADADADADADADADADAEAEAEAAADADADADADADADADADADADADAEAEAEAAADADADADADADADADADADADADAEAEAEAAADADADADADADADADADADADADAEAEAE"
"AAADADADADADADADADADADADADAEAEAEAAADADADADADADADADADADADADAEAEAEAAADADADADADADADADADADADADAEAEAEAAADADADADADADADADADADADADAEAEAE"
"AAADADADADADADADADADADADADAEAEAEAAADADADADADADADADADADADADAEAEAEAAADADADADADADADADADADADADAEAEAEAAADADADADADADADADADADADADAEAEAE"
"AAADADADADADADADADADADADADAEAEAEAAADADADADADADADADADADADADAEAEAEAAADADADADADADADADADADADADAEAEAEAAADADADADADADADADADADADADAEAEAE"
"AAADADADADADADADADADADADADAEAEAEAAADADADADADADADADADADADADAEAEAEAAADADADADADADADADADADADADAEAEAEAAADADADADADADADADADADADADAEAEAE"
"AAAAABABABABABABABABABABABACACACAAABABABABABABABABABABABABACACACAAAAABABABABABABABABABABABACACACAAABABABABABABABABABABABABACACAC"
"AAADADADADADADADADADADADADAEAEAEAAADADADADADADADADADADADADAEAEAEAAADADADADADADADADADADADADAEAEAEAAADADADADADADADADADADADADAEAEAE"
"AAADADADADADADADADADADADADAEAEAEAAADADADADADADADADADADADADAEAEAEAAADADADADADADADADADADADADAEAEAEAAADADADADADADADADADADADADAEAEAE"
"AAADADADADADADADADADADADADAEAEAEAAADADADADADADADADADADADADAEAEAEAAADADADADADADADADADADADADAEAEAEAAADADADADADADADADADADADADAEAEAE"
"AAADADADADADADADADADADADADAEAEAEAAADADADADADADADADADADADADAEAEAEAAADADADADADADADADADADADADAEAEAEAAADADADADADADADADADADADADAEAEAE"
"AAADADADADADADADADADADADADAEAEAEAAADADADADADADADADADADADADAEAEAEAAADADADADADADADADADADADADAEAEAEAAADADADADADADADADADADADADAEAEAE"
"AAADADADADADADADADADADADADAEAEAEAAADADADADADADADADADADADADAEAEAEAAADADADADADADADADADADADADAEAEAEAAADADADADADADADADADADADADAEAEAE"
"AAADADADADADADADADADADADADAEAEAEAAADADADADADADADADADADADADAEAEAEAAADADADADADADADADADADADADAEAEAEAAADADADADADADADADADADADADAEAEAE"
"AAADADADADADADADADADADADADAEAEAEAAADADADADADADADADADADADADAEAEAEAAADADADADADADADADADADADADAEAEAEAAADADADADADADADADADADADADAEAEAE"
"AAADADADADADADADADADADADADAEAEAEAAADADADADADADADADADADADADAEAEAEAAADADADADADADADADADADADADAEAEAEAAADADADADADADADADADADADADAEAEAE"
"AAADADADADADADADADADADADADAEAEAEAAADADADADADADADADADADADADAEAEAEAAADADADADADADADADADADADADAEAEAEAAADADADADADADADADADADADADAEAEAE"
"AAADADADADADADADADADADADADAEAEAEAAADADADADADADADADADADADADAEAEAEAAADADADADADADADADADADADADAEAEAEAAADADADADADADADADADADADADAEAEAE"
"AAADADADADADADADADADADADADAEAEAEAAADADADADADADADADADADADADAEAEAEAAADADADADADADADADADADADADAEAEAEAAADADADADADADADADADADADADAEAEAE"
"AAADADADADADADADADADADADADAEAEAEAAADADADADADADADADADADADADAEAEAEAAADADADADADADADADADADADADAEAEAEAAADADADADADADADADADADADADAEAEAE"
"AAADADADADADADADADADADADADAEAEAEAAADADADADADADADADADADADADAEAEAEAAADADADADADADADADADADADADAEAEAEAAADADADADADADADADADADADADAEAEAE"
"AAADADADADADADADADADADADADAEAEAEAAADADADADADADADADADADADADAEAEAEAAADADADADADADADADADADADADAEAEAEAAADADADADADADADADADADADADAEAEAE"
"AAABABABABABABABABABABABABACACACAAABABABABABABABABABABABABACACACAAABABABABABABABABABABABABACACACAAABABABABABABABABABABABABACACAC"
"AAADADADADADADADADADADADADAEAEAEAAADADADADADADADADADADADADAEAEAEAAADADADADADADADADADADADADAEAEAEAAADADADADADADADADADADADADAEAEAE"
"AAADADADADADADADADADADADADAEAEAEAAADADADADADADADADADADADADAEAEAEAAADADADADADADADADADADADADAEAEAEAAADADADADADADADADADADADADAEAEAE"
"AAADADADADADADADADADADADADAEAEAEAAADADADADADADADADADADADADAEAEAEAAADADADADADADADADADADADADAEAEAEAAADADADADADADADADADADADADAEAEAE"
"AAADADADADADADADADADADADADAEAEAEAAADADADADADADADADADADADADAEAEAEAAADADADADADADADADADADADADAEAEAEAAADADADADADADADADADADADADAEAEAE"
"AAADADADADADADADADADADADADAEAEAEAAADADADADADADADADADADADADAEAEAEAAADADADADADADADADADADADADAEAEAEAAADADADADADADADADADADADADAEAEAE"
"AAADADADADADADADADADADADADAEAEAEAAADADADADADADADADADADADADAEAEAEAAADADADADADADADADADADADADAEAEAEAAADADADADADADADADADADADADAEAEAE"
"AAADADADADADADADADADADADADAEAEAEAAADADADADADADADADADADADADAEAEAEAAADADADADADADADADADADADADAEAEAEAAADADADADADADADADADADADADAEAEAE"
"AAADADADADADADADADADADADADAEAEAEAAADADADADADADADADADADADADAEAEAEAAADADADADADADADADADADADADAEAEAEAAADADADADADADADADADADADADAEAEAE"
"AAADADADADADADADADADADADADAEAEAEAAADADADADADADADADADADADADAEAEAEAAADADADADADADADADADADADADAEAEAEAAADADADADADADADADADADADADAEAEAE"
"AAADADADADADADADADADADADADAEAEAEAAADADADADADADADADADADADADAEAEAEAAADADADADADADADADADADADADAEAEAEAAADADADADADADADADADADADADAEAEAE"
"AAADADADADADADADADADADADADAEAEAEAAADADADADADADADADADADADADAEAEAEAAADADADADADADADADADADADADAEAEAEAAADADADADADADADADADADADADAEAEAE"
"AAADADADADADADADADADADADADAEAEAEAAADADADADADADADADADADADADAEAEAEAAADADADADADADADADADADADADAEAEAEAAADADADADADADADADADADADADAEAEAE"
"AAADADADADADADADADADADADADAEAEAEAAADADADADADADADADADADADADAEAEAEAAADADADADADADADADADADADADAEAEAEAAADADADADADADADADADADADADAEAEAE"
"AAADADADADADADADADADADADADAEAEAEAAADADADADADADADADADADADADAEAEAEAAADADADADADADADADADADADADAEAEAEAAADADADADADADADADADADADADAEAEAE"
"AAADADADADADADADADADADADADAEAEAEAAADADADADADADADADADADADADAEAEAEAAADADADADADADADADADADADADAEAEAEAAADADADADADADADADADADADADAEAEAE"
};