/* XPM */
static char * jagpistolred_xpm[] = {
"128 128 1190 2",
"  	c None",
". 	c #7F7F7F",
"+ 	c #373737",
"@ 	c #000000",
"# 	c #1F1F1F",
"$ 	c #4B3B1B",
"% 	c #737373",
"& 	c #4B4B4B",
"* 	c #2B230F",
"= 	c #232323",
"- 	c #2F2F2F",
"; 	c #434343",
"> 	c #676767",
", 	c #8F8F8F",
"' 	c #3B3B3B",
") 	c #0B0000",
"! 	c #575757",
"~ 	c #5B5B5B",
"{ 	c #0F0000",
"] 	c #B7B7B7",
"^ 	c #7B7B7B",
"/ 	c #9B9B9B",
"( 	c #573F1F",
"_ 	c #5F4323",
": 	c #302F2F",
"< 	c #5C5B5B",
"[ 	c #444343",
"} 	c #44331B",
"| 	c #252323",
"1 	c #201F1F",
"2 	c #312F2F",
"3 	c #393737",
"4 	c #332F2F",
"5 	c #757373",
"6 	c #D3D2D2",
"7 	c #ACAAAA",
"8 	c #9C9A9A",
"9 	c #B8B6B6",
"0 	c #6A6767",
"a 	c #4F4B4B",
"b 	c #3F3B3B",
"c 	c #2A2323",
"d 	c #292323",
"e 	c #2E230F",
"f 	c #2D230F",
"g 	c #747373",
"h 	c #DFDFDF",
"i 	c #3E3737",
"j 	c #392F2F",
"k 	c #615A5A",
"l 	c #827E7E",
"m 	c #9E9A9A",
"n 	c #928E8E",
"o 	c #787272",
"p 	c #544A4A",
"q 	c #433737",
"r 	c #332323",
"s 	c #301F1F",
"t 	c #2E1F1F",
"u 	c #2C1F1F",
"v 	c #291F1F",
"w 	c #30230F",
"x 	c #383737",
"y 	c #45331B",
"z 	c #4E4B4B",
"A 	c #5B5757",
"B 	c #5C5757",
"C 	c #777272",
"D 	c #4E331B",
"E 	c #4A3B3B",
"F 	c #857E7E",
"G 	c #BAB5B5",
"H 	c #D5D0D0",
"I 	c #A09999",
"J 	c #867D7D",
"K 	c #645656",
"L 	c #4E3A3A",
"M 	c #442F2F",
"N 	c #3B2323",
"O 	c #3A2323",
"P 	c #361F1F",
"Q 	c #240101",
"R 	c #382F2F",
"S 	c #474343",
"T 	c #686767",
"U 	c #593F1F",
"V 	c #190101",
"W 	c #2F1F1F",
"X 	c #321F1F",
"Y 	c #412F2F",
"Z 	c #3A1F1F",
"` 	c #3D1F1F",
" .	c #5D4A4A",
"..	c #968C8C",
"+.	c #E1DADA",
"@.	c #A29797",
"#.	c #5C4242",
"$.	c #410303",
"%.	c #3F0303",
"&.	c #3B0303",
"*.	c #350202",
"=.	c #310202",
"-.	c #2D0202",
";.	c #341F1F",
">.	c #453B3B",
",.	c #514B4B",
"'.	c #2B2323",
").	c #371F1F",
"!.	c #534242",
"~.	c #A19898",
"{.	c #594242",
"].	c #4A2323",
"^.	c #634949",
"/.	c #9A8B8B",
"(.	c #D6CCCC",
"_.	c #644141",
":.	c #BEB1B1",
"<.	c #745858",
"[.	c #715454",
"}.	c #603A3A",
"|.	c #5C3636",
"1.	c #562E2E",
"2.	c #512311",
"3.	c #4F2311",
"4.	c #420303",
"5.	c #473B3B",
"6.	c #2D2323",
"7.	c #261F1F",
"8.	c #221F1F",
"9.	c #3E2323",
"0.	c #442323",
"a.	c #4F2E2E",
"b.	c #776464",
"c.	c #522323",
"d.	c #5E3636",
"e.	c #674141",
"f.	c #A79595",
"g.	c #C0AFAF",
"h.	c #5B0606",
"i.	c #8B6E6E",
"j.	c #6B3939",
"k.	c #693535",
"l.	c #662E2E",
"m.	c #622312",
"n.	c #5F2312",
"o.	c #581F1F",
"p.	c #551F1F",
"q.	c #542323",
"r.	c #460404",
"s.	c #3E0303",
"t.	c #452310",
"u.	c #392323",
"v.	c #311F1F",
"w.	c #1C0101",
"x.	c #563636",
"y.	c #511F1F",
"z.	c #664141",
"A.	c #633636",
"B.	c #612323",
"C.	c #6B3535",
"D.	c #977878",
"E.	c #C2ACAC",
"F.	c #680808",
"G.	c #845656",
"H.	c #702313",
"I.	c #6A0808",
"J.	c #6B2020",
"K.	c #630707",
"L.	c #600707",
"M.	c #5D0606",
"N.	c #5C2020",
"O.	c #530505",
"P.	c #4D0404",
"Q.	c #480404",
"R.	c #4D2311",
"S.	c #472310",
"T.	c #2D1F1F",
"U.	c #32230F",
"V.	c #561F1F",
"W.	c #570606",
"X.	c #764848",
"Y.	c #6D2323",
"Z.	c #7E4747",
"`.	c #885555",
" +	c #976A6A",
".+	c #792020",
"++	c #7F3434",
"@+	c #760A0A",
"#+	c #730A0A",
"$+	c #700909",
"%+	c #6D0909",
"&+	c #640707",
"*+	c #590606",
"=+	c #450303",
"-+	c #4C2F2F",
";+	c #330202",
">+	c #280101",
",+	c #72391C",
"'+	c #662020",
")+	c #6C2020",
"!+	c #7D3F3F",
"~+	c #792D2D",
"{+	c #8D5050",
"]+	c #975E5E",
"^+	c #995D5D",
"/+	c #852D2D",
"(+	c #820D0D",
"_+	c #830D0D",
":+	c #800C0C",
"<+	c #7F0C0C",
"[+	c #7D0C0C",
"}+	c #7A0B0B",
"|+	c #740A0A",
"1+	c #602312",
"2+	c #4E0404",
"3+	c #5A3A3A",
"4+	c #3D0303",
"5+	c #6A2323",
"6+	c #753535",
"7+	c #782323",
"8+	c #813434",
"9+	c #822323",
"0+	c #B98A8A",
"a+	c #A56666",
"b+	c #9C4D4D",
"c+	c #912C2C",
"d+	c #8F0F0F",
"e+	c #8D0F0F",
"f+	c #8C0F0F",
"g+	c #8A0E0E",
"h+	c #860E0E",
"i+	c #810C0C",
"j+	c #760B0B",
"k+	c #6E0909",
"l+	c #690808",
"m+	c #662323",
"n+	c #603636",
"o+	c #470404",
"p+	c #7D311D",
"q+	c #7A2020",
"r+	c #812020",
"s+	c #882323",
"t+	c #8D2020",
"u+	c #D6AAAA",
"v+	c #C08585",
"w+	c #B06262",
"x+	c #A74E4E",
"y+	c #A33B3B",
"z+	c #A13232",
"A+	c #9E2C2C",
"B+	c #9C2317",
"C+	c #961010",
"D+	c #910F0F",
"E+	c #870E0E",
"F+	c #782314",
"G+	c #722E2E",
"H+	c #622E2E",
"I+	c #500505",
"J+	c #A34D31",
"K+	c #7E2323",
"L+	c #955252",
"M+	c #8D2D2D",
"N+	c #953636",
"O+	c #972121",
"P+	c #E3B2B2",
"Q+	c #B96A6A",
"R+	c #B04949",
"S+	c #AB3434",
"T+	c #AB2B2B",
"U+	c #AB2323",
"V+	c #A92319",
"W+	c #A51313",
"X+	c #A01212",
"Y+	c #9D1212",
"Z+	c #971111",
"`+	c #850D0D",
" @	c #832315",
".@	c #7E3434",
"+@	c #6B0909",
"@@	c #692313",
"#@	c #E18855",
"$@	c #FFB081",
"%@	c #FFB182",
"&@	c #FFB282",
"*@	c #FFA673",
"=@	c #DF8B57",
"-@	c #A75A35",
";@	c #B6603B",
">@	c #812D2D",
",@	c #8F301D",
"'@	c #962121",
")@	c #A54141",
"!@	c #A21512",
"~@	c #D18A8A",
"{@	c #BA5353",
"]@	c #B43838",
"^@	c #B53030",
"/@	c #B62323",
"(@	c #B72323",
"_@	c #B61616",
":@	c #B31616",
"<@	c #B01515",
"[@	c #AC1515",
"}@	c #A91414",
"|@	c #A41313",
"1@	c #981111",
"2@	c #922316",
"3@	c #8C2316",
"4@	c #842D2D",
"5@	c #750A0A",
"6@	c #722313",
"7@	c #610707",
"8@	c #F4925C",
"9@	c #FFAF80",
"0@	c #FFA773",
"a@	c #A35B35",
"b@	c #B2613C",
"c@	c #CB7347",
"d@	c #CE7045",
"e@	c #872323",
"f@	c #974343",
"g@	c #B26E6E",
"h@	c #A74141",
"i@	c #A93131",
"j@	c #AC2121",
"k@	c #B83D3D",
"l@	c #C04444",
"m@	c #C13B3B",
"n@	c #C23131",
"o@	c #C32929",
"p@	c #C32424",
"q@	c #C01818",
"r@	c #BD1818",
"s@	c #B91717",
"t@	c #B41616",
"u@	c #AD1515",
"v@	c #A92323",
"w@	c #A42318",
"x@	c #9B2317",
"y@	c #932C2C",
"z@	c #8A2323",
"A@	c #7E0C0C",
"B@	c #5E0606",
"C@	c #AE633D",
"D@	c #AB643E",
"E@	c #CE7C4E",
"F@	c #FFB181",
"G@	c #FFBE9E",
"H@	c #FFB283",
"I@	c #F3975F",
"J@	c #CB7F4F",
"K@	c #9E5C36",
"L@	c #C16D44",
"M@	c #CA7347",
"N@	c #D67549",
"O@	c #CF6F45",
"P@	c #922C1B",
"Q@	c #A02323",
"R@	c #AB3131",
"S@	c #B12B2B",
"T@	c #B81817",
"U@	c #C12A1E",
"V@	c #CB4343",
"W@	c #D04A4A",
"X@	c #CE3838",
"Y@	c #CF2F2F",
"Z@	c #CF2E2E",
"`@	c #CD2F2F",
" #	c #CB2F2F",
".#	c #C72929",
"+#	c #C12323",
"@#	c #BB2323",
"##	c #B3231A",
"$#	c #AD2319",
"%#	c #A52B2B",
"&#	c #902020",
"*#	c #840D0D",
"=#	c #7C0B0B",
"-#	c #6F0909",
";#	c #7D4123",
">#	c #955032",
",#	c #EC8B59",
"'#	c #FFBD9D",
")#	c #9C5D36",
"!#	c #AD643D",
"~#	c #C06E44",
"{#	c #D3774B",
"]#	c #DB794D",
"^#	c #E67E50",
"/#	c #CC6640",
"(#	c #B74F2F",
"_#	c #A82121",
":#	c #B32B2B",
"<#	c #B92323",
"[#	c #C22A2A",
"}#	c #C71B19",
"|#	c #CD2424",
"1#	c #D52E21",
"2#	c #D73535",
"3#	c #DE4A4A",
"4#	c #DB3A3A",
"5#	c #DA3434",
"6#	c #D83535",
"7#	c #D52E2E",
"8#	c #D02E2E",
"9#	c #CB2D2D",
"0#	c #C6291F",
"a#	c #BE2A1E",
"b#	c #B6231A",
"c#	c #AB1414",
"d#	c #A32121",
"e#	c #8B0E0E",
"f#	c #810D0D",
"g#	c #780B0B",
"h#	c #702020",
"i#	c #74391C",
"j#	c #854827",
"k#	c #9A5D36",
"l#	c #B56741",
"m#	c #D67449",
"n#	c #E77C4F",
"o#	c #E87A4D",
"p#	c #EA764B",
"q#	c #BF462E",
"r#	c #AF2121",
"s#	c #B71717",
"t#	c #CC3333",
"u#	c #D22C2C",
"v#	c #D72828",
"w#	c #DB2323",
"x#	c #DD1E1E",
"y#	c #DF1E1E",
"z#	c #DE1E1E",
"A#	c #DB1D1D",
"B#	c #D71D1D",
"C#	c #D31C1C",
"D#	c #CC1A1A",
"E#	c #C31919",
"F#	c #BA1717",
"G#	c #B11515",
"H#	c #A71414",
"I#	c #9E1212",
"J#	c #921010",
"K#	c #880E0E",
"L#	c #7F2020",
"M#	c #6D2313",
"N#	c #874827",
"O#	c #A9603A",
"P#	c #EC8C59",
"Q#	c #FFC4A5",
"R#	c #FFC5A6",
"S#	c #985E37",
"T#	c #A9653E",
"U#	c #AF633D",
"V#	c #B96540",
"W#	c #E58151",
"X#	c #FF9769",
"Y#	c #FF9E74",
"Z#	c #FF9A71",
"`#	c #FF956D",
" $	c #ED7048",
".$	c #CB422D",
"+$	c #C12222",
"@$	c #CA2222",
"#$	c #D12424",
"$$	c #DC3C3C",
"%$	c #DF3232",
"&$	c #E53D3D",
"*$	c #E42323",
"=$	c #E72323",
"-$	c #E72424",
";$	c #E71F1F",
">$	c #E62323",
",$	c #E22323",
"'$	c #DA1D1D",
")$	c #AE1515",
"!$	c #B74026",
"~$	c #AE4226",
"{$	c #872315",
"]$	c #7B2314",
"^$	c #E38453",
"/$	c #FFA16F",
"($	c #FFC2A3",
"_$	c #FFD7C4",
":$	c #FFD9C5",
"<$	c #FFC6A6",
"[$	c #FFB383",
"}$	c #995D36",
"|$	c #A6613A",
"1$	c #B0623D",
"2$	c #E48252",
"3$	c #FFA478",
"4$	c #FF9567",
"5$	c #FF8B57",
"6$	c #FF8755",
"7$	c #FF916B",
"8$	c #FF8C67",
"9$	c #F97048",
"0$	c #DC4830",
"a$	c #D12222",
"b$	c #D82424",
"c$	c #DF2727",
"d$	c #E63C3C",
"e$	c #EF5050",
"f$	c #EA2424",
"g$	c #EE2D2D",
"h$	c #F34848",
"i$	c #ED2323",
"j$	c #EC2929",
"k$	c #EA2828",
"l$	c #E41F1F",
"m$	c #E01E1E",
"n$	c #CA1A1A",
"o$	c #CC3A25",
"p$	c #D24E32",
"q$	c #E26641",
"r$	c #D3613D",
"s$	c #B7502F",
"t$	c #FF9B6B",
"u$	c #FFA97C",
"v$	c #FFC7AC",
"w$	c #FFBA9B",
"x$	c #FFA471",
"y$	c #FF9D62",
"z$	c #FFA672",
"A$	c #FFBE9F",
"B$	c #975E37",
"C$	c #A7603A",
"D$	c #AA5F39",
"E$	c #FFA77A",
"F$	c #FF9869",
"G$	c #F68655",
"H$	c #F17B4F",
"I$	c #F2784D",
"J$	c #FF8051",
"K$	c #FF7F59",
"L$	c #FF805F",
"M$	c #FF6C46",
"N$	c #E23F2B",
"O$	c #E02D23",
"P$	c #E82421",
"Q$	c #EF3636",
"R$	c #EF2121",
"S$	c #F32727",
"T$	c #F42A2A",
"U$	c #F32222",
"V$	c #F22B2B",
"W$	c #EE2424",
"X$	c #E92020",
"Y$	c #DF3425",
"Z$	c #E1442E",
"`$	c #EA5A3B",
" %	c #DF5739",
".%	c #D95C3B",
"+%	c #CB5637",
"@%	c #B6482C",
"#%	c #D26C43",
"$%	c #FFA276",
"%%	c #FFA579",
"&%	c #FFA97B",
"*%	c #FFA06E",
"=%	c #F4945D",
"-%	c #EC8D5A",
";%	c #E08A56",
">%	c #EB8E5B",
",%	c #FF9F63",
"'%	c #A5613A",
")%	c #E28554",
"!%	c #FF9E6D",
"~%	c #F58C58",
"{%	c #EF8253",
"]%	c #DF744A",
"^%	c #E27048",
"/%	c #E46C46",
"(%	c #F4724A",
"_%	c #F97249",
":%	c #FF7652",
"<%	c #FF6D4D",
"[%	c #FF603F",
"}%	c #EA3A2A",
"|%	c #E92B23",
"1%	c #EE2923",
"2%	c #F12623",
"3%	c #F52423",
"4%	c #F62523",
"5%	c #F72523",
"6%	c #F72424",
"7%	c #F52222",
"8%	c #F22222",
"9%	c #EE2121",
"0%	c #EB2A23",
"a%	c #E93427",
"b%	c #EE4631",
"c%	c #EA4B33",
"d%	c #E14B33",
"e%	c #D84B31",
"f%	c #C7432A",
"g%	c #C0452B",
"h%	c #DE6B44",
"i%	c #FF9C72",
"j%	c #FFA176",
"k%	c #FF996A",
"l%	c #F58E59",
"m%	c #F4905B",
"n%	c #E28654",
"o%	c #CD7D4E",
"p%	c #C07A4A",
"q%	c #C07B4B",
"r%	c #A1623B",
"s%	c #C1794A",
"t%	c #E28754",
"u%	c #D87D50",
"v%	c #F58E5A",
"w%	c #EF8454",
"x%	c #DD774C",
"y%	c #DA7047",
"z%	c #DD6D45",
"A%	c #E06943",
"B%	c #EE6D46",
"C%	c #F06743",
"D%	c #FA6944",
"E%	c #FF6B4C",
"F%	c #FF694F",
"G%	c #FF5A41",
"H%	c #F94732",
"I%	c #F43127",
"J%	c #F52724",
"K%	c #F82624",
"L%	c #FA2423",
"M%	c #FB2423",
"N%	c #F92423",
"O%	c #F72924",
"P%	c #F42D25",
"Q%	c #F53B2C",
"R%	c #F23F2E",
"S%	c #ED402E",
"T%	c #E5412D",
"U%	c #D93C29",
"V%	c #D13F29",
"W%	c #D45134",
"X%	c #EC7148",
"Y%	c #FFA186",
"Z%	c #FFA68B",
"`%	c #FF9668",
" &	c #F58A57",
".&	c #F58D59",
"+&	c #ED8857",
"@&	c #D77E50",
"#&	c #D68051",
"$&	c #B97246",
"%&	c #B87247",
"&&	c #BF7B4B",
"*&	c #C07A4B",
"=&	c #D58051",
"-&	c #C36C43",
";&	c #CA6841",
">&	c #C15B39",
",&	c #D66941",
"'&	c #E16842",
")&	c #EE6C45",
"!&	c #F06642",
"~&	c #F76241",
"{&	c #FF6441",
"]&	c #FF6145",
"^&	c #FF5E47",
"/&	c #FF594B",
"(&	c #FF4E43",
"_&	c #FF3E31",
":&	c #FE3229",
"<&	c #FD2825",
"[&	c #FE2524",
"}&	c #FD2624",
"|&	c #FC2725",
"1&	c #FB2F28",
"2&	c #F83128",
"3&	c #F5352A",
"4&	c #EF3628",
"5&	c #E23828",
"6&	c #ED5539",
"7&	c #FA6B46",
"8&	c #E96441",
"9&	c #FF987F",
"0&	c #FF956E",
"a&	c #FF9064",
"b&	c #F68755",
"c&	c #EE8555",
"d&	c #D97C4F",
"e&	c #D58152",
"f&	c #CC7E4E",
"g&	c #B77347",
"h&	c #AB6B43",
"i&	c #F3955E",
"j&	c #BE6F45",
"k&	c #A25B35",
"l&	c #A15631",
"m&	c #BC5D3A",
"n&	c #B85433",
"o&	c #CB5B3B",
"p&	c #DA653F",
"q&	c #DF603D",
"r&	c #F66945",
"s&	c #FF674D",
"t&	c #FD4833",
"u&	c #FA3A2C",
"v&	c #FE362B",
"w&	c #FF3028",
"x&	c #FF2B27",
"y&	c #FF2524",
"z&	c #FC2625",
"A&	c #FA2925",
"B&	c #F62B26",
"C&	c #F22E26",
"D&	c #EE3127",
"E&	c #F34933",
"F&	c #FB5D3E",
"G&	c #F0583B",
"H&	c #F16341",
"I&	c #FF8764",
"J&	c #FF8F69",
"K&	c #FF8B61",
"L&	c #F78353",
"M&	c #E77C4E",
"N&	c #DC784D",
"O&	c #DA7A4E",
"P&	c #C87548",
"Q&	c #D07A4C",
"R&	c #CF7C4D",
"S&	c #9F633B",
"T&	c #A0633B",
"U&	c #BA7146",
"V&	c #BB7146",
"W&	c #AC643D",
"X&	c #9C5732",
"Y&	c #8E4727",
"Z&	c #A75431",
"`&	c #933A20",
" *	c #B04A2C",
".*	c #B7482C",
"+*	c #D05839",
"@*	c #DB5A3A",
"#*	c #E35B3A",
"$*	c #FC5037",
"%*	c #F63D2D",
"&*	c #F9372B",
"**	c #FB3329",
"=*	c #FD2F28",
"-*	c #FE2B26",
";*	c #FF2926",
">*	c #FF2C27",
",*	c #FF2F28",
"'*	c #FC3229",
")*	c #FA352A",
"!*	c #F53429",
"~*	c #F1392B",
"{*	c #FF7658",
"]*	c #FF7653",
"^*	c #FF7E58",
"/*	c #F8794D",
"(*	c #E17249",
"_*	c #DE754B",
":*	c #C47849",
"<*	c #8B5B33",
"[*	c #AE6A42",
"}*	c #B06942",
"|*	c #985832",
"1*	c #7A381C",
"2*	c #792314",
"3*	c #913B20",
"4*	c #A84729",
"5*	c #B5482C",
"6*	c #BD462B",
"7*	c #CB4C30",
"8*	c #DF5638",
"9*	c #F2613F",
"0*	c #FF6643",
"a*	c #FF5E3E",
"b*	c #F24530",
"c*	c #F43D2D",
"d*	c #F7382B",
"e*	c #FA3429",
"f*	c #FC3028",
"g*	c #FD2E28",
"h*	c #FE2D27",
"i*	c #FF352A",
"j*	c #FF3E30",
"k*	c #FF4431",
"l*	c #FD4934",
"m*	c #F94A34",
"n*	c #F75137",
"o*	c #F5573A",
"p*	c #F35E3E",
"q*	c #F16542",
"r*	c #E96542",
"s*	c #E66A45",
"t*	c #DB6F46",
"u*	c #D87248",
"v*	c #CD7146",
"w*	c #C46C43",
"x*	c #AD6A42",
"y*	c #AC6B43",
"z*	c #945F37",
"A*	c #83532F",
"B*	c #8C5B33",
"C*	c #A5663F",
"D*	c #905A33",
"E*	c #8C522F",
"F*	c #864D2B",
"G*	c #6F391C",
"H*	c #6B2313",
"I*	c #7B2D1A",
"J*	c #822315",
"K*	c #C35535",
"L*	c #C4442B",
"M*	c #D54C31",
"N*	c #ED5D3E",
"O*	c #FB6341",
"P*	c #F9573B",
"Q*	c #F14731",
"R*	c #F33E2D",
"S*	c #F53A2C",
"T*	c #F8362A",
"U*	c #FD352A",
"V*	c #FE3A2D",
"W*	c #FE3F2F",
"X*	c #FF4833",
"Y*	c #FF523C",
"Z*	c #FF5B42",
"`*	c #FF5D3E",
" =	c #FB6040",
".=	c #F2603F",
"+=	c #EB6140",
"@=	c #E46340",
"#=	c #DB643F",
"$=	c #D76841",
"%=	c #CE6540",
"&=	c #C66A42",
"*=	c #C57749",
"==	c #BC7046",
"-=	c #AF6942",
";=	c #AD6A43",
">=	c #935F37",
",=	c #A2623B",
"'=	c #9D5D36",
")=	c #93502E",
"!=	c #814023",
"~=	c #7F381D",
"{=	c #86301D",
"]=	c #8F2D1B",
"^=	c #972317",
"/=	c #C65434",
"(=	c #C1452B",
"_=	c #CF4A2F",
":=	c #EC5F3F",
"<=	c #F76141",
"[=	c #F5583B",
"}=	c #F44F36",
"|=	c #F24631",
"1=	c #F7372B",
"2=	c #F83429",
"3=	c #F9362A",
"4=	c #FA372B",
"5=	c #FA3B2D",
"6=	c #FB4130",
"7=	c #FD4B35",
"8=	c #FC5138",
"9=	c #FF6045",
"0=	c #FF6649",
"a=	c #FF6E4E",
"b=	c #FF6F48",
"c=	c #F97149",
"d=	c #ED6E47",
"e=	c #E46D46",
"f=	c #CD6540",
"g=	c #C96841",
"h=	c #C66A43",
"i=	c #C26C44",
"j=	c #BD7045",
"k=	c #A7663E",
"l=	c #6F4B27",
"m=	c #A4673F",
"n=	c #C37849",
"o=	c #B46741",
"p=	c #8F4C2A",
"q=	c #874023",
"r=	c #87381D",
"s=	c #8E301D",
"t=	c #952C1B",
"u=	c #9D2318",
"v=	c #C64F31",
"w=	c #CC4C30",
"x=	c #E25C3B",
"y=	c #F26240",
"z=	c #F85E3F",
"A=	c #F9593C",
"B=	c #F24630",
"C=	c #F43C2D",
"D=	c #F6392B",
"E=	c #F53E2D",
"F=	c #F64230",
"G=	c #F64833",
"H=	c #F74F36",
"I=	c #F65439",
"J=	c #F5593C",
"K=	c #EE6B45",
"L=	c #ED7047",
"M=	c #EB744A",
"N=	c #D97147",
"O=	c #CB7246",
"P=	c #C87448",
"Q=	c #C67648",
"R=	c #B26841",
"S=	c #A3623A",
"T=	c #965E37",
"U=	c #A3673F",
"V=	c #B87347",
"W=	c #AC5F39",
"X=	c #944B2A",
"Y=	c #8B3F23",
"Z=	c #903B20",
"`=	c #9A3920",
" -	c #9C2F1E",
".-	c #BD472E",
"+-	c #C84E30",
"@-	c #DD593A",
"#-	c #F66845",
"$-	c #FF6E47",
"%-	c #F75338",
"&-	c #F1402E",
"*-	c #F33F2E",
"=-	c #F2402E",
"--	c #F0422F",
";-	c #EE4530",
">-	c #EC4831",
",-	c #EF5237",
"'-	c #EC573A",
")-	c #E95B3C",
"!-	c #E7603E",
"~-	c #E36541",
"{-	c #E06843",
"]-	c #DD6C45",
"^-	c #E0734A",
"/-	c #DE764B",
"(-	c #D4774A",
"_-	c #AA643E",
":-	c #A4613A",
"<-	c #8D5B33",
"[-	c #84532F",
"}-	c #774F2B",
"|-	c #AE5E39",
"1-	c #974A2A",
"2-	c #984626",
"3-	c #993D23",
"4-	c #A03C23",
"5-	c #A22F1E",
"6-	c #CA5234",
"7-	c #D45638",
"8-	c #F56D47",
"9-	c #FF7955",
"0-	c #F95A3D",
"a-	c #EF4A32",
"b-	c #EF4430",
"c-	c #EC412F",
"d-	c #EB422F",
"e-	c #E94430",
"f-	c #E94C33",
"g-	c #E64F35",
"h-	c #E25337",
"i-	c #DE5739",
"j-	c #DA5B3B",
"k-	c #D75E3C",
"l-	c #D86741",
"m-	c #D46B42",
"n-	c #D77449",
"o-	c #EE8756",
"p-	c #D07B4D",
"q-	c #985E36",
"r-	c #8E5A33",
"s-	c #85532F",
"t-	c #FFA370",
"u-	c #CC7047",
"v-	c #B55C38",
"w-	c #A74C2D",
"x-	c #A24426",
"y-	c #A43C23",
"z-	c #BB472E",
"A-	c #CD5536",
"B-	c #E86743",
"C-	c #FF794D",
"D-	c #FA6643",
"E-	c #F45B3C",
"F-	c #ED4E34",
"G-	c #EB4932",
"H-	c #E84530",
"I-	c #E3432E",
"J-	c #E1452E",
"K-	c #DF4931",
"L-	c #DB4B32",
"M-	c #DA5136",
"N-	c #DC5A3A",
"O-	c #D85D3C",
"P-	c #D4603D",
"Q-	c #D1633E",
"R-	c #F48F5B",
"S-	c #FFA06F",
"T-	c #F4935C",
"U-	c #86522F",
"V-	c #F3965F",
"W-	c #FF9E62",
"X-	c #FFA571",
"Y-	c #FFA371",
"Z-	c #FFA270",
"`-	c #F4915B",
" ;	c #CD6F47",
".;	c #B65B38",
"+;	c #A2482A",
"@;	c #9E3D23",
"#;	c #9F351E",
"$;	c #F8784D",
"%;	c #FF8864",
"&;	c #FF7B56",
"*;	c #FF7149",
"=;	c #F26140",
"-;	c #EE5B3D",
";;	c #EA5137",
">;	c #E34A33",
",;	c #E0452E",
"';	c #DC432D",
");	c #DA442D",
"!;	c #D8452D",
"~;	c #DA4D33",
"{;	c #D74F34",
"];	c #D55538",
"^;	c #D25739",
"/;	c #CB6741",
"(;	c #C86942",
"_;	c #C56B43",
":;	c #C97447",
"<;	c #D1794C",
"[;	c #ED8A58",
"};	c #EB8F5B",
"|;	c #FFA572",
"1;	c #FF9960",
"2;	c #ED8957",
"3;	c #CE6F47",
"4;	c #AF5734",
"5;	c #A04426",
"6;	c #97361E",
"7;	c #B6492F",
"8;	c #F87C4F",
"9;	c #F56B46",
"0;	c #E45A3A",
"a;	c #DB4C32",
"b;	c #DA4930",
"c;	c #D2452C",
"d;	c #D0462C",
"e;	c #D1492F",
"f;	c #D35135",
"g;	c #D05336",
"h;	c #D15839",
"i;	c #CE5A3A",
"j;	c #D36C43",
"k;	c #D16D44",
"l;	c #CF7B4D",
"m;	c #C5764A",
"n;	c #B97247",
"o;	c #FF9B60",
"p;	c #CD7047",
"q;	c #BC633F",
"r;	c #963A20",
"s;	c #D0633F",
"t;	c #F2794E",
"u;	c #FF946D",
"v;	c #FF855D",
"w;	c #F4714A",
"x;	c #DC593A",
"y;	c #D34D32",
"z;	c #CC482D",
"A;	c #C8432A",
"B;	c #C7432D",
"C;	c #C64A2D",
"D;	c #C74E30",
"E;	c #CD5A3B",
"F;	c #CA5C3B",
"G;	c #D77348",
"H;	c #CF6E46",
"I;	c #D2784B",
"J;	c #E18755",
"K;	c #E08956",
"L;	c #EBA176",
"M;	c #D48253",
"N;	c #FF9B61",
"O;	c #EC8B58",
"P;	c #CB7148",
"Q;	c #9A4526",
"R;	c #8F371D",
"S;	c #BF5C3A",
"T;	c #FF976F",
"U;	c #E56B46",
"V;	c #CC5133",
"W;	c #C44B2E",
"X;	c #BF452B",
"Y;	c #BF462B",
"Z;	c #BD4E2F",
"`;	c #BD5232",
" >	c #C35A39",
".>	c #C55F3D",
"+>	c #D57549",
"@>	c #D77F51",
"#>	c #EBA276",
"$>	c #EBA277",
"%>	c #D38353",
"&>	c #FF9C61",
"*>	c #C97248",
"=>	c #A24E31",
"->	c #AA4C30",
";>	c #D36B44",
">>	c #FF8C58",
",>	c #FF9265",
"'>	c #FF8956",
")>	c #F78052",
"!>	c #D2613E",
"~>	c #C65435",
"{>	c #BC4E2F",
"]>	c #B4492F",
"^>	c #B45130",
"/>	c #BC5936",
"(>	c #BF623E",
"_>	c #D17A4C",
":>	c #D67F51",
"<>	c #F3965E",
"[>	c #FF9E63",
"}>	c #EBA377",
"|>	c #CE7C4D",
"1>	c #C87349",
"2>	c #BF6F45",
"3>	c #B76640",
"4>	c #9E4F31",
"5>	c #7E381C",
"6>	c #8E3F23",
"7>	c #FF8E59",
"8>	c #FF8D58",
"9>	c #F07E51",
"0>	c #B95433",
"a>	c #B5502F",
"b>	c #A94729",
"c>	c #A64729",
"d>	c #AB4C30",
"e>	c #AA5430",
"f>	c #B6603C",
"g>	c #DF8A57",
"h>	c #D48152",
"i>	c #C6754A",
"j>	c #C77449",
"k>	c #C97249",
"l>	c #9A5032",
"m>	c #6F2E19",
"n>	c #7B381C",
"o>	c #BD633F",
"p>	c #E67E4F",
"q>	c #DD764C",
"r>	c #C2603E",
"s>	c #B35633",
"t>	c #AD5330",
"u>	c #A84C2D",
"v>	c #9C4526",
"w>	c #9B4A2A",
"x>	c #A34E31",
"y>	c #A35631",
"z>	c #AF5E39",
"A>	c #C3794A",
"B>	c #EFBB9B",
"C>	c #D38253",
"D>	c #C4764B",
"E>	c #935132",
"F>	c #622E18",
"G>	c #672E19",
"H>	c #6A2E19",
"I>	c #D5754A",
"J>	c #C76A42",
"K>	c #BE633F",
"L>	c #AD5834",
"M>	c #994A2A",
"N>	c #893F23",
"O>	c #904727",
"P>	c #924B2A",
"Q>	c #9B4F32",
"R>	c #AC643E",
"S>	c #B16842",
"T>	c #C17A4A",
"U>	c #CC7E4F",
"                                                                                                                                                                                                                                                                ",
"                                                                                                                                                                                                                                                                ",
"                                                                                                                                                                                                                                                                ",
"                                                                                                                                                                                                                                                                ",
"                                                                                                                                                                                                                                                                ",
"                                                                                                                                                                                                                                                                ",
"                                                                                                                                                                                                                                                                ",
"                                                                                                                                                                                                                                                                ",
"                                                                                                                                                                                                                                                                ",
"                                                                                                                                                                                                                                                                ",
"                                                                                                                                                                                                                                                                ",
"                                                                                                                                                                                                                                                                ",
"                                                                                                                                                                                                                                                                ",
"                                                                                                                                                                                                                                                                ",
"                                                                                                                                                                                                                                                                ",
"                                                                                                                                                                                                                                                                ",
"                                                                                                                                                                                                                                                                ",
"                                                                                                                                                                                                                                                                ",
"                                                                                                                                                                                                                                                                ",
"                                                                                                                                                                                                                                                                ",
"                                                                                                                                                                                                                                                                ",
"                                                                                                                                                                                                                                                                ",
"                                                                                                                                                                                                                                                                ",
"                                                                                                                                                                                                                                                                ",
"                                                                                                                                                                                                                                                                ",
"                                                                                                                                                                                                                                                                ",
"                                                                                                                                                                                                                                                                ",
"                                                                                                                                                                                                                                                                ",
"                                                                                                                                                                                                                                                                ",
"                                                                                                                                                                                                                                                                ",
"                                                                                                                                                                                                                                                                ",
"                                                                                                                                                                                                                                                                ",
"                                                                                                                                                                                                                                                                ",
"                                                                                                                                                                                                                                                                ",
"                                                                                                                                                                                                                                                                ",
"                                                                                                                                                                                                                                                                ",
"                                                                                                                                                                                                                                                                ",
"                                                                                                                                                                                                                                                                ",
"                                                                                                                                                                                                                                                                ",
"                                                                                                                                                                                                                                                                ",
"                                                                                                                                                                                                                                                                ",
"                                                                                                                                                                                                                                                                ",
"                                                                                                                                                                                                                                                                ",
"                                                                                                                                                                                                                                                                ",
"                                                                                                                                                                                                                                                                ",
"                                                                                                                                                                                                                                                                ",
"                                                                                                                                                                                                                                                                ",
"                                                                                                                                                                                                                                                                ",
"                                                                                                                                                                                                                                                                ",
"                                                                                                                                                                                                                                                                ",
"                                                                                                                                                                                                                                                                ",
"                                                                                                                                                                                                                                                                ",
"                                                                                                                                                                                                                                                                ",
"                                                                                                                                                                                                                                                                ",
"                                                                                                                                                                                                                                                                ",
"                                                                                                                                                                                                                                                                ",
"                                                                                                                                                                                                                                                                ",
"                                                                                                                                                                                                                                                                ",
"                                                                                                                                                                                                                                                                ",
"                                                                                                                                                                                                                                                                ",
"                                                                                                                                                                                                                                                                ",
"                                                                                                                                                                                                                                                                ",
"                                                                                                                                                                                                                                                                ",
"                                                                                                                                                                                                                                                                ",
"                                                                                                                                                                                                                                                                ",
"                                                                                                                                                                                                                                                                ",
"                                                                                                                                                                                                                                                                ",
"                                                                                                                                                                                                                                                                ",
"                                                                                                                                                                                                                                                                ",
"                                                                                                                                                                                                                                                                ",
"                                                                                                                                                                                                                                                                ",
"                                                                                                                                                                                                                                                                ",
"                                                                                                                                    . +                                                                                                                         ",
"                                                                                                                                    + @                                                                                                                         ",
"                                                                                                                                # + # # # #                                                                                                                     ",
"                                                                                                                            # $ % & * # = + - #                                                                                                                 ",
"                                                                                                                          # ; > , > * # = ' + - #                                                                                                               ",
"                                                                                                                          + ; - * # # # # * - - -                                                                                                               ",
"                                                                                                                        + - # # @ @ @ @ @ @ # * - #                                                                                                             ",
"                                                                                                                        = # ) @ = - + = = # @ @ * *                                                                                                             ",
"                                                                                                                        = @ @ ' + ; ' = # * * @ @ *                                                                                                             ",
"                                                                                                                        @ @ + % ! ~ & - = * - * { @                                                                                                             ",
"                                                                                                                        @ - & , % ! & + - * - + * @                                                                                                             ",
"                                                                                                                        @ & ~ ] ^ ~ & + + * - ' * {                                                                                                             ",
"                                                                                                                        * & > / ] ( & = . _ * ' * {                                                                                                             ",
"                                                                                                                        + & ^ % @ @ ' = @ @ * - * {                                                                                                             ",
"                                                                                                                # # - ' + % ~ = @ @ @ @ @ @ @ + - * & ' - =                                                                                                     ",
"                                                                                                              # - - ' : > , . < [ } } : | 1 * - - * - ' # # @                                                                                                   ",
"                                                                                                              # : 2 3 4 5 6 7 8 9 0 a b c d e f : * - & * # @                                                                                                   ",
"                                                                                                          + ~ g h 7 i j k l m n o p q r s t u v w e : ~ ' # @                                                                                                   ",
"                                                                                                        x y z A B C D E F G H I J K L M N O P Q t R S T | / > +                                                                                                 ",
"                                                                                                        U V W X Y Z `  ...+.@.#.$.$.$.%.&.&.*.=.-.;.>.,.'.T ! ' '                                                                                               ",
"                                                                                                          X ).!.~.{.].^./.(._.:.<.[.}.|.1.2.3.4.&.*.N 5.W 6.7.8.-                                                                                               ",
"                                                                                                          9.0.a.b.c.d.e.f.g.h.i.j.k.l.m.n.o.p.q.r.4.s.t.u.v.w.7.e                                                                                               ",
"                                                                                                          {.x.y.z.A.B.C.D.E.F.G.H.H.I.J.K.L.M.N.O.P.Q.R.S.Z ;.T.U.                                                                                              ",
"                                                                                                            V.W.h.X.Y.Z.`. +.+++@+@+@+#+$+%+I.&+M.*+O.P.=+-+;+>+                                                                                                ",
"                                                                                                            ,+'+)+!+~+{+]+^+/+(+_+_+:+<+[+}+|+$+I.&+M.1+2+3+4+;+                                                                                                ",
"                                                                                                            5+6+7+8+9+0+a+b+c+d+d+d+e+f+g+h+i+}+j+k+l+m+W.n+o+4+                                                                                                ",
"                                                                                                            p+q+r+s+t+u+v+w+x+y+z+z+A+B+C+D+e+E+i+}+F+G+'+H+I+o+                                                                                                ",
"                                                                                                          J+K+L+M+N+O+P+Q+R+S+T+U+U+V+W+X+Y+Z+D+g+`+ @.@+@@@W.2+#@$@%@&@*@=@                                                                                    ",
"                                                                                                      -@;@>@,@t+'@)@!@~@{@]@^@/@(@_@:@<@[@}@|@Y+1@2@3@4@5@6@7@W.8@9@$@%@&@0@=@                                                                                  ",
"                                                                                                  a@b@c@d@e@f@g@h@i@j@k@l@m@n@o@p@p@q@r@s@t@u@v@w@x@y@z@A@F+F.B@C@D@E@F@G@H@I@J@                                                                                ",
"                                                                                              K@C@L@M@N@O@P@'@Q@R@S@T@U@V@W@X@Y@Z@Z@`@ #.#+#@###$#%#x@&#*#=#-#&+;#>#,#$@'#G@0@=@                                                                                ",
"                                                                                            )#!#~#{#]#^#/#(#Y+_#:#<#[#}#|#1#2#3#4#5#6#7#8#9#0#a#b#c#d#1@e#f#g#h#i#j#,#9@'#G@H@0@J@                                                                              ",
"                                                                                          k#D@l#L@c@m#n#o#p#q#r#s#+#t#u#v#w#x#y#y#y#z#A#B#C#D#E#F#G#H#I#J#K#L#F+M#N#O#P#Q#R#G@0@=@                                                                              ",
"                                                                                        S#T#K@U#V#W#X#Y#Z#`# $.$+$@$#$$$%$&$*$=$-$;$>$,$z#'$C#D#E#F#)$!$~$2@{$]$M@^$/$($_$:$<$[$0@                                                                              ",
"                                                                                        }$|$!#1$2$3$4$5$6$7$8$9$0$a$b$c$d$e$f$g$h$i$j$k$l$m$'$C#n$o$p$q$r$s$3@d@t$u$v$w$x$y$z$A$0@=@                                                                            ",
"                                                                                      B$}$C$D$^$E$F$G$H$I$J$K$L$M$N$O$,$P$Q$R$S$T$U$V$W$X$l$z#Y$Z$`$ %.%+%@%#%$%%%&%*%8@=%-%;%>%I@,%                                                                            ",
"                                                                                      B$'%D@)%!%~%{%]%^%/%(%_%:%<%[%}%|%1%2%3%4%5%6%7%8%9%0%a%b%c%d%e%f%g%h%i%j%k%l%m%n%#@o%p%q%=@I@J@                                                                          ",
"                                                                                    r%s%#@t%u%v%w%x%y%z%A%B%C%D%E%F%G%H%I%J%K%L%M%L%N%O%P%Q%R%S%T%U%V%W%X%Y%Z%`% &.&+&@&#&o%$&%&&&=@J@                                                                          ",
"                                                                                  q%*&o%=&8@~#-&]#;&>&,&'&)&!&~&{&]&^&/&(&_&:&<&[&}&|&1&2&3&4&}%5&6&7&8&9&0&a&b& &c&d&@&#&e&f&%&g&J@h&                                                                          ",
"                                                                                  q%;%i&#@j&k&l&]#m&n&o&p&q&r&~&{&s&^&t&u&v&w&x&y&[&z&A&B&C&D&E&F&G&H&I&J&K&L&M&N&O&P&Q&R&e&f&%&g&h&S&                                                                          ",
"                                                                                  T&*&U&V&W&X&Y&Z&`& *.*+*@*#*~&{&s&$*%*&***=*-*;*>*,*'*)*!*~*E&F&{*]*^*/*I$(*_*m#M@L@j&:*o%$&%&h&S&<*                                                                          ",
"                                                                                    r%[*}*|*N#1*2*3*4*5*6*7*8*9*0*a*b*c*d*e*f*g*h*w&i*j*k*l*m*n*o*p*q*r*s*h%t*u*v*w*L@j&:*U&x*y*z*<*A*                                                                          ",
"                                                                                  B*C*D*E*F*G*H*I*J*4*K*6*L*M*N*O*P*Q*R*S*T*e***'*U*V*W*X*Y*Z*`* =.=+=@=#=$=%=;&&=-&~#*===-=;=T&>=A*A*A*                                                                        ",
"                                                                                  B*C*,=}$'=)=!=~={=]=^=/=(=_=:=<=[=}=|=R*S*1=2=3=4=5=6=7=8=9=0=a=b=c=d=e=z%f=g=h=i=~#j=}*k=r%z*A*A*A*l=                                                                        ",
"                                                                                <*m=%&f&e&n=o=p=q=r=s=t=u=v=w=x=y=z=A=n*B=R*C=S*D=D=E=F=G=H=I=J=.=q*K=L=M=(*N=d@O=P=Q=R=T#S=T=B*A*<*A*_                                                                         ",
"                                                                                <*U=V=f&e&=&*=W=X=Y=Z=`= -.-+-@-#-$-O*A=%-Q*&-R%*-*-=---;->-,-'-)-!-~-{-]-^-/-N@(-P&j&_-:-B$<-[-A*}-l=_                                                                         ",
"                                                                                U=g&J@;%i&P#,#Q&|-1-2-3-4-5-6-7-8-9-$-O*0-I=a-b-S%S%c-d-e-f-g-h-i-j-k-l-m-N=n-W#o-m%p-|$q-r-s-[-<*l=_                                                                           ",
"                                                                              <*U=g&J@>%y$$@t-8@u%u-v-w-x-y-z-A-B-C-9-b=D-E-,-F-G-H-T%I-J-K-L-M-N-O-P-Q-f=O@m#(-R-S-T-E@k=U-[-<*A*l=_                                                                           ",
"                                                                              U=g&J@=@V-W-X-Y-Z-`-d& ;.;+;@;#;/='&$;%;&;*;=;-;;;>;,;';);!;~;{;];^;P-Q-%=/;(;_;:;<;[;#@e&f&C*B*<*l=_ _                                                                           ",
"                                                                              U=g&J@};,%z$|;x$t-1;2;d&3;4;5;6;7;l-8;J&8$C-9;+=0;a;b;c;d;e;f;g;h;i;Q-j;k;g=h=:;P&Q=l;#@m;n;q%U=A*l=_ _                                                                           ",
"                                                                            <*g&J@=@I@,%*@z$X-x$o;[;^$p;q;4;r;@;s;t;u;7$v;w;B-x;y;z;A;B;C;D;+%E;F;%=N=G;H;M@I;u%J;#@K;L;M;m=S&<*_ _                                                                             ",
"                                                                            U=g&J@=@,%0@0@z$z$x$N;O;n%P;-&;@Q;R;S;^-Z#T;K&8;U;k-V;W;X;Y;.-Z;`; >.>/;d@+>(-P;u%@>#@=%y$#>$>%>h&>=_ l=                                                                            ",
"                                                                            g&J@=@I@,%0@0@*@z$y$&>P#@>*>P;V#=>r=->;>>>,>'>)>p#!>~>{>.*.*5*]>^>/>m&(>_;M@P&_>p-:>#@K;<>[>}>[$%>U=l=A*                                                                            ",
"                                                                          U=g&J@=@I@,%,%0@,%[>W--%K;|>1>2>3>4>5>6>(>x%7>8>9>o#%=0>a> *b>4*c>d>e>.;f>V#L@Q=p-R&E@e&;%g>I@,%0@[$%>A*(                                                                             ",
"                                                                          g&J@J@};I@I@,%,%,%I@>%;%h>i>j>j=k>l>m>n>=>o>m#^#p>q>u*r>s>t>u>v>Q;w>x>y>z>1$l#j&j=A>o%m;M;=@=@I@,%0@B>%>$                                                                             ",
"                                                                        U=g&J@=@};I@};};};};};=@C>D>m;i>==E>F>G>H>!=X=w*O=I>N@N@J>K>L>Z&M>N>O>P>Q>X&D$R>S>V&U&T>U>J@%>=@=@I@,%0@B>%>                                                                            "};
