/* XPM */
static const char *nowindow[] = {
/* columns rows colors chars-per-pixel */
"64 64 145 2 ",
"   c #272E3C",
".  c #282F3E",
"X  c #29303F",
"o  c #2C3544",
"O  c #2E3847",
"+  c #2D3748",
"@  c #2E3948",
"#  c #323D4D",
"$  c #323F50",
"%  c #34404F",
"&  c #364352",
"*  c #394655",
"=  c #3A4857",
"-  c #354658",
";  c #37495B",
":  c #3E4D5C",
">  c #3D4E5C",
",  c #3E4E5C",
"<  c #3F4E5C",
"1  c #3F4F5C",
"2  c #3F4E5D",
"3  c #3F4F5D",
"4  c #3E4F5D",
"5  c #3D4B5A",
"6  c #3F505E",
"7  c #3C5062",
"8  c #3C5164",
"9  c #3E5468",
"0  c #404E5C",
"q  c #404F5D",
"w  c #404F5C",
"e  c #404F5E",
"r  c #414F5E",
"t  c #404F5D",
"y  c #40505D",
"u  c #40505E",
"i  c #41505E",
"p  c #41515E",
"a  c #41505F",
"s  c #40515F",
"d  c #41515F",
"f  c #42515F",
"g  c #41525F",
"h  c #42525F",
"j  c #42535F",
"k  c #41505E",
"l  c #5A5B5F",
"z  c #7D4145",
"x  c #634F50",
"c  c #734A50",
"v  c #685257",
"b  c #425160",
"n  c #415260",
"m  c #425260",
"M  c #425360",
"N  c #435360",
"B  c #435261",
"V  c #425361",
"C  c #435361",
"Z  c #445361",
"A  c #435461",
"S  c #435462",
"D  c #445561",
"F  c #455661",
"G  c #445462",
"H  c #445562",
"J  c #445463",
"K  c #445563",
"L  c #455563",
"P  c #445663",
"I  c #455663",
"U  c #455664",
"Y  c #445764",
"T  c #455764",
"R  c #465664",
"E  c #465764",
"W  c #445563",
"Q  c #465864",
"!  c #475964",
"~  c #475865",
"^  c #475965",
"/  c #475966",
"(  c #475A66",
")  c #475966",
"_  c #485A65",
"`  c #485A66",
"'  c #485A67",
"]  c #485B67",
"[  c #485965",
"{  c #40576C",
"}  c #40576D",
"|  c #41596E",
" . c #455B6E",
".. c #475B68",
"X. c #485B68",
"o. c #495B68",
"O. c #495C68",
"+. c #495D69",
"@. c #4A5D69",
"#. c #4B5E68",
"$. c #4B5E69",
"%. c #4A5D6A",
"&. c #4A5E6A",
"*. c #4B5E6A",
"=. c #4B5F6B",
"-. c #4C5F69",
";. c #4C5F6A",
":. c #4C5F6B",
">. c #4A5D69",
",. c #575761",
"<. c #5E5A63",
"1. c #4C606B",
"2. c #4C606C",
"3. c #4D616C",
"4. c #4E616C",
"5. c #4D626D",
"6. c #4E626C",
"7. c #4E626D",
"8. c #4E636E",
"9. c #4F636E",
"0. c #4F636F",
"q. c #4F646F",
"w. c #4D616C",
"e. c #50646D",
"r. c #53676F",
"t. c #51646E",
"y. c #58616B",
"u. c #476075",
"i. c #476075",
"p. c #4F6570",
"a. c #4C6373",
"s. c #4A6478",
"d. c #49647A",
"f. c #4A657B",
"g. c #506570",
"h. c #506670",
"j. c #516671",
"k. c #506670",
"l. c #566B72",
"z. c #586C73",
"x. c #596E74",
"c. c #696A64",
"v. c #895F4B",
"b. c #4D6C81",
"n. c #517285",
/* pixels */
"o o   X o o o o o o o o @ @ @ # : = # = : : : : : 5 : : : : : : : : : : : : : : : : : : 5 & = r # @ @ @ o o o o o o o o o   o o ",
"o O o . o o o # & # @ & & * * * = M = 5 -.*.*.-.' S *.*.*.*.*.*.*.*.*.-.-.-.*.-.*./ -.6.r = M 5 * * * & & * & & # o o o   o # o ",
"o o o o . o o o # & # # & * * * * 5 = * F T T T M d T T T T T T T T T T T T T T T T T F = = : * & & * * * * * % o o o X o # @ o ",
"# O o o o X o o o % * * * & & * * * = & & M T T T T T T T T T T T T d 5 : F T T T T M * & 5 * * & # & * * * & o o o X o @ o O # ",
"& 5 # o o o X o o + # & % # & & % # & # o % 5 5 5 5 5 5 5 5 5 5 : : # o o * 5 5 5 5 & o @ & & & & & & & & % o o o X o # o # = % ",
"* d d # o @ o . o o o o # # # # # O # & @ o # # # # # # # # # # # # # # # # # # # # o o # # # # # # # # o X X X X o # o # d d # ",
"* d M 5 @ o @ o       o # # # # # # # # # @ # # # # # # # # # # # # # # # # # # # @ + # # # # # # # # # o       o # o o : S d # ",
"* d d = 5 O o # o X o o o o o o o o o o o o o o o o o o o o o o o o o o o o o o o o o o o o o o o o o o o o . o # o o * M S d % ",
"* d M : M : O o o           .   . .             . .                                       .             X     o o O 5 M F / M # ",
"* d M M M M * o     X o o o o o X   o o o o o o o o o o o o o o o o o o o o o o o o o o o o   . o o o o o X     o = S M S / M # ",
"* d M M : * = #   o @ @ # o o o o X o o + o @ @ + + @ @ + @ o @ @ @ @ o @ @ @ @ @ @ @ @ @ @ X o @ + o # # @ o . * M M M S S d # ",
"# d M M = & = & X o @ o @ # & # o # & & & % @ # & & & & & & & & & & & & & & & @ % & & & & & % @ # & # o o @ o X : M M M S S d # ",
"@ = M M d : = & X o @ o % * * & @ * = = = * # * = = = = = = = = = = = = = = = # * = = = = = = # & = * & o o o X : : 5 S S S d # ",
"= / M M M M = & X o o % * * 5 5 # : d d d d : d M d M M M M M M M M M M M M d & : M M M M M M & : : = * & o o X : : = S M M d % ",
"5 6.T M M M = & X o o & * 5 / F O # & & & & & * & # & & * * * * * * * * * & # # & * * * * * & # ' -.: = * @ o X : d d M M F d # ",
"# 6.z./ M M = & X o & * = / -.& o o o o o o o o o o o o o o O O @ @ @ @ @ o o o @ O O o o @ o o = t.6.: * & o X : M M M T t.d o ",
"# * r ' M S 5 & X o & * M *.& o o & * * * * * * # o * * * * * * * * * * * * o & * * * * * * # o @ : t.*.5 * O X : S F S ' * # @ ",
": F * % * T : % . o & * d * o o # * * = = & * = # O = = * * * * * = = = = * o & = = = = * * * # o @ 5 T 5 & o X r / *.: & & F = ",
": S -.: & % & #     # & = # o @ * * * = = * = 5 & @ 5 5 * * * * * 5 5 5 5 = @ * 5 5 5 5 * & * * # o # r * % X . d d & : *.*.6.5 ",
"M 6.g.q.6.T & o   o o o # o o # * = = = = = d F 5 & F F M d d Z Z F F F F M # : M M F F Z M : * # o o & # O o   # : 4.6.q./ *.: ",
"M t.g.g.g.-.d & . o & * : & o # * = = = = = M T 5 & T T r 5 r F F T T T T M # : = = F T T T : * # o & M 5 & o . : q.g.g.q.X.*.: ",
"M q.g.g.g.g.' : o o & = d & o # * = 5 : : : M T 5 & T T F F F F F F M d d M # : : : F F T T r 5 & o & F = * o o -.g.g.g.g.q.6.: ",
"M 6.q.q.g.g.*.6 o o * = d & o * = 5 d d d d F T 5 & T T T T F F F F r 5 5 d # : T F F F T T T F = o & S * & o o 4.g.g.g.g.g.6.: ",
"M *.: d d F M : o o & & d & o * = = = = = = M T 5 & T M M T F F F F F F F M # : T T T F T T M M = o & S 5 * o o 4.6.*.*.*.q.6.: ",
"S ' = n.s. .5 = o o # # d * o & & & * * * * 5 : * & F r M T T T T T T F T M # r T F T T T T r r = o & F 5 * o o *.' M M S 6.6.: ",
"S ' * b.s.s.7 * o o & = S * o # & & * * & * * * # # F F F T T T T T F F T M # r T F T T T T F F = o & F 5 * o o / S q.g.q.6.6.: ",
"S ' * i.| { ; * o o & = F * o * F T F F F F M d * # F F T T T T T T T T T M # r T T T T T T F F = o & F 5 * o o / S g.g.6.M *.: ",
"M ' * i.| { ; * o o * = F * o * M r M F F F : : * # F F F T T T T T T M Z M # : T Z r d T T F F = o & F 5 * o o / S g.g.6.d *.: ",
"M ' * i.| { ; = o o * = F * o * M 5 : F F T F T = # F T F F F F F F F : d M # : T M = : F T T F = o & d 5 * o o / S p.g.6.d *.: ",
"S ' * i.| | ; = o o & = F * o * F F F F F F T T = # M M T F F F T F T F T M @ : T F F F T T T F = o & : = * o o / S q.g.q./ *.: ",
"S X.* i.9 8 - = o o * 5 F * o * F T T T T F F T = # r r T T F T F F F F M d @ : T T T T T T T F = o & F 5 * o o / M q.g.g.g.6.: ",
"M X.* i.9 8 - = o o * 5 T * o * F T T T T T F T = # F T T T T T F F F F d r @ : T T F F T T T F = o & F 5 * o o / M q.g.q.*.6.: ",
"M X.* i.| 9 ; = o o & = F * o * F T F T T F T T = # F T T T T T T T T F F M @ : T F F T M r M F = o & F 5 * o o ' ' g.g.q./ *.: ",
"M X.& 8 ; * $ = o o & = F * o & F T T T F F T T = # F T d : d F T T F F F M @ : T T F T M : M F = o & F 5 * o o -.g.g.g.g.g.6.: ",
"S *.& # # % * : o o # # * # o * Z F F F F T F T = # F F d : d F T T F F F = o r T F F F T T T F = o @ & # # o o 4.6.T ' *.q.6.: ",
"M 6.S F / X./ M o o % & : & o * 5 : r F T F : : * # F F F F F F T T F F F * o r T M = 5 F F F : * o # : * % o o 4.6./ ' *.6.6.: ",
"M q.g.g.g.g.*.M o o * 5 T = o # * * : F F F M M = # d F F F T T T T F F F = o r T F d M T d 5 * # o * F 5 * O o 4.g.g.g.g.g.6.: ",
"M q.t.<.,.v F M o o & * d t.* @ # * * = = r F F * @ = 5 d F Z Z Z Z Z Z M * o : F Z Z Z Z : * & @ & e.F * & O o 4.g.g.g.g.g.6.: ",
"M q.y.z x v.d M o o @ * 5 *.*.& # & & & & & & & # @ & & & * * & * & & & & % o & * * * * * & & # & -.4.: * @ o o *.q.g.g.g.q.6.: ",
"M q.y.c l c.' M o o o & * 5 / / * *.4.4.4.4.4.4.M 5 4.4.4.4.4.4.4.4.4.4.4.*.* ' 4.4.4.4.4.4.4.= #.*.: = * o o . & F 6.q.q.*.*.: ",
"M 6.g.t.g.q./ = o o @ @ & * * * # : : : : : S d * # : : : : : : : : : : : 5 O = : : : : : : : # r : = = & o o . % & = F 6.6.6.: ",
": F q.p.6.F # o   o @ o @ & & % o & * * * * * * # O * * * * * * * * * * * & o & * * * * * * * o % * * & O o o X 5 : & & * F / = ",
"d 1.6.*.= * % # X o # # @ # # @ o # # # # # # # O o # # # # # # # # # # # # o # # # # # # # # o o # @ @ o o o X = F 6.S & # # # ",
"d ' 5 = & : S * X O * * * * * & o * = = = = = 5 & o = : : : : : : : : 5 : 5 o * : : : : : : = o # * & * * # o X = : d : / d & o ",
"* = & 5 ' / = & X o & * * * * & o & * * * * * * & o * * * * * * * * * & * * o & * * * * * * * o # & # & * & O X = : : : : / 5 @ ",
"# = / -.d : = & X o & & * * * & o & & * * * * * & o * * * * * * * * * * * * o & * * * * * * * o # * * * * & O X = : : : : : * @ ",
": *.d d d : = & X o # # & & & # o # # & & & & & # o # # & & & & & & & & & % o # & & & & & & & o # & & & & # o . * : 5 : : : * @ ",
"* r d d r : = # .   o + + + + o   o o + + o o + o . o o o o o o o o o o + o   o + + + + + + o . o + o o o o     @ * = : : : * @ ",
"* : d d r : & o o   . o o o o .   X X X X X X o     o o X o X X X o X o X X     o o o o X o X     X o X X .   o o & 5 : : : * @ ",
"* : r r : & @ o                 o o o o o o o o o o o o o o o o o o o o o o o o o o o o o o o o                 o o & 5 : : * @ ",
"* : = 5 % o o X   o o o o o o @ & & # # # # # # # # # # # # # # # # # # # # % # % # # # # % & & # o o o o o o     o @ & 5 : * @ ",
"* 5 # # o o o   o # # # # o % : : d : : : : : : : : : : : : : : : : : : : : : : : : : : : : d : : & o # # @ # o . X o @ & 5 * @ ",
"* 5 # o o o   o # & & & @ o : r d F F F F F F F F F F F F F F F F F F F F F F F F F F F F F F d d : @ @ & & & # o . o o @ & & @ ",
"@ # + o o   o % 5 : = @ @ F 4.-.-.-.-.-.-.4.4.4.4.4.-.-.-.-.-.-.-.-.-.-.-.-.*.*.*.*.*.*.*.*.*.*.*.*.F # # = 5 = & o X o o @ & @ ",
"o o o o . o # : d d 5 # : -.6.*.F F F F F F F F F F S S M S F F S M M M M S S S M M S S M M S M ' 6.*.: # : d d : & o . o o + o ",
"o o o   o # : d d : # * / ..../ S J S S S S S S J J S S S S S S S S S S S S S S S S S S S S S S / ..../ * % : : % & & o X o o   ",
"o o   o # = : : d # # F *.*.*.*.*.*.*.*.*.*.*.*.*.*.*.*.*.*.*.*.*.*.*.*.*.*.*.*.*.*.*.*.*.*.*.*.*.*.*.*.T & 5 d 5 : : & o X o   ",
"X   o @ * : : d : # -.l.l.z.z.z.z.z.z.z.z.z.z.z.z.z.z.z.z.z.z.z.z.z.z.z.z.z.z.z.z.z.z.z.z.z.z.z.z.z.z.z.l.4.& : d d : = # o X   ",
"  o @ # # # = : # # F F F F F F F / / ' ' ' ' ' ' ' ' ' ' ' ' / ' ' ' ' ' ' ' / / / / / / / / T T F F F F F % # : d * # # @ o   ",
"o # d M S F S & & 4.l.l.l.l.l.t.t.z.z.z.z.z.z.z.z.z.z.z.z.z.z.z.z.z.z.z.z.z.z.z.z.z.z.z.z.z.z.z.z.g.t.t.t.t.-.* & F T S S M & o ",
"@ & * = / ..= # d *.*.*.*.*.*.*.*.6.2.2.2.2.2.2.6.6.2.2.2.2.2.2.6.6.1.2.:.2.6.6.6.6.6.6.6.6.*.*.2.*.*.*.*.*.*.M # & / X.: F M # ",
"= F T T / : # : ..*.*.X.....S d ......X...X.X.X.X.*.....X...X.X.X.*.....X...X.X.....X.*...*.S M ....*.*...*.X...: # = / / / / = ",
": / ../ : @ * / ../ ../ ..../ / ..../ ../ / / ../ / / / ........../ / ............../ ../ ../ / ......../ ....../ : @ 5 / / T = ",
"* 5 5 = # @ * 5 5 5 5 5 5 5 5 5 5 5 5 5 = = = = 5 5 5 5 5 5 5 5 5 5 5 5 5 5 5 5 5 5 5 5 5 5 5 5 5 5 5 5 5 5 5 = 5 = # @ * 5 5 * "
};
