/* XPM */
static char *space_wall[] = {
/* columns rows colors chars-per-pixel */
"64 64 234 2 ",
"   c #020304",
".  c #050609",
"X  c #08070A",
"o  c #06090C",
"O  c #0A0B0D",
"+  c #18130C",
"@  c #030C13",
"#  c #0B0E12",
"$  c #020E19",
"%  c #090E18",
"&  c #100F10",
"*  c #051116",
"=  c #0D1116",
"-  c #04141C",
";  c #0D141A",
":  c #0D191E",
">  c #05181F",
",  c #121315",
"<  c #1B1A15",
"1  c #12151B",
"2  c #181719",
"3  c #15191E",
"4  c #1C1C1C",
"5  c #1B1712",
"6  c #100F0F",
"7  c #211E1D",
"8  c #211D16",
"9  c #23211D",
"0  c #29251D",
"q  c #2E2517",
"w  c #362C1E",
"e  c #021621",
"r  c #031A25",
"t  c #0D1B23",
"y  c #021D2A",
"u  c #0E1F28",
"i  c #0D1720",
"p  c #131720",
"a  c #131B23",
"s  c #1A1D24",
"d  c #151E29",
"f  c #191F29",
"g  c #211F22",
"h  c #04222D",
"j  c #0D222B",
"k  c #0F2027",
"l  c #132126",
"z  c #1C2126",
"x  c #14232C",
"c  c #1C232C",
"v  c #1C282F",
"b  c #15282F",
"n  c #0C2632",
"m  c #0D2A34",
"M  c #0B2C39",
"N  c #042836",
"B  c #132631",
"V  c #1C2730",
"C  c #142A33",
"Z  c #1B2B33",
"A  c #152E39",
"S  c #192E39",
"D  c #0C323C",
"F  c #06333E",
"G  c #14323C",
"H  c #1B333C",
"J  c #18353B",
"K  c #242322",
"L  c #292623",
"P  c #2A2925",
"I  c #22262B",
"U  c #23292D",
"Y  c #2B2C2B",
"T  c #262826",
"R  c #302E29",
"E  c #2F302F",
"W  c #33322D",
"Q  c #3A3527",
"!  c #212730",
"~  c #242B33",
"^  c #292E33",
"/  c #242E39",
"(  c #2A2F39",
")  c #2C3136",
"_  c #24333B",
"`  c #2B343B",
"'  c #2C383E",
"]  c #243036",
"[  c #313332",
"{  c #3A3A35",
"}  c #32353A",
"|  c #35393D",
" . c #3B3C3B",
".. c #353833",
"X. c #4A371B",
"o. c #523D18",
"O. c #403E3A",
"+. c #513F23",
"@. c #46443D",
"#. c #033443",
"$. c #0B3541",
"%. c #0C3A45",
"&. c #053B4A",
"*. c #08394A",
"=. c #143641",
"-. c #1B3641",
";. c #143A45",
":. c #1A3A44",
">. c #133D4A",
",. c #1C3D49",
"<. c #023B51",
"1. c #043F56",
"2. c #002F40",
"3. c #233541",
"4. c #293742",
"5. c #233B45",
"6. c #2C3B44",
"7. c #223E49",
"8. c #2B3E4C",
"9. c #343C43",
"0. c #393E43",
"q. c #363C46",
"w. c #1B424D",
"e. c #16414E",
"r. c #094353",
"t. c #04495B",
"y. c #0D4B5C",
"u. c #034458",
"i. c #1B4653",
"p. c #1D4955",
"a. c #134B5B",
"s. c #1C4C5B",
"d. c #154655",
"f. c #1C505F",
"g. c #23414B",
"h. c #2C424C",
"j. c #344147",
"k. c #3C4144",
"l. c #34424B",
"z. c #3C444C",
"x. c #3E484D",
"c. c #32484F",
"v. c #224652",
"b. c #2B4452",
"n. c #234955",
"m. c #234C5B",
"M. c #2C4C59",
"N. c #284956",
"B. c #334552",
"V. c #354953",
"C. c #3B4A54",
"Z. c #3A4D58",
"A. c #344D59",
"S. c #23515E",
"D. c #2A525F",
"F. c #3D525B",
"G. c #31515B",
"H. c #144F61",
"J. c #06556A",
"K. c #1D5463",
"L. c #185869",
"P. c #055B73",
"I. c #0A556B",
"U. c #245463",
"Y. c #295867",
"T. c #325564",
"R. c #08637B",
"E. c #116373",
"W. c #2B6273",
"Q. c #306674",
"!. c #424444",
"~. c #40454D",
"^. c #44494B",
"/. c #4D4D4D",
"(. c #464947",
"). c #54544D",
"_. c #58584F",
"`. c #424B53",
"'. c #434F59",
"]. c #464B51",
"[. c #4B555B",
"{. c #485358",
"}. c #545756",
"|. c #514F4D",
" X c #605C51",
".X c #4D5B64",
"XX c #445862",
"oX c #525F64",
"OX c #505E68",
"+X c #425F71",
"@X c #54626A",
"#X c #5C6A6C",
"$X c #576A73",
"%X c #547077",
"&X c #656868",
"*X c #667476",
"=X c #747674",
"-X c #7C7D7B",
";X c #6A6E6F",
":X c #7F817F",
">X c #84847D",
",X c #046A85",
"<X c #04728D",
"1X c #047593",
"2X c #037C99",
"3X c #2A788E",
"4X c #4A7785",
"5X c #0389AA",
"6X c #0596B7",
"7X c #3D95AA",
"8X c #628792",
"9X c #0A9FC0",
"0X c #63BDD7",
"qX c #69C1DB",
"wX c #8B8B83",
"eX c #8C8D8A",
"rX c #848584",
"tX c #8F908A",
"yX c #90918B",
"uX c #9A9B98",
"iX c #889092",
"pX c #9FA39F",
"aX c #A2A49F",
"sX c #A8AAA5",
"dX c #AFB1AB",
"fX c #B2B5AE",
"gX c #BBBCB5",
"hX c #B9BCB5",
"jX c #BEC0B8",
"kX c #C4C5BD",
"lX c #8DD2E4",
"zX c #B7EAFA",
"xX c #EEFAFD",
"cX c #C9CAC2",
/* pixels */
"K L L 7 , 7 , & # X X . . . .     O 7 9 K K L Y Y 4 8 9 9 L 0 P 0 0 0 9 < < , 9 K 7 4 < 4 4 6 X     X X . X . # # # 2 & , g Y Y ",
"& 7 g g 7 g 2 , # X . . . X O   . O 0 g K L L P Y W ..@.{ {  .{ {  .....@.E T K 4 < 4 2 4 K 6 .   . . . . X . X , , 2 2 7 g g 2 ",
"O , 7 g 7 7 7 7 8 & X . .   O O X X 7 0 2 4 4 4 9 4 4 _.{ 0 P 0 0 0 0 W _.z , 9 4 4 4 , 4 9 6 O X O   . .   O , 2 7 2 p 2 7 5 # ",
"X   & 5 & 2 , O O       . X , & 4 X 2 7 7 7 7 K K K K O.W W W Q ..R R W O.T 9 9 9 4 < 2 4 2 X 2 & O X     . X O # O , & & & X X ",
"    X X   # O   X X     P @., X 4   # O X , O , 5 , 6   X W R , 9 8 { 6   O + , 6 , , X . X . 4 O & [ Y     X X     # .   X     ",
"O X . 5 + # O   X X X   & 7 X       O 0 + , 5 2 K 0 L O   ).@.q + R  X6 O 0 0 0 4 < 2 + 5 O     .   , &     . # X   &     X . X ",
"  X X # O , 1 # # , = = # # # O & & 2 I K K K T L W [ T L @.{ 0 0 E @.P P R [ z K K K 4 4 4 # , X O O # # 1 1 # # & p # # X X   ",
"  X O = & 1 U ~ g ( ( 9.` } ( ^ } | } [  .| |.>X=XwXwXwXtX>X>XtXyX>X>X>X>X=X:X&X=X}. .^ ^ ( } ` U ^ ` ` ( ^ / s p p 1 # = # . . ",
". X # # # = , 1 # = # # # # # O X O X # . , K s [ R R |.).). X X_._._._.).{ ..E T Y 4   O O O X O # # # # . # X O X O % # O . . ",
"O O O # # X # = # , 2 # , , , , , , 4 4 g Y E [ | O.0.|.|.|.O.).).k.].)./.(.!.| ..^ T 2 , 2 , , , , 1 , & # # X X # . X # O # O ",
"p p f f f p , g ^ ` } ( } ( U I ! ^ ) } !.].-XsXdXgXgXkXkXcXuX4X:XuXkXkXkXkXgXhXsXuXuX[.0.9.| } ( ( ( ( ~ s c p , p 1 , p f f p ",
"; % p p p f p f ( ~ ^ ^ ) I s I Y I E 0.!./.=XuXaXdXdXfXgXgXkXuXwXjXjXjXhXhXdXdXuXyXeX].| } ` ( ( ( ( ~ ! s f g f 1 p , ; p p p ",
"; p p f f s p g ( ( ` ` | I , 2 p 4 p g I g |.sXaXdXfXfXgXgXjXsXuXjXgXjXgXhXfXdXsXeXrX~.| } ( ( ~ ~ ! ! ! g f s f s p f p 1 p p ",
"p ; 1 p p p p , I I I I I U I I ! ~ | O.0.k.}.=X=X-X-XrXwXeXeX;X#X:XeXeXwXrXrXrX=X&X;X} ^ Y I c g s s s s p p s = 1 2 1 1 # 1 p ",
"p #       = 1 d f d c d d c c V ! ! V Z ~ / S 3.4.4.8.8.B.8.z.'.[.z.q.V.V.8.8.8.4.5.3./ V V V V c f f f f c f f f # .     O s s ",
"! ,   . = V c # ; = = % ; ; % # % ; p c g c ~ ( ( 4.9.9.x..X{.[.#X}.{.'.l.l.z.q.q.9.9.' ` / a s p 1 1 p = ; 1 ; = ; = . X , ~ c ",
"@.Y   1 ! / X   o =         .   . o * * * * = ; ; : ; ; a x.@X`.`..X'.c : l l a t k k k : u - o # . . O X , 1 X   X s = o O I I ",
"|.} % ! / X   1 =   $ @           * o o o * * o .     o . . * = 3 ; o o * @ @ @ * * * o @ * > . . X X   : x , 3 #   # / = , ` } ",
"|.!.p 4.o X c # . * $   . * - : x k r D %.F #.r.#.D ;                 .   1 h #.F F F D D A u % @ @ @ . $ d u # # 1 X 1 4.1 ` } ",
"].0.f f   f @ . e r . @ N h * r r ;.a.,X1X<X<X5X2XR.d.C h M B m n n M N J H.R.<X<X5X1X<X1X,X*.e e e $ e t i S t   o a   4.! [ ` ",
"/.!.c c = 1 @ x j ; $ > * * > y y h N > > > > r r y r a t $ * $ * $ * * : > y r r r r r r M M d S B p o @ s a B u # 1 1 4.! } } ",
"| 0.c V ; f Z x s 1 ; * C -.a * e o . ; : o . . O O . * o o . . . o .                         , P ` x._ % * c f B f c c 4.~ ( ( ",
"^ [ V c i S C t c : x M.N.x . g.m.>.S 5.5.j.c.G.F.c.' 6.C j u u u t t - u u u u d x j u l | &XiXrX^ 0.6.-.; = V a 7.8./ / c g z ",
"} } V Z # j u a 1 @ 3.T.i.Z : U.W.m.C J C g.F.XXT.F.h.l.c.-.J J A S S S Z Z B Z C S C B V c } #X;X4.C.4.-.a . . % N.B.c 9.I 4 s ",
"} [ V c = l : ; v : ' ] m b * j d.,.m.U.C S ' J _ J v Z Z x x j l l u u t t t t t : C >.D M N #.l a C.I = ; * = @ x 5.p z.~ 4 f ",
"| } V ! = u A 3.S ; _ z b x - r.Q.H.U.U.x C k k j B x k C =.J G A =.A $.>.$.=.=.G : &.u.h G N &.;.z C.c X # : j n 3.8.s j.~ 4 s ",
"| | f ! = u A _ A > ` z v v > a.W.U.>.i.C b =.=.m J ,.C =.s.i.w.G p.d.>.;.D %.r.r.n d.y.#.C >.>.w.z x.I X = O e A N.h.3 l.~ 4 l ",
"^ ^ p a = u G 3.m - ' c b b r a.Y.Y.s.Y.:.A ;.,.J =.S.w.=.s.s.i.;.U.p.p.w.;.;.=.,.C =.:.n j A ,.J l c.z X % - u Z b.b.p j.v 3 4 ",
"2 O = p , j ;._ A > ' z b k r ;.w.w.w.w.J S ;.;.G ,.w.J :.p.i.i.A ,.J G A D K.a.i.x ; > x S x t t 3 c.z X = j j C T.N.p ` c 1 4 ",
"&X(.c ~ # d >.h.w.t _ 9 k b > e.d.s.i.,.J J n.,.w.w.v.5.J J ;.=.G M D G x A C A B u m u -.=.5.b : ; h.l . = j A N.T.N.s 4.c 7 z ",
"'.(.c ~ = u >.A._ - ' h.m L.a.P.R.,XE.L.:.J e.i.m.p.=.J C J s.a.a.%.>.L.D C J A S -.$.B ,.A A b : x -.k x a r x _ v.m.p ' U W z ",
"%X!.c ~ # j a.U.g.- j.Q.t.P.5X6X9X6X,XE.;.-.w.i.w.,.:.g.Z Z >.e.K.e.$.d.=.J w.J A -.G x M.v.7.Z J y.I.t.i.a u B N.T.m.3 3.U l 4 ",
"%XO.c ~ * b i.Q.G.- x.4XW.P.lXxXxXzX6XR.e.J J J Z S J H S C w.m.i.>.p.K.A ,.J 7.,.,.,.l G N.w.J v.G.iX7X*Xi j H V.T.m.p 4.! I , ",
"%Xk.c c 6 x H.W.M.* z.8XL.P.0XlXlXqX2XJ.%.A A C C b S b b Z J n.M.,.v.w.B A -.-.:.J H Z g.b.g.g.5.m.4X3X%X: G G 9.G.m.p 4.! K 1 ",
"F.k.c Z * l a.Y.h.> x.T.#.I.<.u.J.J.t.&.%.L.H.E.a.b b b v b v b B x d f b 5.v.i.i.n.-.l c b l Z C N.y.h n u J J V.M.s.p 6.V 0 < ",
"| k.c U = t w.G.G.t 9.I Z 4.> N u.J.t.F %.H.L.f.w.j l Z J x h.c.b.3.H x l b C C x c x J v.-.=.5.S 9..XB = a l _ 6.n.S.s 6.c 4 s ",
"!...c Z = l y.L.L.k ' v l l - > N #.&.F r.a.S.m.J D %.=.J D J D J A J A a a t 1 #.,Xm :.w.p.n.v.c 9.{.c 6 : U ] V T.m.s 6.c g c ",
"U ) c U * l t.P.E.h _ T a b h h F ;.;.%.r.a.U.K.J $.i.s.p.s.U.s.S.w.n.:.t b J c D J.C :.J x :.J x ' `.z , 1 ] ] c 8.N.p 6.! g s ",
"^ ^ c Z * l t.E.E.r [ v l l F u.y.K.s.D e.p.p.w.C D d.U.S.n.S.n.J n.n._ 3 -.] H l 1 J S.:.J g.H l ` x.l ; ; v Z I 5.N.f 4.V g I ",
"^ U c U 6 k y.K.p.k ] v l : M y.m.m.w.m J v.p.p.A D m.U.n.M.W.v.J p.n.S t S Z C t 3 v v l U U v l ~ x.v , 1 z v c 4.8.s 6.c g I ",
"^ U c Z # u ; 7.H = ] z : - >.Y.w.D.D.G G n.n.D.v.e.S.U.Y.f.S.w.w.M.n.h.l a x x m b B d.p._ 3 l 3 c j.I , 1 U Z t x 5.s 4.V g c ",
"^ ^ c v # d . % x = _ ] : * =.d.e.d.p.J w.p.S.M.g.J w.g.5.w.h.J w.g.J _ ~ t t #.#.M G J ,.v.v 3 l ~ 6.c ; 1 1 ] l c 4.s 6.! s c ",
"^ ) c ~ # u j c p # B 5.m * > #.t.r.N > x J A g.J a l a l : l z z l l a a a i $.#.> t S H h.h.Z U U _ x = @ 2 v c b.q.f 6.V I c ",
"Y ) c v ; x $.S # i x x h h t ] j.~ o o o O o 6 6 z U = = = * ; * ; ; ; - i t $ * % > > * t ] Z.`.] 6.e o 4 ~ a ) +XB.S 4.! s I ",
"Y ) c c : p t >.* X t * @ n H C.9.~ d f z = l I c ; - @ # % ; % * * * @ O @ @ @ @ $ $ f U 1 d q.{.j.A   ; Z , U Z.0.( s _ c a c ",
"U ^ f c # f 1 z =.* . > o   o > @ y F &.&.&.&.u.u.u.#.~ u t t t : : t t : N <.<.&.<.<.<.1.#.y @ ; 7 . - v = 1 F.k.I ! O ` c s c ",
"U I = ' ; o s ; z _ @ . * ; = 1 d H y.P.R.R.1X1X,XR.m.~ % .           ; a 1.R.,X,X1X,XR.,XI.B a a : 3 c X 2 F.k.s a # # V.1 a c ",
"v , I j.q.=   z z ~ B.a . i l x B B l x m j x j u k t - a 9.' V Z ] ] 3 @ # > - r u i t p p s l t * @ X ; F.x.c 1 X # T.`.s d d ",
") 3   9.q.q.#   a 1 ~ l.V.c.C.V.C.C.C.Z.Z.C.Z.Z.Z.V.V.l.q.6.1 = 1 s / ` q.B.V.V.V.C.Z.V.B.B.8.6.6.6.8.6.7.4.2 =   o F.XXU X s d ",
"^ 3   O k.j.9.. X O o , a s z z c I c T U U U I U U I I U ^ z.x.C.z.` s c ~ ! ! ~ ~ ! U I l 1 : 1 = # # o X . .   C..X) O X a p ",
"I 1 X   . | } z.`.z.l.'.[.[.[.[..X@XoX@XOXOXoX@X@XoX@X.XOX'.} 4.~ ( '.$X.XOXOX.X.X.XOX.X.X.X.X{.C.XX{.'.'.q.z.'.Z.q.Y     # f c ",
", , O X . , I ( | ) ^ ..9.| 9.| k.~.z.k.0.z.~.z.~.`.~.z.~.q.9.9.| 9.9.z.0.~.~.z.0.C.`.z.q.`.~.~.q.z.q.j.9.( ^ q.9.I = O , 4 z ~ ",
"2 2 O O X = 4 4 z ) | k.k.z.z.k.k.k.| s & & # s ` ` 3./ ( 4.4.4.` 4.~ ^ 3.3.( 4.s # , 2 f } 0.| k.k.| 9.| ..^ z 7 4 # O , 3 I z ",
"x 1 # # # ; L +.~ ` z.#X#X#X#X#X[.{.9.Z p # # d 8.8.8.8.8.8.8.8.8.b.4.8.8.8.8.B.c o # p V 9.].@X*X*X*X*X@Xj.' ~ +.7 $ . = p f f ",
"c f = % 1 f ~ ~ ~ v U ^.[.[.oX}.~.} ` I p # # 1 V d V d d d V f x c a f V c c V ; # % a c ~ } z.}.@XoX[.^.` U Z / ~ p # 1 p V x ",
"2 s = # 1 c ~ ~ s I 3 z | k.k.' p = 9.V 1 @ O # a i i a a i i d d a = i p t t a % . @ ; f ~ 1 I q.k. .) a z c = V ~ ; # ; a V c ",
"X 1 1 , 1 f ~ ! a c 3 ~ q.`.`.z.( g 4.U s # , f ^ ( ! ( ! ~ / g d ! g ! ( ~ ~ ( s , 1 f ! ~ I 9.].'.'.q.1 s ~ p V / a # p f c c ",
"= = , # # # 1 f 1 a 1 I ` 9.0.9.( ~ ( ! f . s ~ ! ^ ^ E ( ( ~ 1 ; ! U U ~ ( ( ( ~ f s I ~ ^ ^ 9.0.q.k.^ X I ^ I ~ ~ = # c z ! V ",
"X X .   , O f ! # f , c 9.C.`.q.c , / g p # # < X.7 7 7 7 8 8 8 1 X.X.X.o.X.X.q . = . , f c 3 ` x.`.C.U X 4 p # ~ ( = # X 1 V c ",
"X X . . O = ~ ~ ; 1 = # , , 1 = ; X p ~ f , p 5 Q g P P P g 7 g ; X.o.Q X.w w 7 # 1 # a ~ , O = , 1 ; , # # # p ~ ( p # O = p p ",
"O O # O # O # , # X X X X X . . . . # ; = & 1 # O % # # # # O O # % % # % % % # # # # # 1 , # # # # O # , . # , 1 , # # O o O # ",
"o X X X X . . O O O # # # # # # # & & O X . # & = # & & # & % O O # & # O # # # . . X X # O # # # # # 1 2 # # # # o . O X X # # ",
"= # O O . . # = , = # 1 1 p 1 2 p 1 p 1 = . 1 p p p p p p p p . O p p p p p p p = # X # 1 = p p p 1 p 1 O % 1 1 1 ; . . . # ; 1 ",
"o o O o O . # # # # # = = , = = = , 1 1 = 1 = , = , = = 1 # , 1 1 = ; # , ; , , = , , 1 , 1 = , 1 1 1 , = X O # # # # # # O # # "
};
