/* XPM */
static char *space_window[] = {
/* columns rows colors chars-per-pixel */
"64 64 206 2 ",
"   c #040406",
".  c #050609",
"X  c #05090D",
"o  c #0A0B0D",
"O  c #100F0E",
"+  c #10100F",
"@  c #19150F",
"#  c #060E11",
"$  c #0C0E12",
"%  c #061114",
"&  c #0C1115",
"*  c #071419",
"=  c #0B151A",
"-  c #0C191D",
";  c #121315",
":  c #191713",
">  c #1B1A15",
",  c #12151A",
"<  c #181718",
"1  c #15191E",
"2  c #1B1C1C",
"3  c #211F1C",
"4  c #22211E",
"5  c #2C261D",
"6  c #342C1F",
"7  c #0D1C22",
"8  c #141720",
"9  c #141C23",
"0  c #1A1E24",
"q  c #101F28",
"w  c #191F28",
"e  c #0F2027",
"r  c #0F2028",
"t  c #122225",
"y  c #1D2126",
"u  c #13242B",
"i  c #1D232B",
"p  c #17292B",
"a  c #1A2B2D",
"s  c #162827",
"d  c #1B302F",
"f  c #1F2630",
"g  c #162A33",
"h  c #1B2C34",
"j  c #162D3A",
"k  c #1A2E38",
"l  c #1D3334",
"z  c #1F3836",
"x  c #1C323C",
"c  c #1F383B",
"v  c #242323",
"b  c #292722",
"n  c #2B2925",
"m  c #21262C",
"M  c #24292E",
"N  c #2B2B2B",
"B  c #382F20",
"V  c #302E2A",
"C  c #352E21",
"Z  c #31302C",
"A  c #373324",
"S  c #222730",
"D  c #242B33",
"F  c #292E33",
"G  c #262F39",
"H  c #243037",
"J  c #2D3135",
"K  c #23333B",
"L  c #2C343C",
"P  c #223C3C",
"I  c #2E3838",
"U  c #343533",
"Y  c #383733",
"T  c #373836",
"R  c #3A3935",
"E  c #31353A",
"W  c #34393D",
"Q  c #3B3D3B",
"!  c #43351F",
"~  c #423621",
"^  c #433924",
"/  c #493B21",
"(  c #443C29",
")  c #3C4439",
"_  c #42413C",
"`  c #1D3641",
"'  c #1E3945",
"]  c #1E3A4A",
"[  c #203742",
"{  c #223B44",
"}  c #2B3A44",
"|  c #233D4A",
" . c #2E3C49",
".. c #2D3743",
"X. c #343B42",
"o. c #3A3E43",
"O. c #333E4B",
"+. c #203E52",
"@. c #264344",
"#. c #284547",
"$. c #26424C",
"%. c #2B434C",
"&. c #2B4A4B",
"*. c #3C4145",
"=. c #34424C",
"-. c #3D444A",
";. c #254252",
":. c #294654",
">. c #2C4C53",
",. c #25465A",
"<. c #2C4C5B",
"1. c #294758",
"2. c #314652",
"3. c #3B4753",
"4. c #314A55",
"5. c #3E4953",
"6. c #344D5A",
"7. c #3F4B58",
"8. c #2F5052",
"9. c #2F515E",
"0. c #315255",
"q. c #33565A",
"w. c #35595D",
"e. c #3A515E",
"r. c #2A4D64",
"t. c #2F5362",
"y. c #325563",
"u. c #355B63",
"i. c #3C5C65",
"p. c #355A6B",
"a. c #3D5C6A",
"s. c #395364",
"d. c #365D74",
"f. c #375F79",
"g. c #3C636A",
"h. c #3E6067",
"j. c #3A6575",
"k. c #424444",
"l. c #41464C",
"z. c #43494D",
"x. c #4B4C4B",
"c. c #484744",
"v. c #504E47",
"b. c #55554F",
"n. c #434B53",
"m. c #434E59",
"M. c #484E53",
"N. c #445157",
"B. c #4B5256",
"V. c #465259",
"C. c #4B555C",
"Z. c #4D5A5C",
"A. c #535553",
"S. c #565956",
"D. c #5B5C55",
"F. c #51595D",
"G. c #565B5C",
"H. c #60615D",
"J. c #4E5A62",
"K. c #415E6B",
"L. c #4A5B61",
"P. c #525B61",
"I. c #595E61",
"U. c #415E71",
"Y. c #42636B",
"T. c #456A6F",
"R. c #576063",
"E. c #5A6567",
"W. c #5C6768",
"Q. c #5B686B",
"!. c #55696F",
"~. c #426373",
"^. c #456578",
"/. c #476B7D",
"(. c #446D73",
"). c #556970",
"_. c #4D7278",
"`. c #50777E",
"'. c #696A66",
"]. c #646B6B",
"[. c #6B6C6C",
"{. c #71716D",
"}. c #727472",
"|. c #7D7F7C",
" X c #7B7C76",
".X c #7F807E",
"XX c #82837B",
"oX c #4F7883",
"OX c #818482",
"+X c #868987",
"@X c #898B89",
"#X c #878A88",
"$X c #939591",
"%X c #9C9E9A",
"&X c #979996",
"*X c #9DA09B",
"=X c #A0A29E",
"-X c #AAACA7",
";X c #ACAEA8",
":X c #A6A8A2",
">X c #AFB1AB",
",X c #B2B3AD",
"<X c #B7B8B2",
"1X c #BBBCB5",
"2X c #BDBFB8",
"3X c #B5B7B0",
/* pixels */
"4 v v 3 ; 0 ; $ o o . . . .       O 3 4 4 4 v N N 3 3 4 m v v b v v 5 2 2 > < 2 v 3 2 , 2 2 + .     . . . . . o + ; ; ; ; v m n ",
"; 3 v v 3 3 3 ; + . . . . o o     o 3 4 v n b b N N U _ ( W R R R Y Z Y _ Z b v 2 2 > 2 2 3 + .   . o . . . . o ; ; 2 ; 3 3 3 < ",
"o ; 3 3 4 4 2 3 < O . . . . O o o o 3 3 2 2 3 3 4 3 v x.( N n V n n b Y x.v 1 3 2 2 < : 3 3 + O . o       . . ; < 2 8 2 8 2 , + ",
"o   + ; + ; ; + o .     . o + O < o < 3 3 3 0 4 v 4 v Y V V V V Z V V V T b 4 4 3 2 < < < , o < $ O O   . . . o o o < + + + o o ",
"    . o   + o   . . .   b U ; o < . o O o + o ; < : + o O V Z 8 3 3 Y ; o + : : ; + ; o . o . < o + N v     o o .   o .   . .   ",
"o .   : @ $ o . o o .   ; 3 . . .   + 3 : < < 3 b 4 5 + O c.( 5 @ V v.< + v 5 4 3 < 2 : : $   . . . ; ;   . o o . . $ .   . . . ",
"  . o $ o ; , $ $ ; ; ; $ $ $ + ; ; 2 v 4 v N N N U U N N ( o.V N Y ) N N Z J v N v y 3 3 2 , $ + o $ $ , ; , $ $ $ 8 o o o .   ",
"  . o + $ , m m w F F L L F F N F J J J E T c.{.'.|.|.XXXXXXOXXXXXXXXXXX X{.{.H.[.x.Y M N M F F v S F G S S S 0 8 < < $ $ + . . ",
". o $ $ $ ; , , ; ; ; , ; $ , $ + ; + + $ 2 v N T T ( b.D.D.D.H.D.D.D.D.A._ ) T U N 0 $ $ $ + o $ ; ; ; ; $ $ o o o o $ $ $ o . ",
"o o $ ; $ o + $ $ ; , , ; ; , ; ; ; 2 0 v m U W o.k.l.b.D.b.c.b.v.x.A.S.S.x.c.k.W T N 2 < < < , ; 8 ; , ; $ $ . o $ o . $ $ o o ",
"8 8 8 w w 8 ; v S J J F L F m m m m F E o.x.{.%X:X,X,X<X2X2X&XoX.X$X1X2X2X<X3X;X%X$X@XA.o.W E L F F F F S 0 w 2 , , ; ; 8 w w 8 ",
"8 $ 8 8 0 8 8 w J F F F J N w v N m J Q k.A.}.%X:X,X,X<X2X2X2X%X$X1X2X2X2X<X3X>X%X$X@XB.X.E E J F F F S S w 0 0 0 8 8 , , 8 8 8 ",
", 8 8 8 8 0 8 w F F F G E m ; 2 0 2 0 m n m S.&X=X-X-X>X<X<X<X:X$X,X1X1X<X,X,X-X%X@X|.z.E E F F G S S S S w 0 0 0 8 8 8 ; , 8 8 ",
"$ 8 , 8 8 8 8 < m S S S m S m v m S J Y o.o.A.}.}.|.|.OX+X#XOX[.'.OX@X@X#XOXOX|.}.'.].Q J M m m w y 0 2 0 8 0 0 , , < 8 , $ , 8 ",
"8 $ .   . , 8 8 w w w i w i i i S S S S D G G ..O.O.O.7.m.m.M.C.P.B.n.m.m.7.3.=.O.O.X.H D S S f i w w w w w w w w $ o     $ 0 0 ",
"m ,   . ; i w $ , ; & & = , $ $ $ , 8 w w i S G F F E ..o.m.M.C.I.B.n.-.O.X.} X.X...L L G D 0 9 8 , 8 8 $ , , , $ , $ o . ; S w ",
"o.m . 8 m S o   o & < ; ; , 1 1 , 1 y y y y y m v S m S E F.I.C.F.P.P.X.F F D S F F S S S G m < ; $ $ $ ; < ; o   X 1 & o $ M M ",
"x.Y , i S o   , & 9 =.%.2.%.:. .x D h S h L %.K [ ....}  .2.6.s.U.U.U.U.^.^./.oXs.e.6.2.2.2.} k i w f i h ..9 , $   & m , , F E ",
"x.o.0 G $ $ 8 = & i l d G K K K G h t - u K t 9 q q q q g k | +.<.<.r.f.d.d.j.p.6.+. .| | [ k g 7 7 u w - S S # $ , o , G 8 J E ",
"c.*.w i o 8 $ . & = u 7 % % # # % % w h f - $ # $ * = 7 8 7 u g k | r.,.;.1.1.,.| K k k k h u 7 7 7 7 u 7 = w , . o , $ L M F E ",
"c.*.f i , , $ 9 = % t 2 X X X % 8 X # = # o X X X # X # * * 7 r ` r.r.] +.| $.| K h h h f g q 7 8 7 7 # 8 = = 9 9 $ , 9 L S E E ",
"Q o.i i 8 w i q & # O O     . O = . X . # X .     . . X # * u ' +.,.+.] ] ` ' x k h k k k u 9 7 7 * = % # = - * 0 y 0 m ..S Z J ",
"F E i i 9 S h 9 & # X   . . X . X . . X % . . .     .   # 7 g j g ` g g g g g h x K k G h u q 7 * * * * # X 7 = - h D G G i m w ",
"E E f i , a h 9 = # X # % % % & & # # X X . . . X X X X X # * * * 7 7 q r 7 q g ` +.x g g t 7 7 * * % % # # X 7 u h ..S E m 4 0 ",
"U E m i = y l 9 = % o - - & - & & 8 = X # X X # # . # . X # # % * * 7 e 7 e r ` ` ] x g i t 7 * * * % # # % X % 9 K D y X.M 0 y ",
"W E i m = i K u - & $ t @ % % # # $ = X X # X & ; # X . X X X # * * 7 7 7 e e g ` ] x k g g 7 = * % % # X X . # - h G i X.M 0 0 ",
"E E i i , i { p - - & & % % % & % # # # # # # # # X X X X X X # # * 7 7 7 7 r j x ` g u u u 7 = * * % X X . . % - k G i =.S 2 t ",
"F F 8 9 ; i { a t - - = % - & & * # # # % O # % = % # # X X X X # * * 7 7 q r ` k g q q w t 7 7 ' ` * X X . . # - D G w X.i 2 2 ",
"3 $ , 1 , i { h t - - - - t - - = % & & & % O % % # # # # # X X # * r q r r ` ` x u t t g g r 7 x ' * # X . . # = l G i H y 1 2 ",
"I.c.i m = i #.l s t s - - 1 t - - 1 = = % = - % % % % * - = % # # 7 r r g ` ` ` j t r u g j g q 7 7 * % # X . # - h G y L i v y ",
"B.z.m S = i &.x s s s 7 1 t t s t s = - - - - - - & & * - = & # # # * 7 r ` ` g r e 9 7 t g r 7 7 * * # X X . # - h D i L M N v ",
"Q.l.m S ; i &.{ d s Z ) s t - s t - - - t - - - 1 - = & & * % % # # 7 7 r j ` j g r 7 7 9 8 7 7 * 7 * % # X X # , k G u L M y 1 ",
").k.m m & a 8.{ d s d z s e e s t - t - - - - - - = - = * & % % * * * - u j x j j u 7 7 7 9 7 7 7 7 * * # # # # - k H i L M i 1 ",
").*.i i , M 0.{ z d d s t s s s s t t 7 1 t 7 7 - - - * = * = * * % = 7 g j x x k h u g h h g q 7 7 * * % # X # - x H i L i v ; ",
"N.*.m i $ M 0.@.z d s s s s s s s t e t t t t e 7 - - - - = = = * = = e g g j ` ` x x [ [ k g 7 7 * 7 # % # X # - %.K i L i 5 > ",
"Q *.i m & h 0.#.z d s s s s s d d t s p s t t t t s s 7 - = = = = - = e g g x x k k x [ x k g g 7 7 7 7 * X . # 7  .L i L i 2 y ",
"*.W i i & M 0.@.z d d s s s s s s s s p p u e e 7 s 7 7 7 7 - = e * * - u j g x k k k k x j r e 7 * * * # X . # - K H i ..m y v ",
"N J m a = a w.#.z z d d d d z d s d p p p u s r s 7 e e 7 e 7 - - - - - e g j j k g x k x g r 7 * * * # X X X # 7 x G i L a y w ",
"F F w m = d w.&.) z P d d d d z d p d p p p r p t s e t 7 9 t 7 - e 7 e e u g g j x x ` x g r e 7 7 # # # # X # - K G i L m y v ",
"F M i m * l w.&.P P z z z d z z l d d d p h p p p p t t t t t 7 e e u 9.r r u r g ` ` ` x g x j r q 7 # # X X # 7 { G i ..m y m ",
"M N i i = h i.8.@.P z z z z z z l l l l l d g p p p u u t u t e 7 7 t p 7 r r g g j j ' x g r u e e e - % X X % - { L i L m y v ",
"F J i S , S g.0.@.@.@.z z z P z c c c c j l l l g p g x h u t e e e e e u u j j g ` ` ;.x u r r e e * - % # X % -  ...u ..a i i ",
"F J i i = K Y.q.8.&.@.@.@.P P @.#.>.@.@.@.j j c l l p | l p u u u u t u u g g g j j x ` ` g u r e 7 7 * * % # & 9 #. .f L m y m ",
"N J i m , } _.g.g.&.@.@.@.@.@.@.$.#.@.{ @.{ c c x c x x x j h g g h p g g p j x x ' ' x k j g u e 7 e - * = % = 7 4.3.G L m w i ",
"F J w m 1 I L._..Xw.&.&.&.#.&.8.&.&.#.@.#.@.@.' @.` ' c { x x k x h k x x ` x ` ` $.$.x x j h g g u u r 7 7 7 7 K 2.L i K i 0 i ",
"M N w u & y M Z.g.w.8.8.8.8.8.q.>.8.>.>.>.>.&.&.$.$.@.$.$.{ | | { ` [ [ [ | | ' $.;.| $.| ' ' { ;.;.:.' g x r { %.i i & L i 0 w ",
"M v 1 J 1 % t v w.j.g.w.u.w.w.w.q.w.u.w.q.9.<.>.8.>.>.:.:.:.1.:.$.$.$.$.$.;.;.;.<.p.y.y.y.y.p.y.t.t.9.9.<.1.:.%.9 , % 1 O.9 0 w ",
"m 1 y X.W , o 1 s w..Xj.j.g.g.g.g.g.g.g.g.u.u.u.y.y.y.t.q.y.s.s.t.y.t.9.9.t.9.y.j.p.p.p.p.y.y.t.t.9.<.1.1.s.s.f , o , 5.-.0 w w ",
"M , o E X.X.$ . 0 0 N.~.g.i.g.Y.Y.Y.Y.Y.Y.h.Y.K.i.i.i.i.K.K.U.K.Y.K.K.a.K.a.s.^.oXK.K.K.a.i.6.<.8.>.4.4.6.2.9 ;   & 3.m.M o 0 w ",
"N 9   ; W X.E $ $ $ $ 9 0 y m v M S M F J D D D F D D F F O.M.C.P.m.O.J F F F M D G F F S y 1 , = & & $ # $ $ o $ =.M.E ; X 9 8 ",
"b , X   o E ..o.-.o.o.M.B.B.B.B.C.P.P.P.P.P.P.P.P.J.F.P.P.l.E ..F L n.P.C.J.J.J.C.J.P.J.Z.C.B.V.5.V.m.m.n.X.X.n.3.o.F .   ; 0 i ",
"< ; o X . < m J E J J E X.o.W X.-.l.l.o.X.-.-.o.l.n.l.l.l.o.X.X.X.X.X.-.o.l.l.3.o.-.l.O.o.n.l.l.o.*.*.o.o.J J X.W M $ o ; , y M ",
", , $ o . $ 0 3 m J W *.-.l.*.k.k.o.W m < ; ; 0 L L ..L L L ..G L L F L ..G ..L w < , 8 m X.o.*.-.-.-.*.o.E F m v 0 $ . ; , m w ",
"w , $ $ $ 8 b ^ F I *.P.E.W.W.E.C.n.X.m 8 $ $ w .. . . . . . . . .O.L  . . . . .w $ $ 8 i E n.F.].].].W.G.X.L D ( v & X ; 9 w w ",
"i 0 , & 2 0 D D S M D z.F.F.G.Z.l.W L S 8 $ $ 8 f i i i w i i i i i 8 w w f f w , $ $ 9 i D X.l.P.R.R.F.z.I M m F m 8 $ , 9 i i ",
", 0 & $ , w D D u m 2 M W -.-.W v 8 L S 8 # $ $ 0 9 q 8 8 q w q w w 8 8 w w q w , $ # 8 i m 0 F *.-.*.I i y i , f D , $ , 9 i i ",
". , , $ , 0 S m 0 w 0 m X.n.l.*.F i J S w o ; 0 S S S S S S S w w i w S S S S S 0 , , w m S m E n.n.l.X.2 y m 0 f D 8 $ 9 0 i i ",
", ; , + $ $ 8 w , 1 1 m L o.o.X.J S F S w o 0 m J F J N F N S 8 , S F N J J J Z m 0 2 w S F F X.o.-.o.F o m S m D S , $ w w m m ",
". . . . , $ 0 m , 0 < i W -.-.X.S , D w 8 $ ; 3 ! 3 4 4 4 4 3 3 , ~ / ! / / ! 5 $ , . , i i 1 J -.l.O.M $ < 8 ; S F , $ o , i i ",
"o . . . $ $ m M , , $ $ = , , , ; o 8 f w ; , < n v v b v v 3 2 < C ^ B B 6 b 3 $ , $ 0 m < $ ; , , 2 $ $ $ $ 8 S G , $ o $ 9 9 ",
"o o O o + $ $ , ; . . o o . o o o o $ , , $ ; ; ; ; $ ; $ , $ $ $ , & , ; ; , $ $ $ $ $ , $ $ $ $ $ $ , $ o $ , , , $ $ $ $ o $ ",
"o . . . . . . $ $ $ o $ $ $ $ $ $ o $ o o o $ $ + $ $ $ $ $ $ o o $ $ o $ $ $ $ o . . . $ $ ; $ $ $ $ < ; o $ $ $ $ . . . . $ $ ",
"$ $ $ o . . $ , $ $ $ , , , , , , , , ; $ o $ 8 8 8 8 8 8 8 8 o o 8 8 8 8 8 8 8 $ $ . $ , , 8 , , , 8 , $ , , , , , . . $ . , , ",
"o o o o o . $ $ $ $ $ $ , , , , , , , , , , 8 ; ; ; ; ; & ; ; , $ , , , ; ; ; ; $ , < , , , , , , , , , $ $ $ $ $ $ $ $ $ $ $ $ "
};
