/* XPM */
static char *wallspace[] = {
/* columns rows colors chars-per-pixel */
"64 64 177 2 ",
"   c #030304",
".  c #050609",
"X  c #08070A",
"o  c #07090C",
"O  c #0A0B0D",
"+  c #100F0F",
"@  c #14110C",
"#  c #1B140C",
"$  c #070C13",
"%  c #0B0E12",
"&  c #070D18",
"*  c #090E18",
"=  c #100F10",
"-  c #0E1115",
";  c #0E1319",
":  c #0F181F",
">  c #121315",
",  c #1B1712",
"<  c #1B1A15",
"1  c #12151B",
"2  c #181718",
"3  c #15191E",
"4  c #1B1B1C",
"5  c #211D16",
"6  c #211E1C",
"7  c #23211D",
"8  c #2A251C",
"9  c #2E2516",
"0  c #342C1E",
"q  c #392E1D",
"w  c #121720",
"e  c #151A22",
"r  c #1A1E24",
"t  c #161E29",
"y  c #191F29",
"u  c #211F22",
"i  c #1D2125",
"p  c #17212C",
"a  c #1C232C",
"s  c #1E282E",
"d  c #1D2631",
"f  c #1E2931",
"g  c #232423",
"h  c #292623",
"j  c #272926",
"k  c #2A2825",
"l  c #22262C",
"z  c #23292D",
"x  c #2B2B2B",
"c  c #302E29",
"v  c #2F302F",
"b  c #373325",
"n  c #3D3321",
"m  c #3E3920",
"M  c #33322D",
"N  c #38352E",
"B  c #212730",
"V  c #272C36",
"C  c #292E34",
"Z  c #242E39",
"A  c #2A2F39",
"S  c #233037",
"D  c #2C3136",
"F  c #25323B",
"G  c #2C333C",
"H  c #2E383F",
"J  c #313332",
"K  c #383732",
"L  c #353833",
"P  c #3B3A35",
"I  c #31353A",
"U  c #34393D",
"Y  c #3B3C3C",
"T  c #463016",
"R  c #493518",
"E  c #4E3A1C",
"W  c #523D1A",
"Q  c #513B15",
"!  c #403320",
"~  c #513F23",
"^  c #403E3A",
"/  c #43423F",
"(  c #48443C",
")  c #273442",
"_  c #2C3641",
"`  c #2C3943",
"'  c #2B3E4D",
"]  c #323740",
"[  c #343C43",
"{  c #393E43",
"}  c #363F4A",
"|  c #393F49",
" . c #2C424B",
".. c #3C4144",
"X. c #35424A",
"o. c #3C444C",
"O. c #3F494D",
"+. c #2B4151",
"@. c #2E4853",
"#. c #334353",
"$. c #384756",
"%. c #314B56",
"&. c #3C4A53",
"*. c #354E5A",
"=. c #3E535C",
"-. c #3F5360",
";. c #434545",
":. c #40454D",
">. c #47494A",
",. c #4C4D4D",
"<. c #514E4C",
"1. c #4F514F",
"2. c #54544D",
"3. c #58584F",
"4. c #414750",
"5. c #424B54",
"6. c #4B4F52",
"7. c #424F59",
"8. c #465154",
"9. c #4D5254",
"0. c #45535D",
"q. c #4B565C",
"w. c #4D5A5D",
"e. c #535553",
"r. c #585652",
"t. c #5C5B52",
"y. c #505558",
"u. c #515C5F",
"i. c #475661",
"p. c #4D5B64",
"a. c #535F65",
"s. c #515F68",
"d. c #576265",
"f. c #5E6367",
"g. c #546169",
"h. c #596669",
"j. c #5E6C6D",
"k. c #566570",
"l. c #506D73",
"z. c #587176",
"x. c #557279",
"c. c #636462",
"v. c #666966",
"b. c #696967",
"n. c #606E6F",
"m. c #6B6D6C",
"M. c #71716D",
"N. c #657373",
"B. c #747674",
"V. c #787972",
"C. c #7C7D7D",
"Z. c #7F817F",
"A. c #83847D",
"S. c #838482",
"D. c #868887",
"F. c #8B8C84",
"G. c #8B8D8A",
"H. c #8F918F",
"J. c #909087",
"K. c #90928F",
"L. c #959694",
"P. c #9A9A97",
"I. c #9B9D99",
"U. c #9FA39F",
"Y. c #A2A49F",
"T. c #A5A7A2",
"R. c #ABABA7",
"E. c #ADAFA9",
"W. c #AFB1AB",
"Q. c #B2B5AE",
"!. c #B4B6B0",
"~. c #B6B9B2",
"^. c #BBBCB5",
"/. c #BEBFB8",
"(. c #BEC0B8",
"). c #C4C5BD",
"_. c #C9CAC1",
/* pixels */
"g h h 6 = 6 2 = % X . . X .     . O 6 6 g g h x c 4 6 7 8 h 8 j 8 8 8 6 < < 2 6 h 6 4 < 4 4 - .     . . . . . % % = 2 = 2 u x c ",
"= 6 u u u 6 2 > % X . . . O O     O 8 u g j j k x c N ;.P P Y P P Y L P / v j i 4 4 3 < 4 g @ .   . X . . . . X ; > 1 > 2 u u 2 ",
"O > 6 u u 6 6 4 2 = . .   . = X X O 6 h < 4 6 4 6 4 4 r.P 7 k 8 8 8 7 M e.7 < 4 4 4 4 > 6 7 + O X O     . . O > 2 6 2 u 2 6 2 O ",
"X   = , = 2 = + O         X = = 2 X < 6 4 6 6 g h g g ^ M M M N L c c M ^ j 7 7 4 4 < < 4 > X 4 = O X       . O O O > - = > X X ",
"    . .   % X   X X     x ;.> X 4   O O . > O = , @ +   . N k > 7 < P O   O @ @ + + > . . o   4 % O J x     X X     = .   .     ",
"O X . , # % +   O X .   = u .       O 8 # > < < h h h +   2.( 9 @ b t.+ O k j 8 4 < 4 # # O     .   1 =     X % .   =     X . X ",
"  X X % O ; 1 % % % ; = $ O O O > - 4 g g g j j g M M k h P P k k M ( k k k M i j g g 4 r 4 > > O o % O % 1 1 % % % 3 % $ O X . ",
"  . % = = 1 l V l A A ] ] I I C U I D I Y I <.A.M.G.D.F.J.A.F.J.J.A.A.A.A.Z.Z.v.B.e.Y C C D G I x C G A A V V r e e 1 % * O . . ",
". X % & O ; 1 1 % = % % % O % O X O O O . > g r M v v <.2.2.t.e.3.3.3.3.2.P L v j x 4 . O O o o % % ; = X % O O O X X = * % . . ",
"o X % = % X O % O 1 > - > > > > = 1 4 4 g x x J U Y ^ ,.e.e.U :.1./ 1.9.1.>.;.U J v j 3 > > > > = = ; > = % % . X % . . % O % X ",
"w w e y y w 1 u C D D D I C z z z x I U :.6.B.R.E.^.^.).)._.P.C.Z.U.(.).).).(.~.T.I.L.9...[ I G G A A A V y y e > 1 1 ; w y e e ",
"; ; w e e y 1 y A C A A D z r l z z x I ;.,.B.I.Y.Q.Q.Q.^.~._.I.F.(.(.(.~.~.Q.E.I.H.G.9.U U G D C V V V B e u r y 1 e ; ; w e w ",
"w w w e y r w u A A D D ] z = 2 1 4 4 l j i y.T.Y.Q.W.Q./././.T.L.(.(.(.(.~.~.W.U.H.D.:.I I A A V V B B l y u y y e w r w 1 e w ",
"; ; 1 w w w e > g z z z z z l l l C I Y / ..e.B.B.C.C.A.D.G.D.m.c.Z.G.D.D.S.S.A.B.b.m.I D x l s u r r e r e e e > 1 1 1 1 % 1 1 ",
"e % .     % 1 t t t p p p d d d d f f f Z Z f ) ) ` ' #.#.} &.7.w.&.X.$.$.#.' ' ` ` ) Z f f f d d a y y y y y y y % X     O u e ",
"l 1     - d a * ; ; % * * * $ o % * : y t t f S F G _ G o.q.5.y.h.9.6.&.X.X.[ ` ` ` _ G F f e e 1 1 1 1 * 1 w ; % 1 ; X . - V a ",
"/ l   3 a Z .   X % % O ; > 3 1 > 3 r r r i r i u l l u D a.f.7.9.a.d.I l z l l l l l l l A u > - % % 1 % - 1 X   X e - X O z l ",
"<.U * B Z X   1 % 1 A A A G ] _ G G I _ G I G G A ] G G I D A A ] G A G I _ I G I I G A G ] ] G G A A G G } 1 3 -   - S - ; I G ",
"<...w ) o   p ; * V A V V V C B V C B V C V V V V V V V V V V V V V C B V V V C V V V V V V V V V V V V B ] s O % 1   1 G 3 D D ",
"<.{ e B . y %   u A V V V V V V A V V V V V V V V V V V V V V V V V V A V V V V V V V V V V V A V V V V V V A w   O w X ` B D I ",
",...p s - 1 o s A V V V V V V V V V V V V V V V V V V V V V V V V V V V A V V V V V V V V V V V V V V V V V V A y o 1 1 ) B G G ",
"Y { p d : p B A V V V V V A V V V V A V V V V V A V V V V V V V V V V V V V V V V V V V V V V V V V V V V V V V G r r s ` B D I ",
"C D d a : V Z V V V V A V V V V V V V V V V V V V V V V V V V V V V V V V V V A V V A V V V A V V V V V V V V V V V F F V a i i ",
"I I a s - s A V V V V V V V V V V V V V V V V V V V V V V A A V V Z V V V V V V V V V V V V V V V V V V V V A V V G ` a H z 4 i ",
"L I a l $ 3 G V V V V V V V V V V V V V V V V V V V V V V V V V V V V V V V V V V V V V V V V V V V V V V V V V B _ Z e X.B 4 r ",
"U I s d - e G C V V V V V V A V V V A V V V A V V V V A V V V V V V V V V V A V V V A V V V V V V A V V V A V V V ` F e X.C 3 i ",
"I I a d % e A V V V V V V V V V V V V V V V V V V V V V V V V V V V V V V V V V V V V V V V V V V V V V V V V V C ] F e X.B 3 i ",
"D C w e - e A V V V V V V V V V V V V V V V A V V V V V V V V A V V A V V V V V V V A V V A V V V V V V V V V V B _ Z e X.s 3 4 ",
"4 X ; e - e A V V V V V V V V V V V V V V V V V A V V V V V V V V V V V A V V V A V V V V V V V V V V V V V V A V ` S e G p 1 i ",
"v.>.a B - 3 A V V Z A V V V A V V V V V V V V V V V V V A V V V V V V V V V V V V V V V V V A V V V V V V V V V C ` S e G s 6 r ",
"8.>.a f - e G B V V V V V V V V V A V V V A V V V V V V V V V V V A V A V V V V V V V A V V V V V V V A V V V V B ` S 3 H s M 7 ",
"z...d V $ 3 G C V V V V V V V V V V V V V V V V V V A V V V V V V V V V V V V A V V V V V V V V V V V V V A V V V _ S p H s i : ",
"l.{ a C % u A V V V V V V V V V V V V V V V V V V V V V V V V V V V V V V V V V V A V V V V V V V A V V V V V V V ] A y ) V u w ",
"z.{ y a % w A V A V V V V V V A V V V V V A V V V V V V V A V V V V V V V A V V V V V V V V V V V V V V V A V V V ] V w ) u u ; ",
"=...B B % e A V V V V V V V V V V V V A V V V V V A A V V V V V V V V V V V V V V V V V V V A V A V V V V V V V V A B y _ d 8 5 ",
"Y ..y B % e A V V V V V A V V V A V V V V V V V V V V V V V V V V A V V V V V V V V V V V V V V V V V V V V V V V A B y _ B 3 u ",
";.I a f $ w A V V V V V V V V V V V V V V V A V V V V V V V V A V V V V V V V V V A V V V V V V V V V V V V V A V A f y _ s r i ",
"x C a z $ r A V V V V A A V V V V V V V V V V V V V V V V V V V V V V V V A V V V V V V A V V V V V V V V V V V V G s r ` d 6 a ",
"D C p f $ r A V V V V V V V V V V V V V V V V V V A V V A V V V V V A V V V V V V V V V V V A V V V V V V V V V V A d a _ d u a ",
"x C p z % r A V V V V V V V V V V V V A V V V V V V V V V V V V V V V V V V V V V V V V V V V V V V V A A V V V V A d a _ d u g ",
"C z p z * e G C V V V V V V A V V V V V A V V V V V V V V A V V V V V V V V V V V V V V V V V V V V V V V V V V B ` F t ` d r l ",
"C D s s % e Z C V V V V V A V V V V V V V V V V V V V V V V V A V A V V A V V V V V V V V A V V V V V V V V V A V %.` e ` d i a ",
"C D a s * r A V V V V V V V V V V V V V V V V A V V V V V V V V V V V V V V V V V V V A V V V V V V A V V V V V B @. .t ` d i a ",
"C D p s ; s A V V V V V V V V V A V V V V V V V V V V V V V V V A V V V V V V V V V V V V V V V V V V V V V V V B $.*.V _ l r s ",
"C D p a : Z V V V V V V A V V V V V V V V V V V V V V V V V V V V V V V V V V V V V V V V V V V V V V V V V V V F  .F i F a y p ",
"z D r i o s s C V V V V V V V V V V V V V V A V V V V V V A Z V V V V V A V V V V V V V V V V V V A V V V V B _  .p f o F d 3 s ",
"z i ; G ; . r 3 ] ] V V V V V V V V V V V V V V V V V V A V V V V V V V V V V V V V V V A V V V V V V V V C F  .* 1 $ ; $.1 y p ",
"l 1 l X.[ ; . r y | ] V A V A V V V V V V V V V B V V V C C V V V V V V V V V V V V V V V V A A A A A A Z _ *.s 3 . $ 0.&.3 t y ",
"S 3   ..[ { %   3 3 F V C S C S F D F G G G G G G G G G G G G G D G A G G G G G _ G G G G Z s a y y l y a ` w ;   X 0.i.x . t t ",
"v 3   o X..._ X X o X ; : 1 r p i s s l s s s z s s s s f { q.i.p.q.X.C z z B B z B l a s 4 * O % . o . o . . .   $.i.D % . t : ",
"l > .   . U G O.8.X.o.8.q.q.w.q.p.d.a.d.d.a.a.g.g.g.g.p.g.5.A G V B 5.k.p.s.s.p.i.g.s.s.p.i.p.i.7.i.i.0.0.[ X.7.&.X.x     ; p i ",
"> - O O . > l G U D D G [ Y U U o.:.o.X.X.:.o.o.:.4.:.o.:.| ] [ ] [ [ X.| o.o.&.| &.5.o.o.5.&.o.] | | [ [ D A { ` z > X > 1 i x ",
"3 3 O O . > 3 4 i D U | ......o...{ U i > O O 3 G G F F F ) ) _ _ _ C S ) F Z G r % > 1 i I [ Y ....Y [ Y G A i 7 4 % X > 3 s i ",
"i 3 % O ; - 8 ~ B G ..h.j.j.j.j.w.8.U f 1 ; - p  .' ' ' ' ' ' '  .+._ ' ' +.+.%.y o - 1 s H 8.a.N.N.N.n.h.[ H f ( 7 * . ; 1 p t ",
"p r 1 * 1 r B Z S z z O.w.w.w.w.o.H G s w % % ; d p p p p p p p p a e t p p d d ; * * w a C H o.d.d.d.u.O.D s a l x : % : e a a ",
"3 e ; % 1 r F B y s 3 i U ....H e 1 U s 1 $ O * e : : : w : e t t e * : t : : : ; o o : p B 3 x ] ..[ A e i z ; f B w o ; w d p ",
". 1 1 ; 1 r C s 1 s 3 B X.4.5.o.V r G B r % 1 r V V V V V V V u t f a C V V C V y 1 1 p B B l ] 5.5.7.[ 3 r C e s Z w % e i a p ",
"; ; > % % % ; p 1 w 1 s G [ { [ A C A B p . r z x C z C C V V 1 1 B B V V V V C z r 4 l B D S U ..| | C   s C a S B 1 % i p B s ",
". . .   > % r B - i ; i U &.4.X.u 1 V y 3 O * < ! 6 6 6 6 5 5 5 * W Q T Q E R 9 o -   ; p i 3 G :.4.&.z X 3 3 O B D - O X ; d a ",
"X   . . O - V B ; 1 ; % ; 1 1 > ; X e V r 1 3 < b h h x h h 6 5 1 n W q ! 0 0 6 % 1 X y C ; O ; 1 1 3 > O % % e S G 1 * O - e w ",
"O O + O O O % 1 ; X X . . . . . X X % ; = % 1 % $ % $ % % % $ & % * * * * * % * ; % X ; 1 - O O O O O - > . O 1 1 - % % o o O % ",
"O . X . . . O o O O O % % % % O % = % O O . % = = % = % % = ; X X = % = % = % = O . . X O O ; ; ; % % 1 3 O % O % O . . X o - % ",
"; % O O . . O ; ; % % 3 1 1 3 1 1 1 1 1 % X ; e 3 w e w w w e . % w w w 3 w w 3 % O . O 1 ; 1 1 1 1 3 1 O 1 1 1 1 1 o . o % ; ; ",
"X O o O O % O % O % % % 1 - > 1 ; > 1 ; ; 1 ; ; = ; = ; = ; = ; ; ; = ; ; * = 1 > > 1 1 ; 1 1 ; 1 1 ; 1 % X % $ % % % % % O % % "
};
