/* XPM */
static const char *window[] = {
/* columns rows colors chars-per-pixel */
"64 64 176 2 ",
"   c #1E2437",
".  c #1E2538",
"X  c #222735",
"o  c #242837",
"O  c #202739",
"+  c #252C3B",
"@  c #282F3E",
"#  c #29303E",
"$  c #32313B",
"%  c #7B3434",
"&  c #232D42",
"*  c #282F40",
"=  c #253146",
"-  c #2B3343",
";  c #2E3847",
":  c #27354B",
">  c #2D3748",
",  c #2F3949",
"<  c #323947",
"1  c #323C4D",
"2  c #3C3D4C",
"3  c #2A3B53",
"4  c #333F50",
"5  c #573841",
"6  c #35404F",
"7  c #2E435D",
"8  c #364252",
"9  c #384455",
"0  c #394656",
"q  c #394657",
"w  c #3A4757",
"e  c #394556",
"r  c #394656",
"t  c #3B4857",
"y  c #3B4857",
"u  c #33455C",
"i  c #3A4758",
"p  c #3A4758",
"a  c #3B4858",
"s  c #3C4958",
"d  c #3D4A59",
"f  c #3D4A5A",
"g  c #3C4B5B",
"h  c #3D4B5B",
"j  c #3D4A5A",
"k  c #3E4B5A",
"l  c #3E4A59",
"z  c #3E4C5B",
"x  c #3F4D5C",
"c  c #3E4C5C",
"v  c #3F4E5D",
"b  c #3D4B5B",
"n  c #3F505F",
"m  c #2F4662",
"M  c #344C65",
"N  c #394E64",
"B  c #334D6B",
"V  c #36516D",
"C  c #3D556C",
"Z  c #365372",
"A  c #3A5674",
"S  c #3C5A77",
"D  c #3C5C7C",
"F  c #3E607F",
"G  c #4E4240",
"H  c #524540",
"J  c #594A43",
"K  c #544943",
"L  c #464657",
"P  c #414954",
"I  c #404F5D",
"U  c #404E5D",
"Y  c #404F5E",
"T  c #414F5E",
"R  c #414F5E",
"E  c #424F5E",
"W  c #414E5D",
"Q  c #5B4E5D",
"!  c #42505F",
"~  c #41505D",
"^  c #4A535D",
"/  c #604E44",
"(  c #735846",
")  c #7A5E4A",
"_  c #6E5B5E",
"`  c #6A5848",
"'  c #77675A",
"]  c #425160",
"[  c #425261",
"{  c #435261",
"}  c #435361",
"|  c #435362",
" . c #445362",
".. c #455362",
"X. c #445463",
"o. c #455463",
"O. c #465562",
"+. c #455564",
"@. c #475564",
"#. c #465564",
"$. c #475665",
"%. c #465665",
"&. c #475766",
"*. c #445463",
"=. c #485665",
"-. c #485764",
";. c #475866",
":. c #475867",
">. c #485967",
",. c #495865",
"<. c #475A68",
"1. c #495B68",
"2. c #4B5C6A",
"3. c #4B5C6A",
"4. c #4A5C69",
"5. c #4C5E6A",
"6. c #4A5C6A",
"7. c #555061",
"8. c #595161",
"9. c #555D66",
"0. c #545F69",
"q. c #425D75",
"w. c #425E79",
"e. c #4F616C",
"r. c #4E616D",
"t. c #50636E",
"y. c #50636F",
"u. c #50606C",
"i. c #52656F",
"p. c #52636D",
"a. c #5C686F",
"s. c #5B6365",
"d. c #43617B",
"f. c #536570",
"g. c #536671",
"h. c #566973",
"j. c #5A6A70",
"k. c #5A6A71",
"l. c #596970",
"z. c #5C6C73",
"x. c #5D6D74",
"c. c #5A6E76",
"v. c #596E78",
"b. c #5E7077",
"n. c #5D7078",
"m. c #606265",
"M. c #6E6F69",
"N. c #626E74",
"B. c #657477",
"V. c #667578",
"C. c #813838",
"Z. c #925A4A",
"A. c #987B5C",
"S. c #A1754F",
"D. c #A57D53",
"F. c #A97A53",
"G. c #857C69",
"H. c #AC8155",
"J. c #AF8758",
"K. c #B18356",
"L. c #B28A57",
"P. c #BB8D59",
"I. c #BE9662",
"U. c #C4955B",
"Y. c #C7995D",
"T. c #C9A067",
"R. c #3F6182",
"E. c #416684",
"W. c #446982",
"Q. c #496A84",
"!. c #456C8B",
"~. c #47708E",
"^. c #48718E",
"/. c #4A7490",
"(. c #4E7B96",
"). c #4F7C98",
/* pixels */
"1 - o @ - - - - - - - - - - - 1 ! k 8 k I I I I I I I I b I I I I I I I I I I I c I I I c 8 k I > - - - - - - - - - - - - o 1 8 ",
"1 1 ; @ - - - 1 8 1 ; 8 9 9 9 9 k  .k c u.u.u.u.u.u.u.4. .u.u.u.u.u.u.u.u.u.i.5.+.u.u.i.! 9  .k 8 8 9 9 9 9 9 9 1 - - - @ 1 8 1 ",
"- 1 1 - @ - - - 1 8 1 ; 8 9 9 9 9 k k 9  .+.+.+.=.=.=. .I +.=.=.=.=.+.+.=.=.=.+.+.+.+.X.t 9 9 1 8 8 9 9 9 9 9 1 - - - @ 1 4 1 - ",
"1 - - - - @ - - - 1 9 8 1 8 9 9 9 9 9 8 8 { +.+.+.+.=.+.+.=.+.+.+.+.+.{ k k  .+.+.+.{ 8 8 a 1 1 1 1 8 9 8 1 1 - - - @ ; 1 - - 4 ",
"8 k < # ; - @ - - - 1 1 1 1 1 1 1 1 1 1 - 1 k k k k k k k k k k k k k 4 - - 9 k k k 1 - 1 1 1 1 1 1 1 1 1 1 - - - @ 1 1 - - k 9 ",
"8 { ! 1 - 1 - @ @ @ @ - ; ; ; ; - - 1 1 ; - ; 1 1 1 1 1 1 1 1 1 1 1 1 1 1 1 1 1 1 1 - - 1 1 1 ; ; ; ; ; - @ @ @ @ ; 1 - 1 c { 8 ",
"8 {  .k - - 1 - o + + - 1 1 1 1 1 1 1 1 1 - ; 1 1 1 1 1 1 1 1 1 1 1 1 1 1 1 1 1 1 ; - 1 1 1 1 1 1 1 1 1 - o o o - 1 - - c :. .8 ",
"8 { { a k - - 1 - @ - - - - - - - - - - - - @ - - - - - - - - - - - - - - - - - - - - - - - - - - - - - - - @ - 1 - - l X.>.X.8 ",
"8 { { I X.c - - - o + + + @ @ @ @ @ + + o o X o + o o o o + @ o + + o o + + o + @ + + o o + + + o @ @ @ @ o o - - - k +.X.X.{ 8 ",
"8 { X.X.X.c 1 - o X @ - - - - - @ o - - - - - - - - - - - - - - - - - - - - - - - - - - - - o + - - - - - @ X X - k >.:.k I { 8 ",
"1 I X.X.+.9 1 1 o # 1 1 1 - - - - @ - - - - - - - - - - - - - - - - - - - - - - > > - - - - @ # - - - 1 ; ; - o t X.+.+.8 c { 6 ",
"- 9  .X.+.a 1 9 @ - 1 - - 1 8 1 - 8 8 8 8 8 - 1 8 8 8 8 8 8 8 8 8 8 8 8 8 8 8 1 8 8 8 8 8 8 8 - 1 8 1 - - ; - # { X.X.X.! { { 1 ",
"1 9 { X.X.{ a 8 @ - 1 - 1 9 i 8 ; k k k k k 1 9 k k k k k k k k k k k k k k k a k k k k k k k 1 8 a 9 1 - > - # ! X.X.X. .X.{ 8 ",
"t 4.+.X.X.X.c 8 @ - - 8 9 9 a b 8 +.4.4.4.4.>.4.4.4.4.4.4.4.4.4.4.4.4.4.4.4.4.4.4.4.4.4.4.4.:.t I c 9 9 8 - - # k c X.X.k I { 8 ",
"t f.>.X.X.X.c 8 @ - - 9 a c u.z.{ I k.k.k.k.k.k.k.k.k.k.k.k.k.k.k.k.k.k.k.k.k.k.k.k.k.k.k.k.! { x.i.c i 9 ; - # k c X.X.{ +. .1 ",
"1 i.b.5.+.+.c 8 @ - 8 9 b u.x.X.b - + + + + + + + + + + + + + + + + + + + + + + + + + + + + @ a X.z.f.c a 9 - # ! X.X.X.+.i.X.- ",
"1 I 5.c.c.f.c 8 @ - 9 k 5.x.X.c -                                               O           . * k X.z.u.b 9 - # ! X.>.4.i.! 1 - ",
"X.4.U U u.c.4.9 + - 8 b k.X.k - .   - -   . . . . . . O . . . . .   - -       O = O .   O O . . - k X.c.! 9 - @ { 4.u.h.! 9 I b ",
" .>.c.>.k ! 4.t o o 1 9 e.+.- O     ^ 9.  . .       O * O   . .   O 0.^   .     .       : :     X - >.g.l 1 + + ! u.X.b :.f.h.{ ",
"+.h.c.c.f.X.8 1 + - - ; ! 4.-       O O . . . 1 @   . .       .   : 3 O .     * = = * O . . O O   - i.5.1 - - o 1 k +.f.c.c.h.{ ",
"+.h.f.c.c.h.:.9 + - 9 k u.-.-       . . . . O N.1   .     . O .   . .     = : A D D D 7 = O : =   - >.h.c 9 - + b h.c.c.f.h.h. .",
"+.f.r.h.c.c.r.{ # - 9 k h.B.-   O & . . . . . O .   . .   O & .         = Z R.R.R.D D A Z 3 . .   - B.x.c 9 - - h.h.h.c.r.h.h. .",
"+.h.h.h.c.v.r.| # - 9 9 h.B.-   & : . .             . . . . .         = S !.!.!.!.E.D Z Z B 3 &   - B.b.c 9 - - h.f.f.c.c.c.h. .",
"+.f.{ | +.>.+.{ # - 9 b h.B.-     . .   $ H H J K o . . . .   < 1     B (.).).).).).(.E.D Z Z :   - B.b.c 8 - - h.c.c.c.c.c.h. .",
"+.r.a ^.Q.q.g c - - 9 c c.B.-   . .   $ ) F.K.U.I.` o . . .   P ^   = S ^.^.^.^.^.^.~.^.D B B 3 O - B.b.c 9 - - h.c.c.c.c.c.h. .",
"+.r.9 Q.Q.Q.C a - - 9 c c.B.- .   .   J F.F.P.Y.T.J.$               u R.R.R.R.R.R.R.R.R.Z m m m & - B.x.c 9 - - h.c.f.r.5.h.h.{ ",
"+.r.9 d.w.w.N a - - 9 c c.B.- O O .   J F.F.P.Y.Y.L.$   O & . . .   7 R.R.R.R.R.R.R.R.R.Z m m m & - B.x.c 9 - - h.f.5.5.4.4.f.{ ",
"+.r.8 d.d.d.N b - - 9 c c.B.- O O .   H S.F.K.U.Y.D.$   O & . .     M ^.!.!.~.~.~.!.!.~.F Z Z B = - B.x.I 9 - - h.4.4.c.c. .r. .",
"+.r.8 Q Q Q L h - - 9 c c.V.-     . . $ ( F.F.K.H.J o .     . . .   : W.(.(.(.(.(.(.(./.R.D D m O - V.b.I 9 - - h.4.4.c.c.X.r. .",
"+.r.2 C.% % 5 h - - 9 c c.V.-     . .   $ H H H G o   . . . . . .     M !.!.!.!.!.!.E.Z B B B =   - V.b.I 9 - - h.4.4.c.c.4.i. .",
"+.r.8 8.8.7.L c - - 1 k c.V.-   O O . . .         . . . . . . . .     & V R.R.R.R.R.D m m m : . . - V.b.I 9 - - h.4.>.c.c.>.r. .",
"+.r.8 d.d.w.N c - - 8 b c.V.-   . O . . . O . . . O .   & : . .   . .   & 7 B B B B B m m 3 O . . - V.b.I 9 - - h.4.>.c.c.X.r. .",
"+.r.8 d.q.C N c - - 9 k h.B.-     . . .   l 1   . O .   O O . .   : :     O & 7 m m m 3 & O   & O - B.c.b 9 - - h.5.>.c.c.X.r. .",
"+.r.8 d.w.A N b - - - ; X.5.- O     O O   - @       . O .   . . . O O . .   . O & & & O . . . O O - U ! 1 ; - - h.h.4.r.h.+.r. .",
"+.r.4 u u 4 8 c - - 8 t k.5.I - .   1 8       . .   @ ! O   . . .     . . . .           & &   . - c >.k.k 8 - - h.c.h.X.b r.h.{ ",
"+.u.9 8 9 { 4.o.- - 9 k u.B.X.k * . O O             . @ .           . . : &     .     . . . . - b X.x.i.k 9 - - h.c.c.h.f.h.h.{ ",
"+.f.5.r.f.h.r.o.- - 8 9 b u.x.X.k - @ @ - - * - - - @ @ @ @ * * * - @ @ - - * @ @ @ @ @ @ @ - a X.k.i.c 9 8 - - h.c.c.c.c.5.i.{ ",
"+.h.c.v.c.h.5.o.- - - 9 9 b i.k.k X.B.B.B.B.B.B.B.B.B.B.B.B.B.B.B.B.B.B.B.B.B.B.B.B.B.B.B.B.-.k k.i.b 9 9 - - - u.c.c.c.c.h.h.{ ",
"+.r.k._ m.s.X.o.- - - 8 9 9 b X.b u.h.h.h.h.h.! u.h.h.h.h.h.h.h.h.h.h.h.h.h.h.h.h.h.h.h.h.h.i.9 I c 9 9 9 - - + k f.h.c.c.c.h.{ ",
" .4.a.Z.' G.r.o.- - - - 8 9 9 8 1 k k k k k k 8 a b b c c c b b c c b b b b b c c c c b k k k ; 6 9 9 9 8 - - @ t I 4.f.h.h.h.{ ",
"+.h.N.A.M.B.4.c # - ; - - 8 8 1 - 8 8 8 8 8 9 9 9 9 9 9 9 9 8 8 9 9 8 8 9 9 9 9 9 9 9 8 8 8 8 - 1 8 8 4 - - - - u.5.! a >.4.u.{ ",
"+.h.c.c.f.4.8 - o - 1 1 ; 1 1 - @ ; 1 1 1 1 1 - 1 1 1 - > 1 1 1 1 1 1 1 1 1 > ; - 1 1 1 1 1 1 @ - 1 ; - ; ; - # +.h.h.+.b c >.k ",
"+.h.f.r.{ k 9 8 @ - 9 8 8 8 9 8 - 8 c k z I I - y I k - 1 k k k k k k k k k 1 8 - k I I I I 9 - 1 9 9 9 9 8 - # ! +. .5.4.I 8 - ",
"+.r.{ I I >.h.! @ - 9 ; ; ; 8 1 - 8 8 1 4 8 8 - 8 4 8 9 9 9 9 9 9 9 9 9 9 8 1 8 - 8 9 9 9 9 9 - 1 1 8 8 8 8 - # ! X.I ! X.r.! - ",
"c I k X.g.r.I 9 @ - 9 a a a a 8 - 9 9 9 9 9 8 - 8 8  .! I I I I I I I I I  .8 9 - 9 9 9 8 9 9 - 1 1 8 8 8 8 - # ! X.X.X.X.+.c 8 ",
"1 c r.h.+.+.c 8 @ - 9 9 a a a 8 > 9 9 9 9 9 8 - 8 8 ! 8 8 8 8 8 8 4 8 8 8 I 8 9 - 9 9 8 8 9 9 - 1 9 9 8 8 8 - # ! { { X.+.X.k 8 ",
"I r.+.+. .X.c 9 @ - 1 > 1 8 8 1 - 1 1 1 1 1 1 - 1 1 9 1 1 1 1 1 1 1 1 1 1 9 1 1 @ 1 1 1 1 1 1 - ; 1 1 1 1 1 # + k k b X.{ { k 1 ",
"k X. .k a X.c 4 o o - - - - - - @ - - - - - - + - - ; - - - - - - - - - - ; - - + - - - - - - @ - - - - - - X o 1 k I X.a c k 1 ",
"k  .{ 8 k I 8 - o + @ @ @ @ @ + o @ @ @ @ @ @ o @ # - # # # # # # # # # # # # @ o @ @ @ @ @ o o + @ @ @ @ + X + - 9 { X.c I k 1 ",
"k  .{ k I 1 - - o @ @ @ + @ o o - - - - - - - - - - - - - - - - - - - - - - - - - - - - - - - - o o + + + + + o - > 9 { X. .k 1 ",
"a { +.! 8 - - @ o - - 1 ; - - 1 9 i 8 8 8 8 8 8 8 8 8 8 8 8 8 8 8 8 8 8 8 8 8 8 8 8 8 8 8 8 a a 1 - - ; ; ; - + @ - ; 9 { X.k 1 ",
"a { t 8 - - @ o - - 1 1 1 - 6 { X.>. .! ! I ! ! ! ! ! ! ~ ! ! ! I I ! ! ! ! ! ! ! ! ! ! ! ! >.X.X.9 - 1 1 1 ; - @ - - > 9 { k 1 ",
"a I - - - - + - ; 8 9 8 > - { +.X.>.5.5.>.>.>.>.4.4.>.>.4.4.4.4.4.4.4.4.>.>.>.>.4.4.>.4.4.4.4.+.X.{ ; - 8 8 1 1 - @ - - ; 9 a 1 ",
"1 8 - - - + * 1 k c a ; ; -.i.i.u.u.i.i.u.u.u.u.u.u.u.u.u.i.u.u.u.u.u.u.u.u.u.u.u.u.u.u.u.u.u.u.u.u.>.1 8 k k a 8 - @ - - ; 9 1 ",
"+ - - - o @ 1 c a c a ; ! u.f.r.>.=.>.>.>.>.=.=.=.=.>.>.>.>.=.=.=.=.>.>.=.=.=.-.=.>.>.>.>.>.=.=.5.f.r.{ 1 k n n c 1 - @ - - - - ",
"+ - - o @ 1 c { c c 1 9 <.4.4.4.+.+.+.+.+.+.+.+.+.+.+.+.+.+.+.+.+.+.+.+.+.+.+.+.+.+.+.+.+.+.+.+.<.4.4.4.9 1 k n c k 1 - @ - - + ",
"@ - + @ ; b { | { 1 1 X.5.5.5.5.5.5.5.5.5.5.5.5.5.5.5.5.5.5.5.5.5.5.r.5.5.5.5.5.5.5.5.5.5.5.5.5.5.5.5.5.:.1 t c k 9 a 1 - @ # + ",
"o o - - a ! { { c 1 u.c.x.x.x.x.x.x.x.x.x.x.x.x.x.x.b.b.x.x.x.x.x.x.b.b.x.x.x.x.x.x.b.b.x.x.x.x.x.x.x.x.x.u.1 9 c 9 8 9 ; - + O ",
"o - ; 8 9 9 b c 1 1 X.>.>.=.>.>.>.>.>.>.>.>.>.>.>.>.>.>.>.>.>.>.>.>.>.>.>.>.>.>.>.>.>.>.>.>.>.>.>.>.>.=.=.X.1 ; k c 9 1 1 - - o ",
"- 1 { +.:.:.:.8 8 i.b.b.x.h.x.b.b.b.b.b.b.b.b.b.b.b.b.b.b.b.b.b.b.b.b.b.b.b.b.b.b.b.b.b.b.b.b.b.b.b.c.h.h.h.r.8 1 { X.{ ! 9 1 - ",
"1 ! t k 4.4.t ; { r.r.5.5.4.r.r.r.r.r.r.r.r.r.r.r.r.r.r.r.r.r.r.r.r.r.r.r.r.r.r.r.r.r.r.r.r.r.r.r.r.r.r.r.r.r.{ 1 8 X.+.b I I 1 ",
"+.4.:.:.4.c ; b 4.4.<.k a c 4.4.4.4.4.4.4.4.4.5.4.{ 4.4.4.4.4.4.4.4.4.4.4.4.4.4.4.4.4.4.4.:.{ 4.4.4.4.4.5.5.5.4.c ; 9 +.X.+.X.8 ",
"4.4.4.4.! > 9 <.4.4.4.+.+.:.4.4.4.4.4.4.4.4.4.4.4.+.4.4.4.4.4.4.4.4.4.4.4.4.4.4.4.4.4.4.4.<.:.4.4.4.4.4.4.4.4.4.<.9 - t +.X.{ 9 ",
"9 a a 9 - - 8 9 9 9 9 9 9 9 9 9 9 9 9 9 9 9 9 9 9 9 9 9 9 9 a a 9 9 9 t a a a a a 9 t t a a a t 9 9 9 9 9 9 9 9 9 9 ; 1 9 9 9 8 "
};
